%
(Header)
(Generated by gcodetools from Inkscape.)
(Using default header. To add your own header create file "header" in the output dir.)
M3
(Header end.)
G21 (All units in mm)

(Pass at depth -1.0)
(Start cutting path id: path898)
(Change tool to Cylindrical cutter)

M5
G4 P0.1
G00 X 4.9568 Y 81.7070

M3 S300
G03 X 4.6798 Y 80.8404 Z -1.0000 I 0.5064 J -0.6394 F 400.0000
G02 X 4.8210 Y 79.8467 Z -1.0000 I -3.4259 J -0.9937
G01 X 4.8210 Y 74.4280 Z -1.0000
G01 X 4.8210 Y 52.1607 Z -1.0000
G01 X 4.8210 Y 16.6853 Z -1.0000
G01 X 4.8210 Y 8.0493 Z -1.0000
G01 X 4.8210 Y 5.9327 Z -1.0000
G02 X 4.8016 Y 5.5388 Z -1.0000 I -3.9735 J -0.0018
G03 X 4.9568 Y 5.1730 Z -1.0000 I 0.4124 J -0.0409
G03 X 5.8642 Y 4.9710 Z -1.0000 I 0.6625 J 0.8365
G02 X 6.8530 Y 5.0860 Z -1.0000 I 0.9888 J -4.1915
G01 X 11.9330 Y 5.0860 Z -1.0000
G01 X 31.8297 Y 5.0860 Z -1.0000
G01 X 46.1383 Y 5.0860 Z -1.0000
G01 X 49.7790 Y 5.0860 Z -1.0000
G02 X 50.4962 Y 5.0133 Z -1.0000 I 0.0000 J -3.5702
G03 X 51.1673 Y 5.1730 Z -1.0000 I 0.1641 J 0.8002
G03 X 51.4442 Y 6.0396 Z -1.0000 I -0.5064 J 0.6394
G02 X 51.3030 Y 7.0333 Z -1.0000 I 3.4257 J 0.9937
G01 X 51.3030 Y 12.4520 Z -1.0000
G01 X 51.3030 Y 34.7193 Z -1.0000
G01 X 51.3030 Y 70.1947 Z -1.0000
G01 X 51.3030 Y 78.8307 Z -1.0000
G01 X 51.3030 Y 80.9473 Z -1.0000
G02 X 51.3224 Y 81.3411 Z -1.0000 I 3.9736 J 0.0015
G03 X 51.1673 Y 81.7070 Z -1.0000 I -0.4125 J 0.0409
G03 X 50.2597 Y 81.9090 Z -1.0000 I -0.6625 J -0.8367
G02 X 49.2710 Y 81.7940 Z -1.0000 I -0.9887 J 4.1918
G01 X 44.1910 Y 81.7940 Z -1.0000
G01 X 24.2943 Y 81.7940 Z -1.0000
G01 X 9.9857 Y 81.7940 Z -1.0000
G01 X 6.3450 Y 81.7940 Z -1.0000
G02 X 5.6278 Y 81.8668 Z -1.0000 I 0.0000 J 3.5698
G03 X 4.9568 Y 81.7070 Z -1.0000 I -0.1641 J -0.7999
M5
G4 P0.1

(Change tool to Cylindrical cutter)

M5
G4 P0.1
G00 X 51.1337 Y 81.6247

M3 S300
G01 X 51.1337 Y 5.2553 Z -1.0000 F 400.0000
G01 X 4.9903 Y 5.2553 Z -1.0000
G01 X 4.9903 Y 81.6247 Z -1.0000
G01 X 51.1337 Y 81.6247 Z -1.0000
M5
G4 P0.1

(Change tool to Cylindrical cutter)

M5
G4 P0.1
G00 X 15.7430 Y 79.7620

M3 S300
G01 X 32.2530 Y 79.7620 Z -1.0000 F 400.0000
G01 X 32.2530 Y 76.2907 Z -1.0000
G01 X 31.9143 Y 76.2907 Z -1.0000
G01 X 31.9143 Y 74.3433 Z -1.0000
G02 X 33.0099 Y 74.2111 Z -1.0000 I 0.0000 J -4.6032
G03 X 33.8617 Y 74.6820 Z -1.0000 I 0.1708 J 0.6969
G01 X 39.8730 Y 74.6820 Z -1.0000
G03 X 39.9042 Y 73.0294 Z -1.0000 I 43.7237 J -0.0000
G02 X 39.8681 Y 71.3800 Z -1.0000 I -13.8133 J -0.5225
G02 X 39.6703 Y 70.7253 Z -1.0000 I -1.6204 J 0.1324
G03 X 39.5537 Y 70.0253 Z -1.0000 I 0.9300 J -0.5145
G03 X 40.2168 Y 69.2876 Z -1.0000 I 0.9243 J 0.1639
G03 X 41.1795 Y 69.5507 Z -1.0000 I 0.2662 J 0.9187
G03 X 41.3344 Y 70.4350 Z -1.0000 I -0.5948 J 0.5599
G02 X 41.0839 Y 71.2107 Z -1.0000 I 3.9037 J 1.6889
G02 X 40.9773 Y 72.9356 Z -1.0000 I 5.4834 J 1.2048
G03 X 41.0583 Y 74.6820 Z -1.0000 I -18.7691 J 1.7464
G01 X 44.8683 Y 74.6820 Z -1.0000
G01 X 44.8683 Y 58.0873 Z -1.0000
G02 X 43.8946 Y 58.3002 Z -1.0000 I 0.0000 J 2.3334
G03 X 43.0057 Y 58.4947 Z -1.0000 I -0.8898 J -1.9377
G03 X 42.3703 Y 58.3036 Z -1.0000 I -0.0002 J -1.1512
G02 X 41.7357 Y 58.0911 Z -1.0000 I -0.7148 J 1.0804
G02 X 38.7740 Y 58.0433 Z -1.0000 I -2.0013 J 32.2276
G03 X 35.8090 Y 58.0874 Z -1.0000 I -2.9650 J -99.6555
G01 X 33.4383 Y 58.0874 Z -1.0000
G02 X 32.9293 Y 58.1022 Z -1.0000 I -0.0000 J 8.7385
G03 X 32.4416 Y 57.9516 Z -1.0000 I -0.0425 J -0.7274
G03 X 32.0200 Y 56.7754 Z -1.0000 I 0.7084 J -0.9176
G02 X 32.1683 Y 55.4627 Z -1.0000 I -5.7362 J -1.3127
G01 X 32.1683 Y 49.3667 Z -1.0000
G02 X 32.0574 Y 48.1610 Z -1.0000 I -6.6078 J 0.0000
G03 X 32.3384 Y 47.0315 Z -1.0000 I 1.3807 J -0.2562
G03 X 33.4484 Y 46.6312 Z -1.0000 I 0.8789 J 0.6979
G02 X 34.7930 Y 46.7420 Z -1.0000 I 1.1128 J -5.2894
G01 X 34.7930 Y 45.4720 Z -1.0000
G02 X 33.5130 Y 45.6345 Z -1.0000 I -0.0000 J 5.1241
G03 X 32.3812 Y 45.3321 Z -1.0000 I -0.2978 J -1.1545
G03 X 32.0854 Y 44.4199 Z -1.0000 I 0.7226 J -0.7384
G02 X 32.1683 Y 43.4400 Z -1.0000 I -5.7444 J -0.9799
G01 X 32.1683 Y 38.5294 Z -1.0000
G02 X 32.0972 Y 37.5970 Z -1.0000 I -6.1418 J 0.0000
G03 X 32.3930 Y 36.7263 Z -1.0000 I 0.9843 J -0.1512
G03 X 33.5241 Y 36.4261 Z -1.0000 I 0.8377 J 0.8753
G02 X 34.7930 Y 36.5820 Z -1.0000 I 1.2689 J -5.0834
G03 X 34.8675 Y 32.2044 Z -1.0000 I 128.6700 J -0.0000
G02 X 34.6414 Y 27.8614 Z -1.0000 I -25.2869 J -0.8608
G03 X 34.5091 Y 26.5442 Z -1.0000 I 17.2367 J -2.3955
G03 X 35.4700 Y 25.5904 Z -1.0000 I 0.8985 J -0.0558
G03 X 36.3131 Y 26.6190 Z -1.0000 I -0.0633 J 0.9117
G03 X 36.1202 Y 27.9460 Z -1.0000 I -41.4895 J -5.3537
G02 X 35.8763 Y 32.2460 Z -1.0000 I 20.5320 J 3.3214
G03 X 35.9783 Y 36.5820 Z -1.0000 I -92.0553 J 4.3360
G03 X 36.6013 Y 37.0358 Z -1.0000 I -0.0871 J 0.7740
G03 X 36.3079 Y 37.7892 Z -1.0000 I -0.5162 J 0.2328
G03 X 34.8838 Y 37.9239 Z -1.0000 I -0.9223 J -2.1552
G02 X 33.4383 Y 37.7673 Z -1.0000 I -1.4463 J 6.6002
G01 X 33.4383 Y 44.2867 Z -1.0000
G02 X 34.8856 Y 44.1301 Z -1.0000 I 0.0000 J -6.7680
G03 X 36.3079 Y 44.2647 Z -1.0000 I 0.5009 J 2.2883
G03 X 36.6013 Y 45.0182 Z -1.0000 I -0.2228 J 0.5206
G03 X 35.9783 Y 45.4719 Z -1.0000 I -0.7100 J -0.3202
G01 X 35.9783 Y 46.7419 Z -1.0000
G03 X 36.6013 Y 47.1957 Z -1.0000 I -0.0871 J 0.7740
G03 X 36.3079 Y 47.9491 Z -1.0000 I -0.5162 J 0.2328
G03 X 34.9003 Y 48.1255 Z -1.0000 I -1.0108 J -2.3618
G02 X 33.4383 Y 48.0119 Z -1.0000 I -1.4619 J 9.3515
G01 X 33.4383 Y 56.9019 Z -1.0000
G03 X 37.7268 Y 57.0462 Z -1.0000 I 0.0000 J 63.8058
G02 X 41.9897 Y 56.8897 Z -1.0000 I 1.3815 J -20.5081
G02 X 42.4883 Y 56.7135 Z -1.0000 I -0.1876 J -1.3244
G03 X 43.0057 Y 56.5707 Z -1.0000 I 0.5174 J 0.8657
G03 X 43.7453 Y 56.7314 Z -1.0000 I 0.0000 J 1.7819
G02 X 44.5297 Y 56.9019 Z -1.0000 I 0.7844 J -1.7194
G02 X 45.2112 Y 56.8459 Z -1.0000 I -0.0000 J -4.1749
G03 X 45.8607 Y 57.0304 Z -1.0000 I 0.1292 J 0.7808
G03 X 46.0915 Y 57.6274 Z -1.0000 I -0.4519 J 0.5178
G02 X 46.0538 Y 58.2566 Z -1.0000 I 5.6593 J 0.6555
G02 X 46.0518 Y 59.8652 Z -1.0000 I 227.1682 J 1.0804
G03 X 46.0537 Y 61.4739 Z -1.0000 I -691.7052 J 1.6087
G01 X 46.0537 Y 74.6819 Z -1.0000
G01 X 47.4083 Y 74.6819 Z -1.0000
G03 X 47.4819 Y 73.0339 Z -1.0000 I 18.5039 J 0.0000
G02 X 47.4881 Y 71.3799 Z -1.0000 I -9.6557 J -0.8634
G02 X 47.2824 Y 70.7591 Z -1.0000 I -1.3802 J 0.1128
G03 X 47.1423 Y 70.1099 Z -1.0000 I 0.8309 J -0.5190
G03 X 47.5263 Y 69.4608 Z -1.0000 I 0.9575 J 0.1283
G03 X 48.2549 Y 69.2825 Z -1.0000 I 0.5777 J 0.7829
G03 X 48.7916 Y 69.5605 Z -1.0000 I -0.1483 J 0.9433
G03 X 49.0464 Y 70.1100 Z -1.0000 I -0.6574 J 0.6387
G03 X 48.9017 Y 70.7203 Z -1.0000 I -0.9620 J 0.0942
G02 X 48.6905 Y 71.2952 Z -1.0000 I 1.2345 J 0.7796
G02 X 48.6399 Y 72.9835 Z -1.0000 I 7.5715 J 1.0719
G03 X 48.6330 Y 74.6819 Z -1.0000 I -9.9948 J 0.8083
G02 X 48.6046 Y 75.2783 Z -1.0000 I 7.1808 J 0.6406
G03 X 48.2504 Y 75.8044 Z -1.0000 I -0.5730 J -0.0035
G03 X 47.4995 Y 75.9102 Z -1.0000 I -0.5811 J -1.4067
G02 X 46.7310 Y 75.8672 Z -1.0000 I -0.7685 J 6.8502
G02 X 45.2943 Y 75.9095 Z -1.0000 I 0.0000 J 24.4436
G03 X 43.8523 Y 75.9519 Z -1.0000 I -1.4420 J -24.4917
G01 X 33.8617 Y 75.9519 Z -1.0000
G01 X 33.4383 Y 76.2906 Z -1.0000
G03 X 33.4337 Y 77.8993 Z -1.0000 I -279.6112 J -0.0000
G02 X 33.4387 Y 79.5079 Z -1.0000 I 90.9829 J 0.5235
G02 X 33.4963 Y 80.1324 Z -1.0000 I 3.9175 J -0.0465
G03 X 33.3102 Y 80.7412 Z -1.0000 I -0.6941 J 0.1207
G03 X 31.8561 Y 81.1542 Z -1.0000 I -1.0807 J -1.0386
G02 X 30.2210 Y 80.9472 Z -1.0000 I -1.6351 J 6.3566
G01 X 21.4157 Y 80.9472 Z -1.0000
G01 X 16.3357 Y 80.9472 Z -1.0000
G02 X 15.4078 Y 81.0029 Z -1.0000 I 0.0000 J 7.7600
G03 X 14.6087 Y 80.5223 Z -1.0000 I -0.0908 J -0.7537
G03 X 14.4724 Y 79.0228 Z -1.0000 I 2.5674 J -0.9894
G02 X 14.5433 Y 77.4759 Z -1.0000 I -5.4265 J -1.0238
G03 X 14.4402 Y 72.1270 Z -1.0000 I 35.2644 J -3.3554
G02 X 14.4697 Y 66.7232 Z -1.0000 I -53.0858 J -2.9923
G03 X 14.4295 Y 61.7560 Z -1.0000 I 66.5838 J -3.0230
G02 X 14.4727 Y 56.7326 Z -1.0000 I -122.0810 J -3.5625
G03 X 14.4462 Y 47.8160 Z -1.0000 I 496.5856 J -5.9353
G02 X 14.4730 Y 38.8679 Z -1.0000 I -1490.5722 J -8.9481
G02 X 14.3814 Y 36.6132 Z -1.0000 I -27.7889 J 0.0000
G03 X 14.3041 Y 34.3806 Z -1.0000 I 23.9085 J -1.9462
G03 X 14.4386 Y 31.5622 Z -1.0000 I 39.4760 J 0.4718
G02 X 14.5577 Y 28.7079 Z -1.0000 I -34.1306 J -2.8543
G02 X 14.4357 Y 26.7870 Z -1.0000 I -15.1805 J -0.0000
G03 X 14.3041 Y 24.8979 Z -1.0000 I 16.3996 J -2.0919
G03 X 14.3753 Y 20.7234 Z -1.0000 I 71.0960 J -0.8739
G02 X 14.4730 Y 16.5159 Z -1.0000 I -90.5372 J -4.2074
G02 X 14.3525 Y 15.1269 Z -1.0000 I -8.0650 J -0.0000
G03 X 14.3194 Y 13.7219 Z -1.0000 I 4.6473 J -0.8125
G03 X 14.5921 Y 13.1229 Z -1.0000 I 1.0998 J 0.1392
G03 X 15.2338 Y 12.9100 Z -1.0000 I 0.5061 J 0.4517
G03 X 15.7284 Y 13.3518 Z -1.0000 I -0.1314 J 0.6449
G03 X 15.8277 Y 13.9759 Z -1.0000 I -1.9367 J 0.6282
G03 X 15.7434 Y 15.3353 Z -1.0000 I -10.6534 J 0.0220
G02 X 15.6584 Y 16.6852 Z -1.0000 I 10.6677 J 1.3499
G01 X 15.7430 Y 28.7079 Z -1.0000
G01 X 15.7430 Y 79.7620 Z -1.0000
M5
G4 P0.1

(Change tool to Cylindrical cutter)

M5
G4 P0.1
G00 X 17.3533 Y 76.7358

M3 S300
G03 X 16.8945 Y 76.1557 Z -1.0000 I 0.2677 J -0.6832 F 400.0000
G03 X 16.8437 Y 75.4440 Z -1.0000 I 5.0733 J -0.7200
G03 X 16.9360 Y 73.4663 Z -1.0000 I 20.5388 J -0.0325
G02 X 17.0126 Y 71.4647 Z -1.0000 I -17.6282 J -1.6770
G02 X 16.8210 Y 70.7482 Z -1.0000 I -1.5399 J 0.0279
G03 X 16.7229 Y 70.0257 Z -1.0000 I 0.8840 J -0.4880
G03 X 17.1761 Y 69.4097 Z -1.0000 I 0.9549 J 0.2279
G03 X 17.9440 Y 69.3491 Z -1.0000 I 0.4455 J 0.7493
G03 X 18.4278 Y 69.7977 Z -1.0000 I -0.3382 J 0.8497
G03 X 18.5134 Y 70.4487 Z -1.0000 I -0.9288 J 0.4534
G03 X 18.3554 Y 70.8678 Z -1.0000 I -1.3119 J -0.2552
G02 X 18.2096 Y 71.2953 Z -1.0000 I 0.9800 J 0.5728
G02 X 18.2553 Y 73.6750 Z -1.0000 I 8.0345 J 1.0362
G03 X 18.3631 Y 76.0366 Z -1.0000 I -9.6569 J 1.6240
G03 X 18.0455 Y 76.6331 Z -1.0000 I -0.8380 J -0.0633
G03 X 17.3533 Y 76.7358 Z -1.0000 I -0.4356 J -0.5522
M5
G4 P0.1

(Change tool to Cylindrical cutter)

M5
G4 P0.1
G00 X 20.9077 Y 74.6820

M3 S300
G01 X 24.6330 Y 74.7667 Z -1.0000 F 400.0000
G01 X 24.6330 Y 59.6960 Z -1.0000
G01 X 24.6330 Y 54.8700 Z -1.0000
G02 X 24.5889 Y 53.6801 Z -1.0000 I -16.0664 J -0.0000
G03 X 24.6523 Y 52.4994 Z -1.0000 I 4.6258 J -0.3435
G03 X 26.0455 Y 51.5955 Z -1.0000 I 1.1236 J 0.2062
G02 X 27.9350 Y 51.8220 Z -1.0000 I 1.8921 J -7.7908
G03 X 28.5108 Y 51.8424 Z -1.0000 I -0.0037 J 8.2542
G03 X 29.0075 Y 52.1699 Z -1.0000 I -0.0426 J 0.6050
G03 X 28.9900 Y 52.7485 Z -1.0000 I -0.5315 J 0.2734
G03 X 28.5264 Y 53.0727 Z -1.0000 I -0.5903 J -0.3505
G03 X 27.2204 Y 53.1432 Z -1.0000 I -0.9192 J -4.8948
G02 X 25.9030 Y 53.0920 Z -1.0000 I -1.3174 J 16.9127
G01 X 25.9030 Y 68.5013 Z -1.0000
G01 X 25.9030 Y 73.2427 Z -1.0000
G02 X 25.9604 Y 74.3516 Z -1.0000 I 10.7544 J -0.0000
G03 X 25.8663 Y 75.4427 Z -1.0000 I -2.8945 J 0.3001
G03 X 25.3204 Y 75.9103 Z -1.0000 I -0.6242 J -0.1762
G03 X 24.6330 Y 75.9520 Z -1.0000 I -0.6878 J -5.6538
G03 X 22.9259 Y 75.8591 Z -1.0000 I -0.0011 J -15.7196
G02 X 21.2513 Y 75.9086 Z -1.0000 I -0.6595 J 6.0412
G02 X 20.8680 Y 76.2605 Z -1.0000 I 0.0799 J 0.4717
G03 X 20.5509 Y 76.6871 Z -1.0000 I -0.6834 J -0.1768
G03 X 19.9958 Y 76.7709 Z -1.0000 I -0.3778 J -0.6221
G03 X 19.5410 Y 76.4508 Z -1.0000 I 0.1888 J -0.7513
G03 X 19.1668 Y 75.2072 Z -1.0000 I 1.8366 J -1.2307
G03 X 19.6613 Y 74.0283 Z -1.0000 I 1.6758 J 0.0098
G03 X 20.5243 Y 73.9672 Z -1.0000 I 0.4669 J 0.4698
G03 X 20.9077 Y 74.6820 Z -1.0000 I -0.5723 J 0.7672
M5
G4 P0.1

(Change tool to Cylindrical cutter)

M5
G4 P0.1
G00 X 18.1137 Y 75.1900

M3 S300
G01 X 17.0977 Y 75.1900 Z -1.0000 F 400.0000
G02 X 17.6054 Y 75.6019 Z -1.0000 I 0.5376 J -0.1439
G02 X 18.1137 Y 75.1900 Z -1.0000 I 0.0262 J -0.4872
M5
G4 P0.1

(Change tool to Cylindrical cutter)

M5
G4 P0.1
G00 X 20.2304 Y 75.7827

M3 S300
G01 X 20.2304 Y 74.7667 Z -1.0000 F 400.0000
G02 X 19.8439 Y 75.2770 Z -1.0000 I 0.1900 J 0.5454
G02 X 20.2304 Y 75.7827 Z -1.0000 I 0.4855 J 0.0295
M5
G4 P0.1

(Change tool to Cylindrical cutter)

M5
G4 P0.1
G00 X 14.7270 Y 75.3593

M3 S300
G01 X 14.7270 Y 75.1900 Z -1.0000 F 400.0000
G01 X 14.5577 Y 75.1900 Z -1.0000
G01 X 14.5577 Y 75.3593 Z -1.0000
G01 X 14.7270 Y 75.3593 Z -1.0000
M5
G4 P0.1

(Change tool to Cylindrical cutter)

M5
G4 P0.1
G00 X 15.5455 Y 75.3029

M3 S300
G01 X 15.5172 Y 75.2464 Z -1.0000 F 400.0000
G01 X 15.5455 Y 75.3029 Z -1.0000
M5
G4 P0.1

(Change tool to Cylindrical cutter)

M5
G4 P0.1
G00 X 32.5070 Y 75.2747

M3 S300
G01 X 32.8457 Y 74.8513 Z -1.0000 F 400.0000
G01 X 32.5070 Y 75.2747 Z -1.0000
M5
G4 P0.1

(Change tool to Cylindrical cutter)

M5
G4 P0.1
G00 X 32.2530 Y 60.7120

M3 S300
G01 X 28.7817 Y 60.7120 Z -1.0000 F 400.0000
G02 X 28.0994 Y 60.7609 Z -1.0000 I 0.0000 J 4.7850
G03 X 27.4539 Y 60.5763 Z -1.0000 I -0.1170 J -0.8119
G03 X 27.2031 Y 59.9096 Z -1.0000 I 0.4695 J -0.5572
G02 X 27.2577 Y 59.1880 Z -1.0000 I -4.7456 J -0.7216
G02 X 27.2154 Y 57.4139 Z -1.0000 I -37.3598 J 0.0026
G03 X 27.1730 Y 55.6320 Z -1.0000 I 37.4245 J -1.7818
G03 X 26.6015 Y 55.2290 Z -1.0000 I 0.1204 J -0.7775
G03 X 26.7622 Y 54.4977 Z -1.0000 I 0.5037 J -0.2726
G03 X 27.6174 Y 54.2558 Z -1.0000 I 0.7429 J 0.9937
G03 X 28.5272 Y 54.3813 Z -1.0000 I -0.8978 J 9.8729
G03 X 28.9819 Y 55.0801 Z -1.0000 I -0.1049 J 0.5656
G03 X 28.3583 Y 55.6320 Z -1.0000 I -0.7044 J -0.1676
G01 X 28.4430 Y 59.5267 Z -1.0000
G01 X 42.0743 Y 59.4420 Z -1.0000
G01 X 42.0743 Y 59.1033 Z -1.0000
G01 X 44.0217 Y 59.1033 Z -1.0000
G01 X 44.0217 Y 61.0507 Z -1.0000
G01 X 42.0743 Y 61.0507 Z -1.0000
G01 X 42.0743 Y 60.7120 Z -1.0000
G01 X 41.0583 Y 60.7120 Z -1.0000
G03 X 41.0070 Y 63.5930 Z -1.0000 I -80.8305 J 0.0000
G02 X 41.0630 Y 66.4693 Z -1.0000 I 26.0843 J 0.9303
G02 X 41.2589 Y 67.0618 Z -1.0000 I 1.2839 J -0.0957
G03 X 41.4403 Y 67.6547 Z -1.0000 I -0.9927 J 0.6280
G03 X 41.1653 Y 68.3630 Z -1.0000 I -0.9750 J 0.0291
G03 X 40.4657 Y 68.6538 Z -1.0000 I -0.6875 J -0.6672
G03 X 39.7618 Y 68.3078 Z -1.0000 I 0.0115 J -0.9124
G03 X 39.5439 Y 67.5700 Z -1.0000 I 0.8078 J -0.6396
G03 X 39.7074 Y 67.0638 Z -1.0000 I 1.2304 J 0.1178
G02 X 39.8681 Y 66.5540 Z -1.0000 I -1.0393 J -0.6079
G02 X 39.9302 Y 63.6359 Z -1.0000 I -24.1216 J -1.9725
G03 X 39.8730 Y 60.7120 Z -1.0000 I 74.7816 J -2.9239
G01 X 35.2164 Y 60.7120 Z -1.0000
G03 X 34.3599 Y 60.6185 Z -1.0000 I 0.0000 J -3.9685
G02 X 33.5741 Y 60.8477 Z -1.0000 I -0.1838 J 0.8314
G02 X 33.3038 Y 61.8263 Z -1.0000 I 0.7278 J 0.7276
G03 X 33.4384 Y 62.9133 Z -1.0000 I -4.3236 J 1.0870
G03 X 33.4369 Y 65.8343 Z -1.0000 I -2844.0828 J -0.0005
G02 X 33.4384 Y 68.7553 Z -1.0000 I 948.0281 J 0.9737
G02 X 33.6985 Y 69.8157 Z -1.0000 I 2.3103 J -0.0047
G03 X 33.5037 Y 70.9212 Z -1.0000 I -0.8192 J 0.4256
G03 X 32.5087 Y 71.1003 Z -1.0000 I -0.6389 J -0.6958
G03 X 31.9266 Y 70.2793 Z -1.0000 I 0.3530 J -0.8671
G03 X 32.0767 Y 69.6053 Z -1.0000 I 1.3004 J -0.0642
G02 X 32.2526 Y 68.9247 Z -1.0000 I -1.3358 J -0.7082
G02 X 32.2716 Y 64.8185 Z -1.0000 I -149.9692 J -2.7477
G03 X 32.2530 Y 60.7120 Z -1.0000 I 453.4334 J -4.1065
M5
G4 P0.1

(Change tool to Cylindrical cutter)

M5
G4 P0.1
G00 X 47.4083 Y 7.3720

M3 S300
G01 X 38.5183 Y 7.3720 Z -1.0000 F 400.0000
G03 X 38.4473 Y 9.1159 Z -1.0000 I -21.4296 J -0.0000
G02 X 38.5416 Y 10.8433 Z -1.0000 I 6.3568 J 0.5190
G02 X 38.7745 Y 11.6309 Z -1.0000 I 4.1629 J -0.8028
G03 X 38.5837 Y 12.5033 Z -1.0000 I -0.7331 J 0.2967
G03 X 37.6295 Y 12.7106 Z -1.0000 I -0.6494 J -0.6895
G03 X 37.0158 Y 11.9440 Z -1.0000 I 0.2937 J -0.8640
G03 X 37.1447 Y 11.3420 Z -1.0000 I 0.9793 J -0.1051
G02 X 37.3281 Y 10.7587 Z -1.0000 I -1.1875 J -0.6938
G02 X 37.3646 Y 9.0669 Z -1.0000 I -14.3436 J -1.1556
G03 X 37.3330 Y 7.3720 Z -1.0000 I 45.4555 J -1.6949
G01 X 8.1230 Y 7.3720 Z -1.0000
G02 X 8.2563 Y 8.3720 Z -1.0000 I 3.8179 J 0.0000
G03 X 8.3717 Y 9.3193 Z -1.0000 I -3.2147 J 0.8724
G03 X 8.2508 Y 9.8677 Z -1.0000 I -1.4527 J -0.0327
G02 X 8.1246 Y 10.4200 Z -1.0000 I 1.3983 J 0.6102
G02 X 8.0884 Y 14.1445 Z -1.0000 I 65.8638 J 2.5028
G03 X 8.1230 Y 17.8707 Z -1.0000 I -201.4343 J 3.7343
G02 X 8.2560 Y 18.6907 Z -1.0000 I 2.5951 J -0.0002
G03 X 8.3719 Y 19.4793 Z -1.0000 I -2.1650 J 0.7212
G03 X 8.2552 Y 19.9890 Z -1.0000 I -1.3448 J -0.0398
G02 X 8.1276 Y 20.4953 Z -1.0000 I 1.3773 J 0.6163
G02 X 8.0805 Y 22.9488 Z -1.0000 I 22.7625 J 1.6642
G03 X 8.1230 Y 25.4060 Z -1.0000 I -71.0117 J 2.4572
G03 X 8.0967 Y 26.9735 Z -1.0000 I -46.7920 J 0.0000
G02 X 8.1276 Y 28.5387 Z -1.0000 I 14.7051 J 0.4929
G02 X 8.2633 Y 29.0833 Z -1.0000 I 1.6428 J -0.1201
G03 X 8.3719 Y 29.6393 Z -1.0000 I -1.1745 J 0.5181
G03 X 8.2429 Y 30.6305 Z -1.0000 I -5.0078 J -0.1481
G02 X 8.1230 Y 31.6713 Z -1.0000 I 4.4575 J 1.0409
G03 X 8.0612 Y 35.1878 Z -1.0000 I -100.0803 J -0.0000
G02 X 8.1276 Y 38.6987 Z -1.0000 I 32.4778 J 1.1419
G02 X 8.2551 Y 39.2050 Z -1.0000 I 1.5049 J -0.1100
G03 X 8.3719 Y 39.7147 Z -1.0000 I -1.2280 J 0.5495
G03 X 8.2587 Y 40.7445 Z -1.0000 I -3.7356 J 0.1105
G02 X 8.1229 Y 41.8313 Z -1.0000 I 4.2822 J 1.0868
G03 X 8.1085 Y 45.2605 Z -1.0000 I -406.4928 J -0.0000
G02 X 8.1233 Y 48.6893 Z -1.0000 I 134.2685 J 1.1327
G02 X 8.2557 Y 49.3264 Z -1.0000 I 1.7432 J -0.0300
G03 X 8.3719 Y 49.9593 Z -1.0000 I -1.4188 J 0.5875
G03 X 8.2551 Y 50.4690 Z -1.0000 I -1.3448 J -0.0398
G02 X 8.1276 Y 50.9753 Z -1.0000 I 1.3773 J 0.6163
G02 X 8.0975 Y 52.4982 Z -1.0000 I 14.2820 J 1.0441
G03 X 8.1230 Y 54.0233 Z -1.0000 I -45.5848 J 1.5251
G03 X 8.1004 Y 56.4792 Z -1.0000 I -133.8759 J 0.0000
G02 X 8.1246 Y 58.9340 Z -1.0000 I 43.5639 J 0.7993
G02 X 8.2584 Y 59.5247 Z -1.0000 I 1.6473 J -0.0626
G03 X 8.3720 Y 60.1193 Z -1.0000 I -1.2807 J 0.5528
G03 X 8.2034 Y 60.9024 Z -1.0000 I -2.2103 J -0.0662
G02 X 8.0383 Y 61.7280 Z -1.0000 I 1.9868 J 0.8265
G03 X 7.9486 Y 65.8846 Z -1.0000 I -97.9698 J -0.0364
G02 X 8.3416 Y 69.9407 Z -1.0000 I 14.6497 J 0.6276
G03 X 8.2172 Y 70.7229 Z -1.0000 I -1.0037 J 0.2414
G03 X 7.5303 Y 71.1210 Z -1.0000 I -0.7130 J -0.4385
G03 X 6.8724 Y 70.9046 Z -1.0000 I -0.0315 J -1.0125
G03 X 6.5404 Y 70.2793 Z -1.0000 I 0.5416 J -0.6883
G03 X 6.6740 Y 69.6861 Z -1.0000 I 1.0480 J -0.0756
G02 X 6.8493 Y 69.0940 Z -1.0000 I -1.1923 J -0.6749
G02 X 6.8851 Y 66.8515 Z -1.0000 I -25.1388 J -1.5227
G03 X 6.8530 Y 64.6067 Z -1.0000 I 78.5159 J -2.2449
G03 X 6.8825 Y 62.8697 Z -1.0000 I 51.1169 J 0.0000
G02 X 6.8484 Y 61.1353 Z -1.0000 I -16.1623 J -0.5495
G02 X 6.6775 Y 60.5853 Z -1.0000 I -1.2716 J 0.0934
G03 X 6.5392 Y 60.0347 Z -1.0000 I 0.8776 J -0.5131
G03 X 6.6872 Y 59.5281 Z -1.0000 I 1.0774 J 0.0398
G02 X 6.8481 Y 59.0187 Z -1.0000 I -1.0298 J -0.6054
G02 X 6.9161 Y 55.7621 Z -1.0000 I -27.2878 J -2.1985
G03 X 6.8530 Y 52.4993 Z -1.0000 I 84.3646 J -3.2628
G03 X 6.8846 Y 51.6490 Z -1.0000 I 11.4612 J -0.0000
G02 X 6.8277 Y 50.8060 Z -1.0000 I -2.9828 J -0.2219
G02 X 6.6540 Y 50.3534 Z -1.0000 I -1.5138 J 0.3213
G03 X 6.5383 Y 49.8747 Z -1.0000 I 0.7544 J -0.4356
G03 X 6.6885 Y 49.3683 Z -1.0000 I 1.1157 J 0.0553
G02 X 6.8481 Y 48.8587 Z -1.0000 I -1.0424 J -0.6064
G02 X 6.9025 Y 46.2788 Z -1.0000 I -21.6898 J -1.7475
G03 X 6.8530 Y 43.6940 Z -1.0000 I 67.5232 J -2.5848
G03 X 6.9289 Y 42.3000 Z -1.0000 I 12.8455 J 0.0000
G02 X 6.9285 Y 40.9000 Z -1.0000 I -6.3951 J -0.6981
G02 X 6.7100 Y 40.3157 Z -1.0000 I -1.2607 J 0.1384
G03 X 6.5383 Y 39.7147 Z -1.0000 I 0.7970 J -0.5527
G03 X 6.7246 Y 39.1631 Z -1.0000 I 1.0673 J 0.0532
G02 X 6.9285 Y 38.6140 Z -1.0000 I -0.9909 J -0.6803
G02 X 7.0746 Y 34.7678 Z -1.0000 I -26.8334 J -2.9453
G02 X 6.9361 Y 30.9093 Z -1.0000 I -770.8624 J 25.7414
G02 X 6.7343 Y 30.2661 Z -1.0000 I -1.2831 J 0.0493
G03 X 6.5391 Y 29.6393 Z -1.0000 I 1.0446 J -0.6690
G03 X 6.7193 Y 29.0066 Z -1.0000 I 1.0727 J -0.0366
G02 X 6.9339 Y 28.3693 Z -1.0000 I -1.0714 J -0.7156
G02 X 7.0295 Y 24.5606 Z -1.0000 I -53.2282 J -3.2413
G02 X 6.9361 Y 20.7493 Z -1.0000 I -137.5773 J 1.4640
G02 X 6.7343 Y 20.1061 Z -1.0000 I -1.2827 J 0.0492
G03 X 6.5392 Y 19.4793 Z -1.0000 I 1.0435 J -0.6686
G03 X 6.6951 Y 18.9557 Z -1.0000 I 0.8596 J -0.0290
G02 X 6.9121 Y 18.4633 Z -1.0000 I -1.1211 J -0.7880
G02 X 6.9709 Y 17.6206 Z -1.0000 I -2.8017 J -0.6190
G03 X 6.9377 Y 16.7700 Z -1.0000 I 10.8766 J -0.8506
G03 X 7.0433 Y 13.5857 Z -1.0000 I 48.0573 J 0.0000
G02 X 6.9255 Y 10.4200 Z -1.0000 I -15.2956 J -1.0157
G02 X 6.7336 Y 9.9139 Z -1.0000 I -1.2194 J 0.1727
G03 X 6.5459 Y 9.4040 Z -1.0000 I 0.9900 J -0.6540
G03 X 6.6493 Y 8.8805 Z -1.0000 I 0.8500 J -0.1041
G02 X 6.8297 Y 8.3880 Z -1.0000 I -1.4299 J -0.8033
G02 X 6.8264 Y 7.3983 Z -1.0000 I -2.5199 J -0.4862
G03 X 7.0106 Y 6.4499 Z -1.0000 I 1.2477 J -0.2496
G03 X 8.1337 Y 5.9788 Z -1.0000 I 0.9116 J 0.5990
G02 X 9.3930 Y 6.1020 Z -1.0000 I 1.2593 J -6.3734
G01 X 16.5050 Y 6.1020 Z -1.0000
G01 X 39.2803 Y 6.1867 Z -1.0000
G01 X 45.7150 Y 6.1867 Z -1.0000
G02 X 47.0353 Y 6.0459 Z -1.0000 I -0.0000 J -6.2618
G03 X 48.2513 Y 6.2031 Z -1.0000 I 0.3865 J 1.7919
G03 X 48.8148 Y 7.4978 Z -1.0000 I -0.5013 J 0.9882
G02 X 48.5937 Y 9.0653 Z -1.0000 I 5.4448 J 1.5675
G01 X 48.6783 Y 17.9553 Z -1.0000
G01 X 48.6783 Y 55.2087 Z -1.0000
G01 X 48.6783 Y 65.5380 Z -1.0000
G02 X 49.0378 Y 67.2228 Z -1.0000 I 4.1284 J -0.0000
G03 X 48.0010 Y 68.6492 Z -1.0000 I -0.9285 J 0.4151
G03 X 47.2790 Y 67.6972 Z -1.0000 I 0.0874 J -0.8161
G03 X 47.4674 Y 66.7233 Z -1.0000 I 19.6934 J 3.3059
G02 X 47.5191 Y 66.0067 Z -1.0000 I -2.4444 J -0.5363
G03 X 47.4930 Y 65.2840 Z -1.0000 I 10.0053 J -0.7227
G01 X 47.4930 Y 54.2773 Z -1.0000
G01 X 47.4083 Y 7.3720 Z -1.0000
M5
G4 P0.1

(Change tool to Cylindrical cutter)

M5
G4 P0.1
G00 X 7.9537 Y 70.1947

M3 S300
G01 X 7.0223 Y 70.1947 Z -1.0000 F 400.0000
G02 X 7.4895 Y 70.5320 Z -1.0000 I 0.4524 J -0.1343
G02 X 7.9537 Y 70.1947 Z -1.0000 I -0.0160 J -0.5100
M5
G4 P0.1

(Change tool to Cylindrical cutter)

M5
G4 P0.1
G00 X 33.2690 Y 70.2793

M3 S300
G01 X 32.4223 Y 70.1947 Z -1.0000 F 400.0000
G02 X 32.8169 Y 70.5090 Z -1.0000 I 0.4561 J -0.1677
G02 X 33.2690 Y 70.2793 Z -1.0000 I 0.0571 J -0.4475
M5
G4 P0.1

(Change tool to Cylindrical cutter)

M5
G4 P0.1
G00 X 40.0423 Y 70.2793

M3 S300
G01 X 40.9737 Y 70.2793 Z -1.0000 F 400.0000
G02 X 40.4586 Y 69.8495 Z -1.0000 I -0.5765 J 0.1673
G02 X 40.0423 Y 70.2793 Z -1.0000 I -0.0390 J 0.3787
M5
G4 P0.1

(Change tool to Cylindrical cutter)

M5
G4 P0.1
G00 X 47.6623 Y 70.2793

M3 S300
G01 X 48.5937 Y 70.2793 Z -1.0000 F 400.0000
G02 X 48.0786 Y 69.8495 Z -1.0000 I -0.5765 J 0.1673
G02 X 47.6623 Y 70.2793 Z -1.0000 I -0.0390 J 0.3787
M5
G4 P0.1

(Change tool to Cylindrical cutter)

M5
G4 P0.1
G00 X 17.2670 Y 70.1947

M3 S300
G01 X 18.1137 Y 70.1947 Z -1.0000 F 400.0000
G02 X 17.6843 Y 69.8640 Z -1.0000 I -0.6022 J 0.3379
G02 X 17.2670 Y 70.1947 Z -1.0000 I -0.0836 J 0.3232
M5
G4 P0.1

(Change tool to Cylindrical cutter)

M5
G4 P0.1
G00 X 40.9737 Y 67.5700

M3 S300
G03 X 40.4657 Y 67.6885 Z -1.0000 I -0.5080 J -1.0294 F 400.0000
G03 X 39.9577 Y 67.5700 Z -1.0000 I 0.0000 J -1.1479
G02 X 40.4657 Y 67.9848 Z -1.0000 I 0.5080 J -0.1037
G02 X 40.9737 Y 67.5700 Z -1.0000 I 0.0000 J -0.5185
M5
G4 P0.1

(Change tool to Cylindrical cutter)

M5
G4 P0.1
G00 X 48.5937 Y 67.5700

M3 S300
G03 X 48.0857 Y 67.6885 Z -1.0000 I -0.5080 J -1.0294 F 400.0000
G03 X 47.5777 Y 67.5700 Z -1.0000 I 0.0000 J -1.1479
G02 X 48.0857 Y 67.9848 Z -1.0000 I 0.5080 J -0.1037
G02 X 48.5937 Y 67.5700 Z -1.0000 I 0.0000 J -0.5185
M5
G4 P0.1

(Change tool to Cylindrical cutter)

M5
G4 P0.1
G00 X 17.3533 Y 66.5758

M3 S300
G03 X 16.8814 Y 65.9524 Z -1.0000 I 0.2744 J -0.6981 F 400.0000
G03 X 16.8437 Y 65.1993 Z -1.0000 I 7.5545 J -0.7557
G03 X 16.9363 Y 63.2647 Z -1.0000 I 20.0783 J -0.0079
G02 X 17.0126 Y 61.3047 Z -1.0000 I -17.0676 J -1.6455
G02 X 16.8210 Y 60.5882 Z -1.0000 I -1.5399 J 0.0279
G03 X 16.7228 Y 59.8657 Z -1.0000 I 0.8840 J -0.4880
G03 X 17.1825 Y 59.2563 Z -1.0000 I 0.9269 J 0.2212
G03 X 17.9440 Y 59.2009 Z -1.0000 I 0.4397 J 0.7815
G03 X 18.4259 Y 59.6438 Z -1.0000 I -0.3197 J 0.8314
G03 X 18.5177 Y 60.2887 Z -1.0000 I -0.9611 J 0.4658
G03 X 18.3513 Y 60.7479 Z -1.0000 I -1.3528 J -0.2302
G02 X 18.2032 Y 61.2200 Z -1.0000 I 0.9695 J 0.5634
G02 X 18.2797 Y 63.5579 Z -1.0000 I 10.2210 J 0.8359
G03 X 18.3630 Y 65.8767 Z -1.0000 I -10.3524 J 1.5328
G03 X 18.0453 Y 66.4736 Z -1.0000 I -0.8381 J -0.0631
G03 X 17.3533 Y 66.5758 Z -1.0000 I -0.4350 J -0.5516
M5
G4 P0.1

(Change tool to Cylindrical cutter)

M5
G4 P0.1
G00 X 20.9077 Y 64.5220

M3 S300
G01 X 22.1777 Y 64.5220 Z -1.0000 F 400.0000
G01 X 22.1777 Y 54.0233 Z -1.0000
G01 X 22.1777 Y 50.9753 Z -1.0000
G02 X 22.1425 Y 50.2932 Z -1.0000 I -6.6297 J -0.0000
G03 X 22.2405 Y 49.6256 Z -1.0000 I 1.3628 J -0.1410
G03 X 22.9634 Y 49.2193 Z -1.0000 I 0.6210 J 0.2586
G02 X 23.7863 Y 49.2820 Z -1.0000 I 0.8229 J -5.3686
G01 X 27.8503 Y 49.2820 Z -1.0000
G03 X 28.5556 Y 49.3222 Z -1.0000 I 0.0000 J 6.2033
G03 X 29.0731 Y 49.8749 Z -1.0000 I -0.0665 J 0.5808
G03 X 28.5319 Y 50.5096 Z -1.0000 I -0.6084 J 0.0293
G03 X 27.7657 Y 50.5520 Z -1.0000 I -0.7662 J -6.9053
G03 X 25.5683 Y 50.5097 Z -1.0000 I -0.0000 J -57.1293
G02 X 23.3630 Y 50.4673 Z -1.0000 I -2.2053 J 57.2949
G01 X 23.3630 Y 61.5586 Z -1.0000
G01 X 23.3630 Y 64.3526 Z -1.0000
G02 X 23.3917 Y 64.9353 Z -1.0000 I 5.9277 J 0.0000
G03 X 23.2155 Y 65.4895 Z -1.0000 I -0.7321 J 0.0723
G03 X 22.1219 Y 65.8457 Z -1.0000 I -0.8427 J -0.7302
G02 X 20.9077 Y 65.7073 Z -1.0000 I -1.2143 J 5.2581
G03 X 20.1523 Y 66.4376 Z -1.0000 I -0.7524 J -0.0223
G03 X 19.3871 Y 65.7073 Z -1.0000 I 0.0031 J -0.7693
G02 X 19.3266 Y 64.7998 Z -1.0000 I -28.5892 J 1.4483
G03 X 19.5965 Y 63.9418 Z -1.0000 I 1.1869 J -0.0980
G03 X 20.4822 Y 63.7998 Z -1.0000 I 0.5239 J 0.4341
G03 X 20.9077 Y 64.5220 Z -1.0000 I -0.4848 J 0.7720
M5
G4 P0.1

(Change tool to Cylindrical cutter)

M5
G4 P0.1
G00 X 18.1137 Y 65.0300

M3 S300
G01 X 17.0977 Y 65.0300 Z -1.0000 F 400.0000
G02 X 17.6053 Y 65.4425 Z -1.0000 I 0.5367 J -0.1418
G02 X 18.1137 Y 65.0300 Z -1.0000 I 0.0256 J -0.4880
M5
G4 P0.1

(Change tool to Cylindrical cutter)

M5
G4 P0.1
G00 X 20.3150 Y 65.6226

M3 S300
G01 X 20.2303 Y 64.6913 Z -1.0000 F 400.0000
G02 X 19.8577 Y 65.1882 Z -1.0000 I 0.0697 J 0.4404
G02 X 20.3150 Y 65.6226 Z -1.0000 I 0.4951 J -0.0633
M5
G4 P0.1

(Change tool to Cylindrical cutter)

M5
G4 P0.1
G00 X 15.5737 Y 65.2840

M3 S300
G01 X 15.5737 Y 65.0300 Z -1.0000 F 400.0000
G01 X 15.4043 Y 65.1146 Z -1.0000
G01 X 15.4043 Y 65.1993 Z -1.0000
G01 X 15.5737 Y 65.2840 Z -1.0000
M5
G4 P0.1

(Change tool to Cylindrical cutter)

M5
G4 P0.1
G00 X 14.7270 Y 65.1993

M3 S300
G01 X 14.5577 Y 65.0300 Z -1.0000 F 400.0000
G01 X 14.5577 Y 65.1993 Z -1.0000
G01 X 14.7270 Y 65.1993 Z -1.0000
M5
G4 P0.1

(Change tool to Cylindrical cutter)

M5
G4 P0.1
G00 X 43.0057 Y 59.6113

M3 S300
G01 X 43.0057 Y 60.5427 Z -1.0000 F 400.0000
G02 X 43.3531 Y 60.0770 Z -1.0000 I -0.1383 J -0.4657
G02 X 43.0057 Y 59.6113 Z -1.0000 I -0.4858 J 0.0000
M5
G4 P0.1

(Change tool to Cylindrical cutter)

M5
G4 P0.1
G00 X 17.2670 Y 60.0347

M3 S300
G01 X 18.1137 Y 60.0347 Z -1.0000 F 400.0000
G02 X 17.6847 Y 59.7070 Z -1.0000 I -0.6132 J 0.3580
G02 X 17.2670 Y 60.0347 Z -1.0000 I -0.0861 J 0.3204
M5
G4 P0.1

(Change tool to Cylindrical cutter)

M5
G4 P0.1
G00 X 43.0057 Y 57.9745

M3 S300
G01 X 43.0339 Y 57.9462 Z -1.0000 F 400.0000
G01 X 42.9978 Y 57.9535 Z -1.0000
G01 X 43.0057 Y 57.9745 Z -1.0000
M5
G4 P0.1

(Change tool to Cylindrical cutter)

M5
G4 P0.1
G00 X 43.0057 Y 57.1278

M3 S300
G01 X 43.0339 Y 57.0995 Z -1.0000 F 400.0000
G01 X 42.9978 Y 57.1069 Z -1.0000
G01 X 43.0057 Y 57.1278 Z -1.0000
M5
G4 P0.1

(Change tool to Cylindrical cutter)

M5
G4 P0.1
G00 X 17.3533 Y 56.4158

M3 S300
G03 X 16.8814 Y 55.7924 Z -1.0000 I 0.2744 J -0.6981 F 400.0000
G03 X 16.8437 Y 55.0393 Z -1.0000 I 7.5545 J -0.7557
G03 X 16.9363 Y 53.1047 Z -1.0000 I 20.0783 J -0.0079
G02 X 17.0126 Y 51.1447 Z -1.0000 I -17.0676 J -1.6455
G02 X 16.8176 Y 50.4277 Z -1.0000 I -1.5177 J 0.0277
G03 X 16.7240 Y 49.7053 Z -1.0000 I 0.8472 J -0.4770
G03 X 17.1869 Y 49.1026 Z -1.0000 I 0.9448 J 0.2464
G03 X 17.9440 Y 49.0418 Z -1.0000 I 0.4438 J 0.7819
G03 X 18.4277 Y 49.4840 Z -1.0000 I -0.3044 J 0.8187
G03 X 18.5177 Y 50.1287 Z -1.0000 I -0.9717 J 0.4642
G03 X 18.3513 Y 50.5879 Z -1.0000 I -1.3528 J -0.2302
G02 X 18.2032 Y 51.0600 Z -1.0000 I 0.9695 J 0.5634
G02 X 18.2992 Y 53.4419 Z -1.0000 I 9.7719 J 0.7994
G03 X 18.3584 Y 55.8012 Z -1.0000 I -8.5275 J 1.3947
G03 X 18.0152 Y 56.3517 Z -1.0000 I -0.7476 J -0.0839
G03 X 17.3533 Y 56.4158 Z -1.0000 I -0.3939 J -0.6179
M5
G4 P0.1

(Change tool to Cylindrical cutter)

M5
G4 P0.1
G00 X 20.7383 Y 47.9273

M3 S300
G02 X 20.8191 Y 51.2483 Z -1.0000 I 68.2826 J 0.0000 F 400.0000
G03 X 20.9076 Y 54.5313 Z -1.0000 I -75.5091 J 3.6768
G02 X 20.9615 Y 55.6217 Z -1.0000 I 12.3493 J -0.0638
G03 X 20.2302 Y 56.4657 Z -1.0000 I -0.7694 J 0.0722
G03 X 19.4111 Y 55.7302 Z -1.0000 I -0.0387 J -0.7809
G03 X 19.3838 Y 54.7007 Z -1.0000 I 16.3244 J -0.9483
G03 X 19.4713 Y 51.8812 Z -1.0000 I 53.8628 J 0.2619
G02 X 19.5530 Y 49.0280 Z -1.0000 I -49.7945 J -2.8532
G02 X 19.4422 Y 47.9536 Z -1.0000 I -5.2651 J -0.0000
G03 X 19.7005 Y 46.9599 Z -1.0000 I 1.1325 J -0.2361
G03 X 20.6413 Y 46.6390 Z -1.0000 I 0.7453 J 0.6458
G02 X 21.6697 Y 46.7420 Z -1.0000 I 1.0283 J -5.0836
G01 X 27.0883 Y 46.7420 Z -1.0000
G02 X 28.1688 Y 46.6457 Z -1.0000 I -0.0000 J -6.1117
G03 X 29.0639 Y 47.2513 Z -1.0000 I 0.1369 J 0.7620
G03 X 28.3102 Y 48.0735 Z -1.0000 I -0.6736 J 0.1390
G02 X 27.2577 Y 48.0120 Z -1.0000 I -1.0525 J 8.9799
G01 X 20.7383 Y 47.9273 Z -1.0000
M5
G4 P0.1

(Change tool to Cylindrical cutter)

M5
G4 P0.1
G00 X 42.7517 Y 55.9221

M3 S300
G02 X 39.6878 Y 55.4528 Z -1.0000 I -3.8051 J 14.6048 F 400.0000
G02 X 36.4863 Y 55.5832 Z -1.0000 I -0.8769 J 17.8338
G02 X 35.2754 Y 55.7873 Z -1.0000 I 2.1989 J 16.7415
G03 X 34.2028 Y 55.2883 Z -1.0000 I -0.2003 J -0.9717
G03 X 34.7141 Y 54.3831 Z -1.0000 I 0.5394 J -0.2923
G03 X 35.6397 Y 54.3620 Z -1.0000 I 0.9255 J 20.2360
G03 X 38.6030 Y 54.3635 Z -1.0000 I 0.0007 J 2855.6817
G02 X 41.5663 Y 54.3620 Z -1.0000 I 0.9877 J -951.8951
G02 X 42.5276 Y 54.1254 Z -1.0000 I -0.0045 J -2.0894
G03 X 43.5121 Y 54.1708 Z -1.0000 I 0.4532 J 0.8694
G03 X 43.8763 Y 55.3753 Z -1.0000 I -0.5266 J 0.8166
G03 X 42.7517 Y 55.9221 Z -1.0000 I -0.8820 J -0.3841
M5
G4 P0.1

(Change tool to Cylindrical cutter)

M5
G4 P0.1
G00 X 18.1137 Y 54.8700

M3 S300
G01 X 17.0977 Y 54.8700 Z -1.0000 F 400.0000
G02 X 17.6116 Y 55.3036 Z -1.0000 I 0.5315 J -0.1085
G02 X 18.1137 Y 54.8700 Z -1.0000 I 0.0159 J -0.4891
M5
G4 P0.1

(Change tool to Cylindrical cutter)

M5
G4 P0.1
G00 X 20.6537 Y 54.8700

M3 S300
G01 X 19.6377 Y 54.8700 Z -1.0000 F 400.0000
G02 X 20.1467 Y 55.2947 Z -1.0000 I 0.5203 J -0.1062
G02 X 20.6537 Y 54.8700 Z -1.0000 I 0.0107 J -0.5022
M5
G4 P0.1

(Change tool to Cylindrical cutter)

M5
G4 P0.1
G00 X 42.9210 Y 54.5313

M3 S300
G01 X 42.9210 Y 55.4626 Z -1.0000 F 400.0000
G02 X 43.3192 Y 54.9977 Z -1.0000 I -0.0737 J -0.4661
G02 X 42.9210 Y 54.5313 Z -1.0000 I -0.4709 J -0.0012
M5
G4 P0.1

(Change tool to Cylindrical cutter)

M5
G4 P0.1
G00 X 35.3010 Y 55.3780

M3 S300
G01 X 35.3010 Y 54.6160 Z -1.0000 F 400.0000
G02 X 35.1167 Y 54.9959 Z -1.0000 I 0.2428 J 0.3524
G02 X 35.3010 Y 55.3780 Z -1.0000 I 0.5633 J -0.0363
M5
G4 P0.1

(Change tool to Cylindrical cutter)

M5
G4 P0.1
G00 X 15.5737 Y 55.1240

M3 S300
G01 X 15.5737 Y 54.8700 Z -1.0000 F 400.0000
G01 X 15.4043 Y 54.9546 Z -1.0000
G01 X 15.4043 Y 55.0393 Z -1.0000
G01 X 15.5737 Y 55.1240 Z -1.0000
M5
G4 P0.1

(Change tool to Cylindrical cutter)

M5
G4 P0.1
G00 X 14.6423 Y 55.0111

M3 S300
G01 X 14.6502 Y 54.9902 Z -1.0000 F 400.0000
G01 X 14.6141 Y 54.9828 Z -1.0000
G01 X 14.6423 Y 55.0111 Z -1.0000
M5
G4 P0.1

(Change tool to Cylindrical cutter)

M5
G4 P0.1
G00 X 27.5117 Y 54.8700

M3 S300
G01 X 28.1043 Y 54.8700 Z -1.0000 F 400.0000
G02 X 27.8062 Y 54.6598 Z -1.0000 I -0.3648 J 0.2009
G02 X 27.5117 Y 54.8700 Z -1.0000 I -0.0411 J 0.2538
M5
G4 P0.1

(Change tool to Cylindrical cutter)

M5
G4 P0.1
G00 X 42.7517 Y 53.3822

M3 S300
G02 X 39.6188 Y 53.0397 Z -1.0000 I -2.7694 J 10.8303 F 400.0000
G03 X 36.4017 Y 53.0920 Z -1.0000 I -3.2171 J -98.8886
G02 X 35.2287 Y 53.2184 Z -1.0000 I 0.0000 J 5.5050
G03 X 34.2028 Y 52.7483 Z -1.0000 I -0.2001 J -0.9177
G03 X 34.7137 Y 51.8434 Z -1.0000 I 0.5392 J -0.2923
G03 X 35.6397 Y 51.8220 Z -1.0000 I 0.9260 J 20.0520
G03 X 38.6030 Y 51.8235 Z -1.0000 I 0.0001 J 2927.0737
G02 X 41.5663 Y 51.8220 Z -1.0000 I 0.9878 J -975.6924
G02 X 42.5314 Y 51.5829 Z -1.0000 I -0.0033 J -2.0809
G03 X 43.5099 Y 51.6308 Z -1.0000 I 0.4487 J 0.8535
G03 X 43.8696 Y 52.8334 Z -1.0000 I -0.5364 J 0.8155
G03 X 42.7517 Y 53.3822 Z -1.0000 I -0.8803 J -0.3803
M5
G4 P0.1

(Change tool to Cylindrical cutter)

M5
G4 P0.1
G00 X 42.9210 Y 51.9913

M3 S300
G01 X 42.9210 Y 52.9226 Z -1.0000 F 400.0000
G02 X 43.3192 Y 52.4577 Z -1.0000 I -0.0737 J -0.4661
G02 X 42.9210 Y 51.9913 Z -1.0000 I -0.4709 J -0.0012
M5
G4 P0.1

(Change tool to Cylindrical cutter)

M5
G4 P0.1
G00 X 27.9350 Y 52.8380

M3 S300
G02 X 28.0750 Y 52.4360 Z -1.0000 I -0.3914 J -0.3618 F 400.0000
G02 X 27.8503 Y 52.0760 Z -1.0000 I -0.4560 J 0.0346
G01 X 27.9350 Y 52.8380 Z -1.0000
M5
G4 P0.1

(Change tool to Cylindrical cutter)

M5
G4 P0.1
G00 X 35.3010 Y 52.8380

M3 S300
G01 X 35.3010 Y 52.0760 Z -1.0000 F 400.0000
G02 X 35.1167 Y 52.4560 Z -1.0000 I 0.2428 J 0.3524
G02 X 35.3010 Y 52.8380 Z -1.0000 I 0.5633 J -0.0363
M5
G4 P0.1

(Change tool to Cylindrical cutter)

M5
G4 P0.1
G00 X 42.7517 Y 50.8422

M3 S300
G02 X 39.6188 Y 50.4997 Z -1.0000 I -2.7694 J 10.8302 F 400.0000
G03 X 36.4017 Y 50.5520 Z -1.0000 I -3.2171 J -98.8893
G02 X 35.2285 Y 50.6789 Z -1.0000 I -0.0000 J 5.4865
G03 X 34.2028 Y 50.2083 Z -1.0000 I -0.2005 J -0.9162
G03 X 34.7159 Y 49.3026 Z -1.0000 I 0.5405 J -0.2920
G03 X 35.6397 Y 49.2820 Z -1.0000 I 0.9238 J 20.6589
G03 X 38.6030 Y 49.2835 Z -1.0000 I 0.0001 J 2927.0737
G02 X 41.5663 Y 49.2820 Z -1.0000 I 0.9878 J -975.6924
G02 X 42.5314 Y 49.0430 Z -1.0000 I -0.0033 J -2.0809
G03 X 43.5099 Y 49.0908 Z -1.0000 I 0.4487 J 0.8535
G03 X 43.8696 Y 50.2935 Z -1.0000 I -0.5364 J 0.8155
G03 X 42.7517 Y 50.8422 Z -1.0000 I -0.8803 J -0.3803
M5
G4 P0.1

(Change tool to Cylindrical cutter)

M5
G4 P0.1
G00 X 42.9210 Y 49.4513

M3 S300
G01 X 42.9210 Y 50.3827 Z -1.0000 F 400.0000
G02 X 43.3192 Y 49.9178 Z -1.0000 I -0.0737 J -0.4661
G02 X 42.9210 Y 49.4513 Z -1.0000 I -0.4709 J -0.0012
M5
G4 P0.1

(Change tool to Cylindrical cutter)

M5
G4 P0.1
G00 X 27.9350 Y 50.2980

M3 S300
G02 X 28.0750 Y 49.8960 Z -1.0000 I -0.3914 J -0.3618 F 400.0000
G02 X 27.8503 Y 49.5360 Z -1.0000 I -0.4560 J 0.0346
G01 X 27.9350 Y 50.2980 Z -1.0000
M5
G4 P0.1

(Change tool to Cylindrical cutter)

M5
G4 P0.1
G00 X 35.3010 Y 50.2980

M3 S300
G01 X 35.3010 Y 49.5360 Z -1.0000 F 400.0000
G02 X 35.1325 Y 49.9170 Z -1.0000 I 0.3466 J 0.3810
G02 X 35.3010 Y 50.2980 Z -1.0000 I 0.5151 J -0.0000
M5
G4 P0.1

(Change tool to Cylindrical cutter)

M5
G4 P0.1
G00 X 17.2670 Y 49.8747

M3 S300
G01 X 18.1137 Y 49.8747 Z -1.0000 F 400.0000
G02 X 17.6847 Y 49.5470 Z -1.0000 I -0.6132 J 0.3580
G02 X 17.2670 Y 49.8747 Z -1.0000 I -0.0861 J 0.3204
M5
G4 P0.1

(Change tool to Cylindrical cutter)

M5
G4 P0.1
G00 X 42.4130 Y 42.8473

M3 S300
G01 X 39.1110 Y 42.8473 Z -1.0000 F 400.0000
G03 X 38.0102 Y 42.8412 Z -1.0000 I 0.0000 J -98.6055
G02 X 36.9097 Y 42.8483 Z -1.0000 I -0.3480 J 31.1684
G02 X 35.7283 Y 42.9674 Z -1.0000 I 0.1904 J 7.8099
G03 X 34.5427 Y 42.8882 Z -1.0000 I -0.4332 J -2.4287
G03 X 34.1258 Y 42.3481 Z -1.0000 I 0.1834 J -0.5726
G03 X 34.4593 Y 41.7488 Z -1.0000 I 0.6428 J -0.0348
G03 X 35.4500 Y 41.5784 Z -1.0000 I 0.7434 J 1.3573
G02 X 36.4863 Y 41.6618 Z -1.0000 I 1.0363 J -6.4008
G01 X 41.3970 Y 41.6618 Z -1.0000
G02 X 42.4772 Y 41.5381 Z -1.0000 I -0.0000 J -4.7784
G03 X 43.4508 Y 41.8667 Z -1.0000 I 0.2209 J 0.9521
G03 X 43.6321 Y 42.4689 Z -1.0000 I -0.6230 J 0.5159
G02 X 43.5983 Y 43.1011 Z -1.0000 I 5.8969 J 0.6323
G03 X 43.5688 Y 44.6689 Z -1.0000 I -41.6690 J -0.0000
G02 X 43.6032 Y 46.2338 Z -1.0000 I 13.1264 J 0.4942
G02 X 43.8331 Y 46.8909 Z -1.0000 I 1.3751 J -0.1123
G03 X 43.9502 Y 47.5885 Z -1.0000 I -0.7114 J 0.4780
G03 X 43.3379 Y 48.2739 Z -1.0000 I -0.9808 J -0.2599
G03 X 42.4222 Y 48.1376 Z -1.0000 I -0.3387 J -0.8688
G03 X 42.1553 Y 47.2266 Z -1.0000 I 0.5065 J -0.6430
G02 X 42.3874 Y 46.4031 Z -1.0000 I -6.8712 J -2.3813
G02 X 42.4962 Y 44.6362 Z -1.0000 I -5.6227 J -1.2329
G03 X 42.4130 Y 42.8471 Z -1.0000 I 19.2001 J -1.7891
M5
G4 P0.1

(Change tool to Cylindrical cutter)

M5
G4 P0.1
G00 X 43.5137 Y 47.3345

M3 S300
G01 X 42.4977 Y 47.3345 Z -1.0000 F 400.0000
G02 X 43.0038 Y 47.7051 Z -1.0000 I 0.5235 J -0.1840
G02 X 43.5137 Y 47.3345 Z -1.0000 I 0.0161 J -0.5139
M5
G4 P0.1

(Change tool to Cylindrical cutter)

M5
G4 P0.1
G00 X 27.9350 Y 47.7580

M3 S300
G02 X 28.0750 Y 47.3560 Z -1.0000 I -0.3914 J -0.3618 F 400.0000
G02 X 27.8503 Y 46.9960 Z -1.0000 I -0.4560 J 0.0346
G01 X 27.9350 Y 47.7580 Z -1.0000
M5
G4 P0.1

(Change tool to Cylindrical cutter)

M5
G4 P0.1
G00 X 35.5550 Y 47.7580

M3 S300
G01 X 35.8090 Y 47.4193 Z -1.0000 F 400.0000
G01 X 35.5550 Y 47.7580 Z -1.0000
M5
G4 P0.1

(Change tool to Cylindrical cutter)

M5
G4 P0.1
G00 X 17.2717 Y 46.2316

M3 S300
G03 X 16.8672 Y 45.6016 Z -1.0000 I 0.3665 J -0.6802 F 400.0000
G03 X 16.8437 Y 44.8793 Z -1.0000 I 11.0932 J -0.7223
G03 X 16.9422 Y 42.9447 Z -1.0000 I 19.0409 J -0.0000
G02 X 17.0117 Y 40.9847 Z -1.0000 I -14.7187 J -1.5033
G02 X 16.8152 Y 40.2706 Z -1.0000 I -1.5728 J 0.0487
G03 X 16.7240 Y 39.5454 Z -1.0000 I 0.8595 J -0.4764
G03 X 17.2327 Y 38.9343 Z -1.0000 I 0.9067 J 0.2374
G03 X 18.0277 Y 38.9245 Z -1.0000 I 0.4083 J 0.8705
G03 X 18.4716 Y 39.4038 Z -1.0000 I -0.3299 J 0.7508
G03 X 18.5007 Y 40.0533 Z -1.0000 I -1.0634 J 0.3729
G02 X 18.2192 Y 41.6217 Z -1.0000 I 10.9985 J 2.7835
G02 X 18.2071 Y 43.2707 Z -1.0000 I 8.2107 J 0.8845
G02 X 18.3617 Y 44.4810 Z -1.0000 I 17.7419 J -1.6505
G03 X 18.3484 Y 45.7257 Z -1.0000 I -3.5898 J 0.5839
G03 X 17.9464 Y 46.2488 Z -1.0000 I -0.7130 J -0.1318
G03 X 17.2717 Y 46.2316 Z -1.0000 I -0.3204 J -0.6748
M5
G4 P0.1

(Change tool to Cylindrical cutter)

M5
G4 P0.1
G00 X 20.9077 Y 44.2020

M3 S300
G01 X 27.1730 Y 44.2020 Z -1.0000 F 400.0000
G02 X 28.2466 Y 44.1261 Z -1.0000 I -0.0000 J -7.6298
G03 X 29.0731 Y 44.8791 Z -1.0000 I 0.1021 J 0.7180
G03 X 28.2313 Y 45.5589 Z -1.0000 I -0.7236 J -0.0349
G02 X 27.1730 Y 45.4720 Z -1.0000 I -1.0583 J 6.3992
G01 X 20.9077 Y 45.4720 Z -1.0000
G03 X 20.4822 Y 46.1942 Z -1.0000 I -0.9103 J -0.0498
G03 X 19.5965 Y 46.0521 Z -1.0000 I -0.3618 J -0.5762
G03 X 19.3266 Y 45.1942 Z -1.0000 I 0.9170 J -0.7599
G02 X 19.3871 Y 44.2867 Z -1.0000 I -28.5239 J -2.3554
G03 X 20.1268 Y 43.5222 Z -1.0000 I 0.8072 J 0.0409
G03 X 20.9077 Y 44.2020 Z -1.0000 I 0.0602 J 0.7192
M5
G4 P0.1

(Change tool to Cylindrical cutter)

M5
G4 P0.1
G00 X 18.1137 Y 44.7100

M3 S300
G01 X 17.0977 Y 44.7947 Z -1.0000 F 400.0000
G02 X 17.6430 Y 45.1566 Z -1.0000 I 0.5121 J -0.1799
G02 X 18.1137 Y 44.7100 Z -1.0000 I -0.0308 J -0.5039
M5
G4 P0.1

(Change tool to Cylindrical cutter)

M5
G4 P0.1
G00 X 20.2303 Y 45.3026

M3 S300
G01 X 20.2303 Y 44.3713 Z -1.0000 F 400.0000
G02 X 19.8325 Y 44.8370 Z -1.0000 I 0.0737 J 0.4657
G02 X 20.2303 Y 45.3026 Z -1.0000 I 0.4715 J 0.0000
M5
G4 P0.1

(Change tool to Cylindrical cutter)

M5
G4 P0.1
G00 X 27.9350 Y 45.2179

M3 S300
G02 X 28.0750 Y 44.8159 Z -1.0000 I -0.3914 J -0.3618 F 400.0000
G02 X 27.8503 Y 44.4559 Z -1.0000 I -0.4560 J 0.0346
G01 X 27.9350 Y 45.2179 Z -1.0000
M5
G4 P0.1

(Change tool to Cylindrical cutter)

M5
G4 P0.1
G00 X 15.5737 Y 44.9639

M3 S300
G01 X 15.5737 Y 44.7099 Z -1.0000 F 400.0000
G01 X 15.4043 Y 44.7946 Z -1.0000
G01 X 15.4043 Y 44.8793 Z -1.0000
G01 X 15.5737 Y 44.9640 Z -1.0000
M5
G4 P0.1

(Change tool to Cylindrical cutter)

M5
G4 P0.1
G00 X 14.6423 Y 44.8512

M3 S300
G01 X 14.6503 Y 44.8302 Z -1.0000 F 400.0000
G01 X 14.6141 Y 44.8229 Z -1.0000
G01 X 14.6423 Y 44.8512 Z -1.0000
M5
G4 P0.1

(Change tool to Cylindrical cutter)

M5
G4 P0.1
G00 X 35.8090 Y 44.7947

M3 S300
G01 X 35.4703 Y 44.4560 Z -1.0000 F 400.0000
G01 X 35.8090 Y 44.7947 Z -1.0000
M5
G4 P0.1

(Change tool to Cylindrical cutter)

M5
G4 P0.1
G00 X 26.8343 Y 42.8454

M3 S300
G02 X 24.2575 Y 41.7806 Z -1.0000 I -10.4587 J 21.6607 F 400.0000
G02 X 21.5850 Y 40.8718 Z -1.0000 I -76.4545 J 220.4394
G02 X 20.5109 Y 40.6287 Z -1.0000 I -1.7594 J 5.2782
G03 X 19.6400 Y 40.0441 Z -1.0000 I 0.1433 J -1.1544
G03 X 19.4834 Y 39.1788 Z -1.0000 I 1.1733 J -0.6592
G02 X 19.5530 Y 38.2753 Z -1.0000 I -5.8287 J -0.9034
G02 X 19.4014 Y 36.1030 Z -1.0000 I -15.6368 J 0.0000
G03 X 19.3997 Y 33.9573 Z -1.0000 I 7.6909 J -1.0789
G03 X 19.7555 Y 33.3509 Z -1.0000 I 0.9094 J 0.1260
G03 X 20.4764 Y 33.2582 Z -1.0000 I 0.4415 J 0.5841
G03 X 20.9298 Y 33.9768 Z -1.0000 I -0.2803 J 0.6793
G02 X 20.9077 Y 34.8040 Z -1.0000 I 15.4402 J 0.8272
G03 X 20.8235 Y 36.4026 Z -1.0000 I -15.2285 J -0.0000
G02 X 20.7383 Y 38.0213 Z -1.0000 I 15.3354 J 1.6187
G03 X 20.6943 Y 38.6525 Z -1.0000 I -4.5472 J -0.0000
G02 X 20.8741 Y 39.2482 Z -1.0000 I 0.7354 J 0.1031
G02 X 21.7949 Y 39.7452 Z -1.0000 I 1.1401 J -1.0107
G03 X 22.8550 Y 39.9969 Z -1.0000 I -0.8856 J 6.0887
G01 X 27.2577 Y 41.4645 Z -1.0000
G02 X 28.0456 Y 41.5779 Z -1.0000 I 0.7104 J -2.1422
G03 X 28.7635 Y 41.7618 Z -1.0000 I 0.0452 J 1.3167
G03 X 29.0740 Y 42.2954 Z -1.0000 I -0.3240 J 0.5456
G03 X 28.7704 Y 42.8322 Z -1.0000 I -0.6060 J 0.0115
G03 X 27.8053 Y 43.0788 Z -1.0000 I -0.9244 J -1.6058
G03 X 26.8344 Y 42.8454 Z -1.0000 I 0.0517 J -2.3512
M5
G4 P0.1

(Change tool to Cylindrical cutter)

M5
G4 P0.1
G00 X 28.1044 Y 42.0007

M3 S300
G01 X 28.0197 Y 42.0007 Z -1.0000 F 400.0000
G01 X 27.7657 Y 42.6780 Z -1.0000
G02 X 28.0622 Y 42.4053 Z -1.0000 I -0.1434 J -0.4534
G02 X 28.1044 Y 42.0007 Z -1.0000 I -0.6671 J -0.2741
M5
G4 P0.1

(Change tool to Cylindrical cutter)

M5
G4 P0.1
G00 X 35.3010 Y 42.6780

M3 S300
G01 X 35.3010 Y 41.9160 Z -1.0000 F 400.0000
G02 X 35.1167 Y 42.2980 Z -1.0000 I 0.3790 J 0.4183
G02 X 35.3010 Y 42.6780 Z -1.0000 I 0.4271 J 0.0275
M5
G4 P0.1

(Change tool to Cylindrical cutter)

M5
G4 P0.1
G00 X 22.1777 Y 25.1520

M3 S300
G01 X 20.9077 Y 25.1520 Z -1.0000 F 400.0000
G03 X 20.2395 Y 25.8931 Z -1.0000 I -0.7932 J -0.0434
G03 X 19.4128 Y 25.3213 Z -1.0000 I -0.1144 J -0.7181
G03 X 19.2830 Y 24.3294 Z -1.0000 I 6.7752 J -1.3915
G03 X 19.5410 Y 23.3832 Z -1.0000 I 1.5375 J -0.0890
G03 X 20.5103 Y 23.2321 Z -1.0000 I 0.5544 J 0.3715
G03 X 20.9924 Y 23.9667 Z -1.0000 I -0.8711 J 1.0971
G03 X 22.1508 Y 23.7326 Z -1.0000 I 3.9797 J 16.7148
G03 X 23.2273 Y 24.1553 Z -1.0000 I 0.1850 J 1.1111
G03 X 23.5157 Y 25.4440 Z -1.0000 I -1.2345 J 0.9529
G02 X 23.3630 Y 26.8453 Z -1.0000 I 6.3542 J 1.4013
G01 X 23.3630 Y 34.1267 Z -1.0000
G03 X 23.2168 Y 35.5131 Z -1.0000 I -6.6472 J 0.0000
G02 X 23.4501 Y 36.8030 Z -1.0000 I 1.6902 J 0.3604
G02 X 23.9887 Y 37.2244 Z -1.0000 I 0.8668 J -0.5530
G03 X 24.6330 Y 37.4924 Z -1.0000 I -1.6059 J 4.7685
G03 X 26.1429 Y 38.2817 Z -1.0000 I -21.1093 J 42.2182
G02 X 27.6810 Y 39.0075 Z -1.0000 I 6.9281 J -12.6894
G02 X 28.4990 Y 39.1787 Z -1.0000 I 0.8907 J -2.2164
G03 X 29.0410 Y 39.9649 Z -1.0000 I -0.0181 J 0.5924
G03 X 28.1545 Y 40.5235 Z -1.0000 I -0.7918 J -0.2740
G03 X 27.0885 Y 40.3795 Z -1.0000 I 2.8977 J -25.4697
G03 X 26.5447 Y 40.0436 Z -1.0000 I 0.1276 J -0.8147
G02 X 26.0708 Y 39.6127 Z -1.0000 I -1.2313 J 0.8783
G02 X 24.7279 Y 38.9133 Z -1.0000 I -8.5725 J 14.8208
G03 X 23.3630 Y 38.2544 Z -1.0000 I 23.1271 J -49.6476
G02 X 22.7692 Y 37.9942 Z -1.0000 I -2.8688 J 5.7391
G03 X 22.2775 Y 37.5800 Z -1.0000 I 0.3441 J -0.9073
G03 X 21.9978 Y 35.9101 Z -1.0000 I 2.0319 J -1.1987
G02 X 22.1777 Y 34.1267 Z -1.0000 I -8.7509 J -1.7835
G01 X 22.1777 Y 25.1520 Z -1.0000
M5
G4 P0.1

(Change tool to Cylindrical cutter)

M5
G4 P0.1
G00 X 39.8730 Y 39.1220

M3 S300
G01 X 39.8730 Y 33.6187 Z -1.0000 F 400.0000
G02 X 39.7882 Y 30.4249 Z -1.0000 I -60.1297 J -0.0000
G03 X 39.7037 Y 27.2687 Z -1.0000 I 59.7485 J -3.1780
G03 X 39.7428 Y 26.2633 Z -1.0000 I 12.8193 J -0.0054
G03 X 40.6347 Y 25.6035 Z -1.0000 I 0.7324 J 0.0573
G03 X 41.4284 Y 27.1709 Z -1.0000 I -0.2469 J 1.1097
G02 X 41.0587 Y 28.8773 Z -1.0000 I 4.0019 J 1.7602
G02 X 41.0467 Y 32.7296 Z -1.0000 I 209.7832 J 2.5805
G03 X 41.0584 Y 36.5820 Z -1.0000 I -635.5192 J 3.8525
G02 X 41.1868 Y 38.2634 Z -1.0000 I 11.0749 J -0.0000
G03 X 41.0845 Y 39.8804 Z -1.0000 I -3.7430 J 0.5749
G03 X 40.4416 Y 40.3347 Z -1.0000 I -0.6043 J -0.1730
G02 X 39.7037 Y 40.3077 Z -1.0000 I -0.9143 J 14.8521
G02 X 37.7178 Y 40.3438 Z -1.0000 I -0.3919 J 33.0241
G03 X 35.7244 Y 40.3920 Z -1.0000 I -1.9934 J -41.2539
G02 X 34.9306 Y 40.4521 Z -1.0000 I 0.0000 J 5.2705
G03 X 34.2155 Y 40.1187 Z -1.0000 I -0.1072 J -0.7037
G03 X 34.3692 Y 39.3459 Z -1.0000 I 0.4972 J -0.3028
G03 X 35.0470 Y 39.1221 Z -1.0000 I 0.6857 J 0.9381
G03 X 37.4600 Y 39.1178 Z -1.0000 I 1.6138 J 233.8569
G02 X 39.8730 Y 39.1220 Z -1.0000 I 2.4131 J -706.1563
M5
G4 P0.1

(Change tool to Cylindrical cutter)

M5
G4 P0.1
G00 X 28.1044 Y 39.4606

M3 S300
G01 X 28.0197 Y 39.4606 Z -1.0000 F 400.0000
G01 X 27.6810 Y 40.0533 Z -1.0000
G02 X 28.0614 Y 39.8765 Z -1.0000 I 0.0950 J -0.2933
G02 X 28.1043 Y 39.4607 Z -1.0000 I -0.6889 J -0.2812
M5
G4 P0.1

(Change tool to Cylindrical cutter)

M5
G4 P0.1
G00 X 35.3010 Y 40.1380

M3 S300
G01 X 35.3010 Y 39.3760 Z -1.0000 F 400.0000
G02 X 35.1167 Y 39.7580 Z -1.0000 I 0.3790 J 0.4183
G02 X 35.3010 Y 40.1380 Z -1.0000 I 0.4271 J 0.0275
M5
G4 P0.1

(Change tool to Cylindrical cutter)

M5
G4 P0.1
G00 X 17.2670 Y 39.7993

M3 S300
G01 X 18.1137 Y 39.7993 Z -1.0000 F 400.0000
G02 X 17.6276 Y 39.4094 Z -1.0000 I -0.5614 J 0.2020
G02 X 17.2670 Y 39.7993 Z -1.0000 I -0.0412 J 0.3236
M5
G4 P0.1

(Change tool to Cylindrical cutter)

M5
G4 P0.1
G00 X 27.1730 Y 36.5820

M3 S300
G01 X 27.1730 Y 14.9920 Z -1.0000 F 400.0000
G01 X 20.9077 Y 14.9920 Z -1.0000
G03 X 20.1299 Y 15.6719 Z -1.0000 I -0.7205 J -0.0395
G03 X 19.3871 Y 14.9073 Z -1.0000 I 0.0641 J -0.8054
G02 X 19.3296 Y 14.0048 Z -1.0000 I -34.5094 J 1.7448
G03 X 19.6008 Y 13.1486 Z -1.0000 I 1.1968 J -0.0920
G03 X 20.5171 Y 13.0511 Z -1.0000 I 0.5080 J 0.4194
G03 X 20.9077 Y 13.8066 Z -1.0000 I -0.6391 J 0.8090
G01 X 26.1570 Y 13.8066 Z -1.0000
G02 X 27.1909 Y 13.7045 Z -1.0000 I 0.0000 J -5.2859
G03 X 28.1523 Y 13.9541 Z -1.0000 I 0.2229 J 1.1177
G03 X 28.4242 Y 14.6964 Z -1.0000 I -0.5202 J 0.6116
G02 X 28.3583 Y 15.5000 Z -1.0000 I 4.8680 J 0.8035
G01 X 28.3583 Y 19.6486 Z -1.0000
G01 X 28.3583 Y 36.5820 Z -1.0000
G03 X 28.9819 Y 37.1339 Z -1.0000 I -0.0808 J 0.7196
G03 X 28.5272 Y 37.8327 Z -1.0000 I -0.5596 J 0.1332
G03 X 27.6174 Y 37.9581 Z -1.0000 I -1.8083 J -9.7531
G03 X 26.7622 Y 37.7163 Z -1.0000 I -0.1124 J -1.2356
G03 X 26.6015 Y 36.9850 Z -1.0000 I 0.3429 J -0.4587
G03 X 27.1730 Y 36.5820 Z -1.0000 I 0.6919 J 0.3745
M5
G4 P0.1

(Change tool to Cylindrical cutter)

M5
G4 P0.1
G00 X 28.1890 Y 37.2593

M3 S300
G01 X 27.4270 Y 37.3440 Z -1.0000 F 400.0000
G02 X 27.8289 Y 37.4873 Z -1.0000 I 0.3488 J -0.3429
G02 X 28.1890 Y 37.2593 Z -1.0000 I -0.0525 J -0.4814
M5
G4 P0.1

(Change tool to Cylindrical cutter)

M5
G4 P0.1
G00 X 35.5550 Y 37.5980

M3 S300
G01 X 35.7243 Y 37.3440 Z -1.0000 F 400.0000
G01 X 35.5550 Y 37.5980 Z -1.0000
M5
G4 P0.1

(Change tool to Cylindrical cutter)

M5
G4 P0.1
G00 X 17.2717 Y 36.0716

M3 S300
G03 X 16.8672 Y 35.4416 Z -1.0000 I 0.3665 J -0.6802 F 400.0000
G03 X 16.8437 Y 34.7193 Z -1.0000 I 11.0932 J -0.7223
G03 X 16.9422 Y 32.7846 Z -1.0000 I 19.0409 J -0.0000
G02 X 17.0117 Y 30.8246 Z -1.0000 I -14.7187 J -1.5033
G02 X 16.8152 Y 30.1105 Z -1.0000 I -1.5728 J 0.0487
G03 X 16.7240 Y 29.3854 Z -1.0000 I 0.8595 J -0.4764
G03 X 17.2735 Y 28.7623 Z -1.0000 I 0.8930 J 0.2337
G03 X 18.1099 Y 28.8078 Z -1.0000 I 0.3694 J 0.9212
G03 X 18.5085 Y 29.3284 Z -1.0000 I -0.3720 J 0.6976
G03 X 18.4758 Y 29.9780 Z -1.0000 I -1.1629 J 0.2671
G02 X 18.3114 Y 32.7875 Z -1.0000 I 5.0370 J 1.7044
G03 X 18.3484 Y 35.5656 Z -1.0000 I -6.9758 J 1.4822
G03 X 17.9464 Y 36.0888 Z -1.0000 I -0.7130 J -0.1318
G03 X 17.2717 Y 36.0716 Z -1.0000 I -0.3204 J -0.6748
M5
G4 P0.1

(Change tool to Cylindrical cutter)

M5
G4 P0.1
G00 X 18.1137 Y 34.5500

M3 S300
G01 X 17.0977 Y 34.6347 Z -1.0000 F 400.0000
G02 X 17.6430 Y 34.9966 Z -1.0000 I 0.5121 J -0.1799
G02 X 18.1137 Y 34.5500 Z -1.0000 I -0.0308 J -0.5038
M5
G4 P0.1

(Change tool to Cylindrical cutter)

M5
G4 P0.1
G00 X 15.5737 Y 34.8040

M3 S300
G01 X 15.5737 Y 34.5500 Z -1.0000 F 400.0000
G01 X 15.4043 Y 34.6347 Z -1.0000
G01 X 15.4043 Y 34.7194 Z -1.0000
G01 X 15.5737 Y 34.8041 Z -1.0000
M5
G4 P0.1

(Change tool to Cylindrical cutter)

M5
G4 P0.1
G00 X 19.7223 Y 34.8041

M3 S300
G03 X 20.1875 Y 34.7043 Z -1.0000 I 0.4414 J 0.9240 F 400.0000
G03 X 20.6537 Y 34.8041 Z -1.0000 I -0.0297 J 1.2777
G02 X 20.0860 Y 34.3253 Z -1.0000 I -0.5594 J 0.0874
G02 X 19.7223 Y 34.8041 Z -1.0000 I 0.0056 J 0.3817
M5
G4 P0.1

(Change tool to Cylindrical cutter)

M5
G4 P0.1
G00 X 14.6423 Y 34.6912

M3 S300
G01 X 14.6503 Y 34.6703 Z -1.0000 F 400.0000
G01 X 14.6141 Y 34.6629 Z -1.0000
G01 X 14.6423 Y 34.6912 Z -1.0000
M5
G4 P0.1

(Change tool to Cylindrical cutter)

M5
G4 P0.1
G00 X 17.2670 Y 29.6394

M3 S300
G01 X 18.1137 Y 29.6394 Z -1.0000 F 400.0000
G02 X 17.6336 Y 29.2580 Z -1.0000 I -0.5842 J 0.2426
G02 X 17.2670 Y 29.6394 Z -1.0000 I -0.0528 J 0.3162
M5
G4 P0.1

(Change tool to Cylindrical cutter)

M5
G4 P0.1
G00 X 37.5959 Y 28.4661

M3 S300
G03 X 37.1737 Y 27.8336 Z -1.0000 I 0.2921 J -0.6521 F 400.0000
G03 X 37.1637 Y 27.0994 Z -1.0000 I 26.7920 J -0.7342
G03 X 37.2655 Y 25.1656 Z -1.0000 I 18.4105 J 0.0000
G02 X 37.3314 Y 23.2047 Z -1.0000 I -13.6275 J -1.4394
G02 X 37.1323 Y 22.4969 Z -1.0000 I -1.5690 J 0.0595
G03 X 37.0431 Y 21.7655 Z -1.0000 I 0.8469 J -0.4744
G03 X 37.5600 Y 21.1730 Z -1.0000 I 0.8729 J 0.2398
G03 X 38.3454 Y 21.1735 Z -1.0000 I 0.3921 J 0.9167
G03 X 38.7857 Y 21.6370 Z -1.0000 I -0.3196 J 0.7445
G03 X 38.8206 Y 22.2734 Z -1.0000 I -1.0133 J 0.3748
G02 X 38.6211 Y 24.9762 Z -1.0000 I 7.7327 J 1.9295
G03 X 38.6843 Y 27.6921 Z -1.0000 I -18.3088 J 1.7847
G03 X 38.3625 Y 28.3527 Z -1.0000 I -0.9363 J -0.0474
G03 X 37.5959 Y 28.4661 Z -1.0000 I -0.4722 J -0.5440
M5
G4 P0.1

(Change tool to Cylindrical cutter)

M5
G4 P0.1
G00 X 38.4337 Y 26.9301

M3 S300
G03 X 37.9257 Y 27.0486 Z -1.0000 I -0.5080 J -1.0294 F 400.0000
G03 X 37.4177 Y 26.9301 Z -1.0000 I -0.0000 J -1.1479
G02 X 37.9316 Y 27.3637 Z -1.0000 I 0.5315 J -0.1085
G02 X 38.4337 Y 26.9301 Z -1.0000 I 0.0159 J -0.4891
M5
G4 P0.1

(Change tool to Cylindrical cutter)

M5
G4 P0.1
G00 X 34.9623 Y 27.1841

M3 S300
G03 X 35.4275 Y 27.0843 Z -1.0000 I 0.4414 J 0.9240 F 400.0000
G03 X 35.8937 Y 27.1841 Z -1.0000 I -0.0297 J 1.2777
G02 X 35.3260 Y 26.7053 Z -1.0000 I -0.5594 J 0.0874
G02 X 34.9623 Y 27.1841 Z -1.0000 I 0.0056 J 0.3817
M5
G4 P0.1

(Change tool to Cylindrical cutter)

M5
G4 P0.1
G00 X 40.0423 Y 27.1841

M3 S300
G03 X 40.5075 Y 27.0843 Z -1.0000 I 0.4414 J 0.9240 F 400.0000
G03 X 40.9737 Y 27.1841 Z -1.0000 I -0.0297 J 1.2777
G02 X 40.4060 Y 26.7053 Z -1.0000 I -0.5594 J 0.0874
G02 X 40.0423 Y 27.1841 Z -1.0000 I 0.0056 J 0.3817
M5
G4 P0.1

(Change tool to Cylindrical cutter)

M5
G4 P0.1
G00 X 17.6057 Y 26.0146

M3 S300
G03 X 16.8984 Y 25.3652 Z -1.0000 I 0.0281 J -0.7405 F 400.0000
G03 X 16.8437 Y 24.4747 Z -1.0000 I 7.1691 J -0.8872
G03 X 16.9453 Y 22.5834 Z -1.0000 I 17.7876 J 0.0071
G02 X 17.0114 Y 20.6647 Z -1.0000 I -13.1786 J -1.4146
G02 X 16.8256 Y 19.9912 Z -1.0000 I -1.5235 J 0.0578
G03 X 16.7068 Y 19.3101 Z -1.0000 I 0.9425 J -0.5153
G03 X 17.0583 Y 18.7410 Z -1.0000 I 0.8520 J 0.1332
G03 X 17.6903 Y 18.5540 Z -1.0000 I 0.5877 J 0.8245
G03 X 18.2741 Y 18.8110 Z -1.0000 I -0.0386 J 0.8794
G03 X 18.5311 Y 19.3947 Z -1.0000 I -0.6224 J 0.6224
G03 X 18.3789 Y 20.0339 Z -1.0000 I -1.1978 J 0.0525
G02 X 18.1999 Y 20.6647 Z -1.0000 I 1.2291 J 0.6895
G02 X 18.2628 Y 22.7491 Z -1.0000 I 14.5404 J 0.6045
G03 X 18.3677 Y 24.8134 Z -1.0000 I -20.1238 J 2.0570
G03 X 18.2594 Y 25.5476 Z -1.0000 I -2.5503 J -0.0008
G03 X 17.6057 Y 26.0146 Z -1.0000 I -0.6289 J -0.1893
M5
G4 P0.1

(Change tool to Cylindrical cutter)

M5
G4 P0.1
G00 X 18.1137 Y 24.3901

M3 S300
G01 X 17.0977 Y 24.4748 Z -1.0000 F 400.0000
G02 X 17.6432 Y 24.8371 Z -1.0000 I 0.5124 J -0.1796
G02 X 18.1137 Y 24.3901 Z -1.0000 I -0.0308 J -0.5035
M5
G4 P0.1

(Change tool to Cylindrical cutter)

M5
G4 P0.1
G00 X 20.2303 Y 25.0674

M3 S300
G01 X 20.2303 Y 24.0514 Z -1.0000 F 400.0000
G02 X 19.8437 Y 24.5597 Z -1.0000 I 0.0721 J 0.4561
G02 X 20.2303 Y 25.0674 Z -1.0000 I 0.6192 J -0.0704
M5
G4 P0.1

(Change tool to Cylindrical cutter)

M5
G4 P0.1
G00 X 14.7270 Y 24.6440

M3 S300
G01 X 14.7270 Y 24.4747 Z -1.0000 F 400.0000
G01 X 14.5577 Y 24.4747 Z -1.0000
G01 X 14.5577 Y 24.6440 Z -1.0000
G01 X 14.7270 Y 24.6440 Z -1.0000
M5
G4 P0.1

(Change tool to Cylindrical cutter)

M5
G4 P0.1
G00 X 15.5737 Y 24.6440

M3 S300
G01 X 15.5737 Y 24.3900 Z -1.0000 F 400.0000
G01 X 15.4043 Y 24.4747 Z -1.0000
G01 X 15.4043 Y 24.5594 Z -1.0000
G01 X 15.5737 Y 24.6441 Z -1.0000
M5
G4 P0.1

(Change tool to Cylindrical cutter)

M5
G4 P0.1
G00 X 37.5870 Y 22.0194

M3 S300
G01 X 38.3490 Y 21.9347 Z -1.0000 F 400.0000
G02 X 37.9048 Y 21.6498 Z -1.0000 I -0.4733 J 0.2491
G02 X 37.5870 Y 22.0194 Z -1.0000 I -0.0167 J 0.3071
M5
G4 P0.1

(Change tool to Cylindrical cutter)

M5
G4 P0.1
G00 X 17.2670 Y 19.4794

M3 S300
G01 X 18.1137 Y 19.4794 Z -1.0000 F 400.0000
G02 X 17.6424 Y 19.1060 Z -1.0000 I -0.6125 J 0.2889
G02 X 17.2670 Y 19.4794 Z -1.0000 I -0.0660 J 0.3091
M5
G4 P0.1

(Change tool to Cylindrical cutter)

M5
G4 P0.1
G00 X 17.5211 Y 15.8602

M3 S300
G03 X 16.9528 Y 15.3606 Z -1.0000 I 0.1244 J -0.7146 F 400.0000
G03 X 16.8438 Y 14.6534 Z -1.0000 I 2.3158 J -0.7189
G03 X 16.9339 Y 12.6328 Z -1.0000 I 20.4276 J -0.1009
G02 X 17.0126 Y 10.5894 Z -1.0000 I -18.3052 J -1.7279
G02 X 16.8243 Y 9.8666 Z -1.0000 I -1.5862 J 0.0272
G03 X 16.7111 Y 9.1501 Z -1.0000 I 0.9702 J -0.5206
G03 X 17.0968 Y 8.5608 Z -1.0000 I 0.8889 J 0.1609
G03 X 17.7749 Y 8.4066 Z -1.0000 I 0.5395 J 0.8045
G03 X 18.3279 Y 8.7213 Z -1.0000 I -0.1244 J 0.8618
G03 X 18.5318 Y 9.3194 Z -1.0000 I -0.7152 J 0.5776
G03 X 18.3729 Y 9.9126 Z -1.0000 I -1.2965 J -0.0294
G02 X 18.2021 Y 10.5048 Z -1.0000 I 1.2391 J 0.6781
G02 X 18.2551 Y 12.5066 Z -1.0000 I 11.4666 J 0.6979
G03 X 18.3677 Y 14.4841 Z -1.0000 I -17.3099 J 1.9775
G03 X 18.2892 Y 15.3274 Z -1.0000 I -4.5699 J -0.0000
G03 X 17.5211 Y 15.8602 Z -1.0000 I -0.6540 J -0.1228
M5
G4 P0.1

(Change tool to Cylindrical cutter)

M5
G4 P0.1
G00 X 18.1137 Y 14.3148

M3 S300
G01 X 17.0977 Y 14.3148 Z -1.0000 F 400.0000
G02 X 17.6080 Y 14.7012 Z -1.0000 I 0.5453 J -0.1900
G02 X 18.1137 Y 14.3148 Z -1.0000 I 0.0295 J -0.4855
M5
G4 P0.1

(Change tool to Cylindrical cutter)

M5
G4 P0.1
G00 X 20.2303 Y 14.9074

M3 S300
G01 X 20.3150 Y 13.8914 Z -1.0000 F 400.0000
G02 X 19.8676 Y 14.3619 Z -1.0000 I 0.0565 J 0.5017
G02 X 20.2303 Y 14.9074 Z -1.0000 I 0.5411 J 0.0336
M5
G4 P0.1

(Change tool to Cylindrical cutter)

M5
G4 P0.1
G00 X 14.6423 Y 14.4841

M3 S300
G01 X 15.5737 Y 14.4841 Z -1.0000 F 400.0000
G02 X 15.0302 Y 14.0157 Z -1.0000 I -0.5472 J 0.0854
G02 X 14.6423 Y 14.4841 Z -1.0000 I -0.0026 J 0.3926
M5
G4 P0.1

(Change tool to Cylindrical cutter)

M5
G4 P0.1
G00 X 38.3490 Y 11.8594

M3 S300
G01 X 37.5023 Y 11.8594 Z -1.0000 F 400.0000
G02 X 37.9259 Y 12.1619 Z -1.0000 I 0.4400 J -0.1683
G02 X 38.3490 Y 11.8594 Z -1.0000 I 0.0148 J -0.4264
M5
G4 P0.1

(Change tool to Cylindrical cutter)

M5
G4 P0.1
G00 X 17.2670 Y 9.3194

M3 S300
G01 X 18.1137 Y 9.3194 Z -1.0000 F 400.0000
G02 X 17.6500 Y 8.9566 Z -1.0000 I -0.6567 J 0.3614
G02 X 17.2670 Y 9.3194 Z -1.0000 I -0.0798 J 0.2994
G01 X 17.2670 Y 9.3194 Z -1.0000
M5
G4 P0.1

(End cutting path id: path898)


(Pass at depth -2.0)


(Footer)
M5
G4 P0.1
G00 X0.0000 Y0.0000
M2
(Using default footer. To add your own footer create file "footer" in the output dir.)
(end)
%
