%
(Header)
(Generated by gcodetools from Inkscape.)
(Using default header. To add your own header create file "header" in the output dir.)
M3
(Header end.)
G21 (All units in mm)

(Pass at depth -1.0)
(Start cutting path id: path854)
(Change tool to Cylindrical cutter)

M5
G4 P0.1
G00 X 6.4768 Y 83.1273

M3 S300
G03 X 6.1999 Y 82.2607 Z -1.0000 I 0.5064 J -0.6394 F 1000.0000
G02 X 6.3411 Y 81.2670 Z -1.0000 I -3.4259 J -0.9937
G01 X 6.3411 Y 75.8483 Z -1.0000
G01 X 6.3411 Y 53.4963 Z -1.0000
G01 X 6.3411 Y 15.3117 Z -1.0000
G01 X 6.3411 Y 5.9983 Z -1.0000
G01 X 6.3411 Y 3.7123 Z -1.0000
G02 X 6.3122 Y 3.2747 Z -1.0000 I -3.3318 J -0.0002
G03 X 6.4768 Y 2.8680 Z -1.0000 I 0.4404 J -0.0583
G03 X 7.3451 Y 2.6730 Z -1.0000 I 0.6365 J 0.8036
G02 X 8.2884 Y 2.7810 Z -1.0000 I 0.9433 J -4.0652
G01 X 13.1144 Y 2.7810 Z -1.0000
G01 X 31.8257 Y 2.7810 Z -1.0000
G01 X 45.7111 Y 2.7810 Z -1.0000
G01 X 49.2671 Y 2.7810 Z -1.0000
G02 X 49.9393 Y 2.7153 Z -1.0000 I -0.0000 J -3.4684
G03 X 50.5707 Y 2.8680 Z -1.0000 I 0.1502 J 0.7603
G03 X 50.8476 Y 3.7346 Z -1.0000 I -0.5064 J 0.6394
G02 X 50.7064 Y 4.7283 Z -1.0000 I 3.4257 J 0.9937
G01 X 50.7064 Y 10.1470 Z -1.0000
G01 X 50.7064 Y 32.4990 Z -1.0000
G01 X 50.7064 Y 70.6837 Z -1.0000
G01 X 50.7064 Y 79.9970 Z -1.0000
G01 X 50.7064 Y 82.2830 Z -1.0000
G02 X 50.7353 Y 82.7207 Z -1.0000 I 3.3340 J -0.0000
G03 X 50.5707 Y 83.1273 Z -1.0000 I -0.4405 J 0.0583
G03 X 49.7024 Y 83.3223 Z -1.0000 I -0.6365 J -0.8037
G02 X 48.7591 Y 83.2143 Z -1.0000 I -0.9434 J 4.0665
G01 X 43.9331 Y 83.2143 Z -1.0000
G01 X 25.2217 Y 83.2143 Z -1.0000
G01 X 11.3364 Y 83.2143 Z -1.0000
G01 X 7.7804 Y 83.2143 Z -1.0000
G02 X 7.1082 Y 83.2801 Z -1.0000 I -0.0000 J 3.4691
G03 X 6.4768 Y 83.1273 Z -1.0000 I -0.1502 J -0.7603
M5
G4 P0.1

(Change tool to Cylindrical cutter)

M5
G4 P0.1
G00 X 50.5371 Y 83.0450

M3 S300
G01 X 50.5371 Y 2.9503 Z -1.0000 F 1000.0000
G01 X 6.5104 Y 2.9503 Z -1.0000
G01 X 6.5104 Y 83.0450 Z -1.0000
G01 X 50.5371 Y 83.0450 Z -1.0000
M5
G4 P0.1

(Change tool to Cylindrical cutter)

M5
G4 P0.1
G00 X 40.2924 Y 4.7283

M3 S300
G01 X 10.5744 Y 4.7283 Z -1.0000 F 1000.0000
G01 X 10.4897 Y 6.0830 Z -1.0000
G03 X 10.8324 Y 7.4073 Z -1.0000 I -0.4288 J 0.8174
G02 X 10.4898 Y 8.5383 Z -1.0000 I 1.7435 J 1.1455
G02 X 10.4852 Y 11.1630 Z -1.0000 I 254.4752 J 1.7541
G03 X 10.4897 Y 13.7877 Z -1.0000 I -767.3258 J 2.6247
G03 X 10.4085 Y 14.9443 Z -1.0000 I -8.2757 J 0.0000
G02 X 10.5408 Y 16.0661 Z -1.0000 I 2.1952 J 0.3098
G02 X 10.8752 Y 16.5399 Z -1.0000 I 1.1372 J -0.4478
G03 X 11.1431 Y 17.0897 Z -1.0000 I -0.5150 J 0.5911
G03 X 10.8349 Y 17.8830 Z -1.0000 I -1.0344 J 0.0546
G02 X 10.4898 Y 18.6983 Z -1.0000 I 0.8095 J 0.8233
G03 X 10.4060 Y 22.3431 Z -1.0000 I -113.1969 J -0.7798
G02 X 10.4947 Y 25.9793 Z -1.0000 I 28.6412 J 1.1204
G02 X 10.8220 Y 26.6068 Z -1.0000 I 0.9206 J -0.0811
G03 X 11.1431 Y 27.2497 Z -1.0000 I -0.5781 J 0.6904
G03 X 10.8334 Y 27.9588 Z -1.0000 I -0.8625 J 0.0456
G02 X 10.4947 Y 28.6056 Z -1.0000 I 0.6092 J 0.7312
G02 X 10.4052 Y 32.2413 Z -1.0000 I 28.2533 J 2.5146
G03 X 10.4898 Y 35.8857 Z -1.0000 I -111.5934 J 4.4141
G02 X 10.8357 Y 36.7067 Z -1.0000 I 1.1663 J -0.0080
G03 X 11.1432 Y 37.4943 Z -1.0000 I -0.7316 J 0.7394
G03 X 10.8475 Y 38.0868 Z -1.0000 I -0.8176 J -0.0380
G02 X 10.5166 Y 38.6029 Z -1.0000 I 0.6429 J 0.7764
G02 X 10.4039 Y 40.1095 Z -1.0000 I 3.9354 J 1.0519
G03 X 10.4897 Y 41.6430 Z -1.0000 I -13.6519 J 1.5335
G03 X 10.4005 Y 44.0209 Z -1.0000 I -31.7331 J -0.0000
G02 X 10.5023 Y 46.3810 Z -1.0000 I 9.9970 J 0.7512
G02 X 10.8469 Y 46.9816 Z -1.0000 I 0.9706 J -0.1578
G03 X 11.1431 Y 47.6543 Z -1.0000 I -0.5209 J 0.6309
G03 X 10.8316 Y 48.2713 Z -1.0000 I -0.8532 J -0.0437
G02 X 10.5023 Y 48.8430 Z -1.0000 I 0.5915 J 0.7214
G02 X 10.4398 Y 50.2335 Z -1.0000 I 5.9222 J 0.9629
G03 X 10.4897 Y 51.6337 Z -1.0000 I -19.5930 J 1.4001
G03 X 10.4646 Y 54.0049 Z -1.0000 I -112.0144 J -0.0000
G02 X 10.4913 Y 56.3747 Z -1.0000 I 36.5297 J 0.7735
G02 X 10.9401 Y 57.0363 Z -1.0000 I 0.7612 J -0.0333
G03 X 11.3337 Y 57.5712 Z -1.0000 I -0.2769 J 0.6159
G03 X 11.0556 Y 58.2387 Z -1.0000 I -0.7287 J 0.0880
G02 X 10.6254 Y 58.8303 Z -1.0000 I 0.8093 J 1.0407
G02 X 10.5263 Y 59.6678 Z -1.0000 I 1.7400 J 0.6304
G03 X 10.5744 Y 60.5237 Z -1.0000 I -7.6013 J 0.8559
G03 X 10.5116 Y 63.5750 Z -1.0000 I -74.1696 J 0.0000
G02 X 10.5794 Y 66.6196 Z -1.0000 I 24.0071 J 0.9885
G02 X 10.8816 Y 67.2798 Z -1.0000 I 1.0736 J -0.0922
G03 X 11.1431 Y 67.9743 Z -1.0000 I -0.6620 J 0.6457
G03 X 10.8744 Y 68.5448 Z -1.0000 I -0.8335 J -0.0440
G02 X 10.5869 Y 69.0783 Z -1.0000 I 0.6264 J 0.6817
G02 X 10.4820 Y 71.5228 Z -1.0000 I 10.2671 J 1.6652
G03 X 10.5744 Y 73.9857 Z -1.0000 I -32.7802 J 2.4629
G01 X 10.5744 Y 78.6423 Z -1.0000
G03 X 10.4809 Y 79.4989 Z -1.0000 I -3.9689 J 0.0000
G02 X 10.7102 Y 80.2846 Z -1.0000 I 0.8313 J 0.1837
G02 X 11.2187 Y 80.4580 Z -1.0000 I 0.4306 J -0.4306
G03 X 11.7597 Y 80.4200 Z -1.0000 I 0.5964 J 4.6275
G02 X 13.2797 Y 80.3734 Z -1.0000 I -0.4823 J -40.5477
G03 X 14.8077 Y 80.3357 Z -1.0000 I 1.5281 J 30.9103
G01 X 26.8304 Y 80.3357 Z -1.0000
G03 X 28.1088 Y 80.4030 Z -1.0000 I 0.0000 J 12.1682
G02 X 29.3671 Y 80.3087 Z -1.0000 I 0.3702 J -3.5040
G02 X 29.8915 Y 79.9789 Z -1.0000 I -0.2585 J -0.9927
G03 X 30.4711 Y 79.6844 Z -1.0000 I 0.6399 J 0.5418
G03 X 31.0924 Y 79.8766 Z -1.0000 I 0.0644 J 0.8925
G03 X 31.4385 Y 80.4206 Z -1.0000 I -0.6152 J 0.7735
G03 X 31.2534 Y 81.1828 Z -1.0000 I -0.8378 J 0.2000
G03 X 30.5557 Y 81.5160 Z -1.0000 I -0.7276 J -0.6266
G03 X 29.9189 Y 81.2675 Z -1.0000 I -0.0272 J -0.8707
G02 X 29.3671 Y 80.9552 Z -1.0000 I -0.8625 J 0.8804
G02 X 28.4859 Y 80.8853 Z -1.0000 I -0.6379 J 2.4491
G03 X 27.5924 Y 80.9283 Z -1.0000 I -0.8935 J -9.2485
G01 X 14.8077 Y 80.9283 Z -1.0000
G01 X 11.2517 Y 80.9283 Z -1.0000
G02 X 10.6309 Y 81.0182 Z -1.0000 I 0.0036 J 2.2144
G03 X 10.0688 Y 80.8164 Z -1.0000 I -0.1429 J -0.4861
G03 X 9.9137 Y 80.0879 Z -1.0000 I 0.8183 J -0.5548
G02 X 9.9817 Y 79.3197 Z -1.0000 I -4.3068 J -0.7683
G01 X 9.9817 Y 75.5097 Z -1.0000
G03 X 10.1050 Y 72.3239 Z -1.0000 I 41.2432 J -0.0000
G02 X 9.9692 Y 69.1633 Z -1.0000 I -13.1464 J -1.0185
G02 X 9.6348 Y 68.6068 Z -1.0000 I -0.8681 J 0.1429
G03 X 9.3094 Y 67.9743 Z -1.0000 I 0.5023 J -0.6583
G03 X 9.5772 Y 67.3025 Z -1.0000 I 0.9057 J -0.0283
G02 X 9.8845 Y 66.7031 Z -1.0000 I -0.7630 J -0.7697
G02 X 9.9759 Y 64.5524 Z -1.0000 I -9.2425 J -1.4701
G03 X 9.8971 Y 62.3863 Z -1.0000 I 29.7074 J -2.1661
G03 X 9.9576 Y 60.6878 Z -1.0000 I 23.8758 J -0.0000
G02 X 9.8845 Y 59.0009 Z -1.0000 I -7.3732 J -0.5258
G02 X 9.5860 Y 58.4327 Z -1.0000 I -0.9895 J 0.1574
G03 X 9.3094 Y 57.8143 Z -1.0000 I 0.6154 J -0.6462
G03 X 9.5884 Y 57.1102 Z -1.0000 I 0.9532 J -0.0297
G02 X 9.8921 Y 56.4593 Z -1.0000 I -0.7429 J -0.7430
G02 X 9.9587 Y 53.5419 Z -1.0000 I -22.3842 J -1.9707
G03 X 9.8971 Y 50.6177 Z -1.0000 I 69.3425 J -2.9242
G03 X 9.9429 Y 49.6815 Z -1.0000 I 9.6013 J 0.0000
G02 X 9.8702 Y 48.7583 Z -1.0000 I -2.6287 J -0.2575
G02 X 9.5677 Y 48.2392 Z -1.0000 I -1.0788 J 0.2810
G03 X 9.3095 Y 47.6543 Z -1.0000 I 0.5934 J -0.6115
G03 X 9.5579 Y 47.0175 Z -1.0000 I 0.8707 J -0.0272
G02 X 9.8702 Y 46.4657 Z -1.0000 I -0.8803 J -0.8625
G02 X 9.9509 Y 45.4168 Z -1.0000 I -2.8761 J -0.7490
G03 X 9.8971 Y 44.3523 Z -1.0000 I 10.4959 J -1.0645
G03 X 10.0027 Y 41.5062 Z -1.0000 I 38.4127 J 0.0000
G02 X 9.8846 Y 38.6809 Z -1.0000 I -12.1875 J -0.9055
G02 X 9.5860 Y 38.1127 Z -1.0000 I -0.9895 J 0.1574
G03 X 9.3095 Y 37.4943 Z -1.0000 I 0.6154 J -0.6462
G03 X 9.5932 Y 36.7295 Z -1.0000 I 1.0816 J -0.0337
G02 X 9.8967 Y 35.9703 Z -1.0000 I -0.8522 J -0.7809
G03 X 9.9926 Y 32.2834 Z -1.0000 I 256.0396 J 4.8148
G02 X 9.8921 Y 28.6047 Z -1.0000 I -30.4071 J -1.0100
G02 X 9.5966 Y 27.9842 Z -1.0000 I -0.9805 J 0.0863
G03 X 9.3094 Y 27.3343 Z -1.0000 I 0.6584 J -0.6793
G03 X 9.5884 Y 26.6302 Z -1.0000 I 0.9532 J -0.0297
G02 X 9.8921 Y 25.9793 Z -1.0000 I -0.7428 J -0.7430
G02 X 9.9495 Y 23.4847 Z -1.0000 I -19.1813 J -1.6889
G03 X 9.8971 Y 20.9843 Z -1.0000 I 59.6985 J -2.5004
G03 X 9.9698 Y 19.6204 Z -1.0000 I 12.8257 J 0.0000
G02 X 9.8702 Y 18.2783 Z -1.0000 I -3.7236 J -0.3982
G02 X 9.5677 Y 17.7592 Z -1.0000 I -1.0788 J 0.2810
G03 X 9.3095 Y 17.1743 Z -1.0000 I 0.5934 J -0.6115
G03 X 9.5884 Y 16.4702 Z -1.0000 I 0.9532 J -0.0297
G02 X 9.8921 Y 15.8193 Z -1.0000 I -0.7428 J -0.7430
G02 X 9.9662 Y 12.5636 Z -1.0000 I -24.9436 J -2.1962
G03 X 9.8971 Y 9.3003 Z -1.0000 I 77.0548 J -3.2633
G03 X 9.9303 Y 8.6627 Z -1.0000 I 6.1424 J -0.0000
G02 X 9.8461 Y 8.0379 Z -1.0000 I -1.3300 J -0.1388
G02 X 9.5308 Y 7.5295 Z -1.0000 I -1.5306 J 0.5973
G03 X 9.3095 Y 6.9297 Z -1.0000 I 0.6301 J -0.5732
G03 X 9.6280 Y 6.2679 Z -1.0000 I 0.9054 J 0.0282
G02 X 9.9693 Y 5.6593 Z -1.0000 I -0.6503 J -0.7646
G02 X 9.9476 Y 4.9833 Z -1.0000 I -1.7859 J -0.2810
G03 X 10.0688 Y 4.3319 Z -1.0000 I 0.8216 J -0.1840
G03 X 10.8628 Y 4.0252 Z -1.0000 I 0.6147 J 0.4102
G02 X 11.7598 Y 4.1357 Z -1.0000 I 0.8970 J -3.5875
G01 X 16.9245 Y 4.1357 Z -1.0000
G01 X 34.5351 Y 4.1357 Z -1.0000
G01 X 39.1071 Y 4.1357 Z -1.0000
G02 X 39.9566 Y 4.0480 Z -1.0000 I 0.0000 J -4.1608
G03 X 40.7494 Y 4.2355 Z -1.0000 I 0.1962 J 0.9408
G03 X 40.9594 Y 4.8667 Z -1.0000 I -0.3771 J 0.4760
G02 X 40.9093 Y 5.5750 Z -1.0000 I 1.8375 J 0.4860
G03 X 41.0093 Y 7.3725 Z -1.0000 I -14.4512 J 1.7057
G02 X 41.4771 Y 9.0496 Z -1.0000 I 3.1685 J 0.0200
G03 X 41.6140 Y 9.5495 Z -1.0000 I -0.7913 J 0.4854
G03 X 41.4585 Y 10.0464 Z -1.0000 I -0.9173 J -0.0143
G03 X 40.2515 Y 10.3153 Z -1.0000 I -0.7448 J -0.4999
G03 X 39.8473 Y 9.1322 Z -1.0000 I 0.4997 J -0.8313
G03 X 40.0879 Y 8.7872 Z -1.0000 I 0.8317 J 0.3237
G02 X 40.3261 Y 8.4461 Z -1.0000 I -0.5856 J -0.6625
G02 X 40.4143 Y 7.7798 Z -1.0000 I -1.3141 J -0.5129
G03 X 40.3771 Y 7.0990 Z -1.0000 I 6.2224 J -0.6808
G02 X 40.3347 Y 5.9121 Z -1.0000 I -16.6366 J 0.0000
G03 X 40.2925 Y 4.7283 Z -1.0000 I 16.5516 J -1.1838
M5
G4 P0.1

(Change tool to Cylindrical cutter)

M5
G4 P0.1
G00 X 30.2171 Y 80.2510

M3 S300
G01 X 30.2171 Y 81.0130 Z -1.0000 F 1000.0000
G02 X 30.6793 Y 80.6272 Z -1.0000 I 0.0707 J -0.3852
G02 X 30.2171 Y 80.2510 Z -1.0000 I -0.3847 J 0.0006
M5
G4 P0.1

(Change tool to Cylindrical cutter)

M5
G4 P0.1
G00 X 18.1944 Y 77.7110

M3 S300
G01 X 35.2971 Y 77.7110 Z -1.0000 F 1000.0000
G01 X 35.2971 Y 73.9857 Z -1.0000
G01 X 34.6197 Y 73.9857 Z -1.0000
G01 X 34.6197 Y 72.0383 Z -1.0000
G01 X 36.5671 Y 72.0383 Z -1.0000
G01 X 36.5671 Y 72.7157 Z -1.0000
G01 X 47.9124 Y 72.8003 Z -1.0000
G01 X 47.9124 Y 55.4437 Z -1.0000
G03 X 47.3185 Y 55.4582 Z -1.0000 I -0.6917 J -16.0785
G02 X 46.7588 Y 55.6150 Z -1.0000 I 0.0067 J 1.1011
G02 X 46.3293 Y 55.9548 Z -1.0000 I 1.0958 J 1.8267
G03 X 45.7957 Y 56.1931 Z -1.0000 I -0.5669 J -0.5526
G03 X 45.0800 Y 55.8724 Z -1.0000 I -0.0369 J -0.8765
G02 X 44.4398 Y 55.5333 Z -1.0000 I -0.7237 J 0.5925
G02 X 41.5652 Y 55.4665 Z -1.0000 I -1.9417 J 21.6559
G03 X 38.6837 Y 55.5283 Z -1.0000 I -2.8815 J -67.0935
G03 X 37.4542 Y 55.5274 Z -1.0000 I -0.0000 J -815.5352
G03 X 36.2284 Y 55.4691 Z -1.0000 I 0.0201 J -13.3281
G02 X 35.7848 Y 55.4977 Z -1.0000 I -0.1319 J 1.4041
G03 X 35.3599 Y 55.3796 Z -1.0000 I -0.1028 J -0.4536
G03 X 35.0459 Y 54.2532 Z -1.0000 I 0.7961 J -0.8289
G02 X 35.2124 Y 52.9883 Z -1.0000 I -4.7200 J -1.2648
G01 X 35.2124 Y 47.4003 Z -1.0000
G02 X 35.1187 Y 46.1991 Z -1.0000 I -7.7432 J 0.0000
G03 X 35.2752 Y 45.0422 Z -1.0000 I 2.0150 J -0.3164
G03 X 36.2875 Y 44.6742 Z -1.0000 I 0.6858 J 0.3102
G02 X 37.5561 Y 44.0937 Z -1.0000 I 0.3933 J -0.8169
G02 X 36.3848 Y 43.0853 Z -1.0000 I -0.8274 J -0.2234
G03 X 35.2634 Y 42.6465 Z -1.0000 I -0.3415 J -0.7794
G03 X 35.1428 Y 41.7370 Z -1.0000 I 1.5225 J -0.6648
G02 X 35.2124 Y 40.7963 Z -1.0000 I -6.3184 J -0.9407
G01 X 35.2124 Y 36.5630 Z -1.0000
G02 X 35.0943 Y 35.5685 Z -1.0000 I -4.2450 J -0.0000
G03 X 35.3481 Y 34.6667 Z -1.0000 I 0.9314 J -0.2244
G03 X 35.9949 Y 34.5034 Z -1.0000 I 0.4602 J 0.4604
G02 X 36.6517 Y 34.5659 Z -1.0000 I 0.4859 J -1.6244
G02 X 37.2255 Y 34.4116 Z -1.0000 I -0.1862 J -1.8368
G03 X 37.8371 Y 34.2770 Z -1.0000 I 0.6253 J 1.3844
G03 X 37.9826 Y 30.3696 Z -1.0000 I 52.5248 J -0.0000
G02 X 37.8246 Y 26.4910 Z -1.0000 I -16.8433 J -1.2565
G02 X 37.6323 Y 26.0665 Z -1.0000 I -0.8646 J 0.1359
G03 X 37.4330 Y 25.6407 Z -1.0000 I 0.7097 J -0.5916
G03 X 37.2342 Y 24.2913 Z -1.0000 I 19.7498 J -3.5989
G03 X 38.0911 Y 23.2833 Z -1.0000 I 0.9017 J -0.1017
G03 X 39.0290 Y 24.1969 Z -1.0000 I 0.0441 J 0.8928
G03 X 38.9119 Y 25.4717 Z -1.0000 I -9.3799 J -0.2187
G03 X 38.6734 Y 26.0278 Z -1.0000 I -1.2297 J -0.1982
G02 X 38.4423 Y 26.5723 Z -1.0000 I 0.9546 J 0.7265
G02 X 38.2893 Y 30.4112 Z -1.0000 I 16.9195 J 2.5967
G03 X 38.4297 Y 34.2770 Z -1.0000 I -53.1344 J 3.8658
G03 X 39.1416 Y 34.4692 Z -1.0000 I -0.0056 J 1.4347
G03 X 39.3099 Y 35.2805 Z -1.0000 I -0.2776 J 0.4807
G03 X 38.2264 Y 35.7457 Z -1.0000 I -0.9413 J -0.6979
G03 X 37.0751 Y 35.4117 Z -1.0000 I 0.4548 J -3.7193
G03 X 36.5243 Y 35.1480 Z -1.0000 I 34.4883 J -72.7364
G02 X 35.8921 Y 35.3199 Z -1.0000 I -0.2173 J 0.4494
G02 X 35.7383 Y 36.0490 Z -1.0000 I 0.8319 J 0.5563
G03 X 35.8051 Y 36.8170 Z -1.0000 I -4.3810 J 0.7680
G01 X 35.8051 Y 40.6270 Z -1.0000
G03 X 35.7046 Y 41.4770 Z -1.0000 I -3.6474 J -0.0000
G02 X 36.0013 Y 42.2333 Z -1.0000 I 0.6905 J 0.1655
G02 X 36.6816 Y 42.2386 Z -1.0000 I 0.3442 J -0.5162
G03 X 37.2444 Y 41.9595 Z -1.0000 I 1.5207 J 2.3595
G03 X 38.2310 Y 41.7490 Z -1.0000 I 1.2498 J 3.4411
G03 X 39.1724 Y 42.0327 Z -1.0000 I 0.0991 J 1.3752
G03 X 39.3335 Y 42.7606 Z -1.0000 I -0.3556 J 0.4605
G03 X 38.7684 Y 43.1669 Z -1.0000 I -0.6828 J -0.3535
G01 X 38.7684 Y 44.4369 Z -1.0000
G03 X 39.3579 Y 44.9280 Z -1.0000 I -0.1140 J 0.7363
G03 X 39.0208 Y 45.6559 Z -1.0000 I -0.5445 J 0.1898
G03 X 37.7787 Y 45.6939 Z -1.0000 I -0.6753 J -1.7528
G02 X 36.6517 Y 45.3938 Z -1.0000 I -3.8060 J 12.0263
G02 X 36.2482 Y 45.3615 Z -1.0000 I -0.3218 J 1.4809
G02 X 35.8921 Y 45.5645 Z -1.0000 I 0.0247 J 0.4571
G02 X 35.7012 Y 46.5345 Z -1.0000 I 1.0704 J 0.7144
G03 X 35.8051 Y 47.5696 Z -1.0000 I -5.1086 J 1.0351
G01 X 35.8051 Y 52.7343 Z -1.0000
G03 X 35.6705 Y 53.8213 Z -1.0000 I -4.4582 J 0.0000
G02 X 35.9408 Y 54.7999 Z -1.0000 I 0.9981 J 0.2509
G02 X 36.3682 Y 54.9554 Z -1.0000 I 0.3805 J -0.3807
G03 X 36.8211 Y 54.9356 Z -1.0000 I 0.4528 J 5.1715
G01 X 38.9377 Y 54.9356 Z -1.0000
G03 X 41.6921 Y 54.9946 Z -1.0000 I -0.0000 J 64.3443
G02 X 44.4398 Y 54.9306 Z -1.0000 I 0.8906 J -20.7865
G02 X 45.0800 Y 54.5915 Z -1.0000 I -0.0834 J -0.9315
G03 X 45.7957 Y 54.2708 Z -1.0000 I 0.6788 J 0.5557
G03 X 46.3917 Y 54.5418 Z -1.0000 I -0.0367 J 0.8714
G02 X 46.9040 Y 54.8845 Z -1.0000 I 1.0151 J -0.9632
G02 X 47.6438 Y 54.8624 Z -1.0000 I 0.3435 J -0.8924
G03 X 48.3693 Y 54.9507 Z -1.0000 I 0.2905 J 0.6378
G03 X 48.5512 Y 55.4313 Z -1.0000 I -0.3109 J 0.3924
G02 X 48.5051 Y 55.9516 Z -1.0000 I 2.9073 J 0.5203
G01 X 48.5051 Y 58.9150 Z -1.0000
G01 X 48.5051 Y 69.6677 Z -1.0000
G03 X 48.5036 Y 70.9800 Z -1.0000 I -608.7546 J -0.0000
G02 X 48.5051 Y 72.2923 Z -1.0000 I 198.9807 J 0.4290
G02 X 48.5482 Y 72.7874 Z -1.0000 I 3.0149 J -0.0129
G03 X 48.3803 Y 73.2539 Z -1.0000 I -0.4963 J 0.0848
G03 X 47.9825 Y 73.3567 Z -1.0000 I -0.3032 J -0.3521
G02 X 47.5737 Y 73.3096 Z -1.0000 I -0.4635 J 2.2269
G02 X 46.4731 Y 73.3023 Z -1.0000 I -0.7585 J 31.4269
G03 X 45.3724 Y 73.3083 Z -1.0000 I -1.1007 J -101.1311
G01 X 36.5671 Y 73.3083 Z -1.0000
G01 X 36.5671 Y 73.9856 Z -1.0000
G01 X 35.8897 Y 73.9856 Z -1.0000
G01 X 35.8897 Y 77.0336 Z -1.0000
G02 X 35.9630 Y 77.6315 Z -1.0000 I 2.4803 J -0.0007
G03 X 35.8353 Y 78.1887 Z -1.0000 I -0.6137 J 0.1526
G03 X 35.4491 Y 78.3378 Z -1.0000 I -0.3270 J -0.2722
G02 X 35.0431 Y 78.3049 Z -1.0000 I -0.4841 J 3.4454
G02 X 33.9848 Y 78.2983 Z -1.0000 I -0.7301 J 32.5508
G03 X 32.9264 Y 78.3037 Z -1.0000 I -1.0584 J -105.0082
G01 X 24.0364 Y 78.3037 Z -1.0000
G01 X 19.2104 Y 78.3037 Z -1.0000
G02 X 18.3616 Y 78.4319 Z -1.0000 I -0.0000 J 2.8723
G03 X 17.6528 Y 78.1147 Z -1.0000 I -0.1739 J -0.5621
G03 X 17.4983 Y 76.6759 Z -1.0000 I 2.0787 J -0.9508
G02 X 17.5873 Y 75.1710 Z -1.0000 I -4.7381 J -1.0353
G02 X 17.3306 Y 74.4371 Z -1.0000 I -1.6309 J 0.1586
G03 X 17.0974 Y 73.7317 Z -1.0000 I 1.2266 J -0.7967
G03 X 17.0442 Y 72.8799 Z -1.0000 I 3319.5126 J -208.0271
G03 X 17.1304 Y 72.0396 Z -1.0000 I 2.5733 J -0.1606
G03 X 17.3382 Y 71.6281 Z -1.0000 I 1.1137 J 0.3043
G02 X 17.5121 Y 71.1904 Z -1.0000 I -0.6446 J -0.5093
G02 X 17.6545 Y 67.9320 Z -1.0000 I -37.2117 J -3.2584
G02 X 17.5121 Y 64.6736 Z -1.0000 I -37.3541 J -0.0000
G02 X 17.3042 Y 64.1314 Z -1.0000 I -1.0506 J 0.0918
G03 X 17.0975 Y 63.5717 Z -1.0000 I 0.8302 J -0.6247
G03 X 17.0442 Y 62.7199 Z -1.0000 I 3429.6814 J -214.9312
G03 X 17.1304 Y 61.8796 Z -1.0000 I 2.5727 J -0.1606
G03 X 17.3382 Y 61.4681 Z -1.0000 I 1.1137 J 0.3043
G02 X 17.5121 Y 61.0304 Z -1.0000 I -0.6446 J -0.5093
G02 X 17.6189 Y 57.8166 Z -1.0000 I -29.6157 J -2.5929
G02 X 17.5155 Y 54.5973 Z -1.0000 I -143.4170 J 2.9955
G02 X 17.3060 Y 53.9709 Z -1.0000 I -1.1968 J 0.0519
G03 X 17.0950 Y 53.3270 Z -1.0000 I 0.9923 J -0.6817
G02 X 17.0528 Y 52.5179 Z -1.0000 I -19.3529 J 0.6046
G03 X 17.1304 Y 51.7196 Z -1.0000 I 2.3639 J -0.1731
G03 X 17.3383 Y 51.3081 Z -1.0000 I 1.1137 J 0.3043
G02 X 17.5121 Y 50.8704 Z -1.0000 I -0.6446 J -0.5093
G02 X 17.5986 Y 47.6996 Z -1.0000 I -26.3283 J -2.3052
G03 X 17.5167 Y 44.5217 Z -1.0000 I 227.6638 J -7.4605
G02 X 17.3508 Y 43.9896 Z -1.0000 I -0.9958 J 0.0185
G03 X 17.1304 Y 43.5044 Z -1.0000 I 1.3972 J -0.9271
G03 X 17.0528 Y 42.7061 Z -1.0000 I 2.2863 J -0.6252
G02 X 17.0950 Y 41.8970 Z -1.0000 I -19.3128 J -1.4138
G03 X 17.2886 Y 41.3226 Z -1.0000 I 1.0467 J 0.0329
G02 X 17.5047 Y 40.7930 Z -1.0000 I -1.0164 J -0.7235
G02 X 17.5768 Y 39.1070 Z -1.0000 I -7.3873 J -1.1607
G03 X 17.5171 Y 37.4097 Z -1.0000 I 24.0990 J -1.6973
G03 X 17.5751 Y 35.7549 Z -1.0000 I 23.6192 J 0.0000
G02 X 17.5047 Y 34.1110 Z -1.0000 I -7.2802 J -0.5113
G02 X 17.3276 Y 33.7214 Z -1.0000 I -0.7909 J 0.1244
G03 X 17.1304 Y 33.3444 Z -1.0000 I 0.7639 J -0.6396
G03 X 17.0528 Y 32.5461 Z -1.0000 I 2.2863 J -0.6252
G02 X 17.0950 Y 31.7370 Z -1.0000 I -19.3128 J -1.4138
G03 X 17.3176 Y 31.0177 Z -1.0000 I 1.4180 J 0.0446
G02 X 17.5776 Y 30.2977 Z -1.0000 I -1.4644 J -0.9357
G02 X 17.6436 Y 28.5652 Z -1.0000 I -9.9822 J -1.2483
G03 X 17.6018 Y 26.8263 Z -1.0000 I 36.0841 J -1.7389
G03 X 17.6327 Y 25.5112 Z -1.0000 I 27.9841 J 0.0000
G02 X 17.5654 Y 24.2018 Z -1.0000 I -6.6710 J -0.3139
G02 X 17.3581 Y 23.6755 Z -1.0000 I -1.2488 J 0.1882
G03 X 17.1304 Y 23.1844 Z -1.0000 I 1.3405 J -0.9196
G03 X 17.0442 Y 22.3441 Z -1.0000 I 2.4866 J -0.6797
G03 X 17.0975 Y 21.4923 Z -1.0000 I 3372.9359 J 210.5178
G03 X 17.2935 Y 20.9669 Z -1.0000 I 0.9636 J 0.0603
G02 X 17.5047 Y 20.4730 Z -1.0000 I -0.8702 J -0.6640
G02 X 17.5653 Y 19.0821 Z -1.0000 I -6.1360 J -0.9641
G03 X 17.5171 Y 17.6823 Z -1.0000 I 20.3213 J -1.3997
G03 X 17.5412 Y 15.3329 Z -1.0000 I 114.4690 J -0.0000
G02 X 17.1563 Y 13.1070 Z -1.0000 I -5.9243 J -0.1216
G03 X 16.8299 Y 11.5853 Z -1.0000 I 4.8123 J -1.8279
G03 X 18.0247 Y 10.6074 Z -1.0000 I 0.9512 J -0.0567
G03 X 18.8174 Y 11.6887 Z -1.0000 I -0.2726 J 1.0310
G03 X 18.5422 Y 13.0257 Z -1.0000 I -4.3907 J -0.2069
G03 X 18.3282 Y 13.4002 Z -1.0000 I -1.2669 J -0.4753
G02 X 18.1366 Y 13.7877 Z -1.0000 I 0.7714 J 0.6226
G02 X 18.1004 Y 14.1674 Z -1.0000 I 1.2892 J 0.3146
G03 X 18.1098 Y 14.5497 Z -1.0000 I -7.7772 J 0.3823
G03 X 18.0501 Y 17.4316 Z -1.0000 I -69.5986 J -0.0000
G02 X 18.1148 Y 20.3070 Z -1.0000 I 22.4964 J 0.9323
G02 X 18.3725 Y 21.0793 Z -1.0000 I 1.7360 J -0.1502
G03 X 18.6174 Y 21.9157 Z -1.0000 I -1.3710 J 0.8556
G02 X 18.6388 Y 22.5556 Z -1.0000 I 14.9983 J -0.1797
G03 X 18.5422 Y 23.1857 Z -1.0000 I -1.5499 J 0.0848
G03 X 18.3255 Y 23.5576 Z -1.0000 I -1.2008 J -0.4504
G02 X 18.1442 Y 23.9477 Z -1.0000 I 0.6391 J 0.5341
G02 X 18.1045 Y 25.4118 Z -1.0000 I 4.9285 J 0.8662
G03 X 18.1944 Y 26.9110 Z -1.0000 I -12.4564 J 1.4992
G03 X 18.1038 Y 28.7881 Z -1.0000 I -19.4710 J -0.0000
G02 X 18.1510 Y 30.6363 Z -1.0000 I 7.5534 J 0.7316
G02 X 18.4102 Y 31.5576 Z -1.0000 I 3.7487 J -0.5576
G03 X 18.6178 Y 32.5837 Z -1.0000 I -2.4113 J 1.0219
G03 X 18.3609 Y 33.5421 Z -1.0000 I -1.9283 J -0.0032
G02 X 18.1102 Y 34.4463 Z -1.0000 I 1.6330 J 0.9396
G03 X 18.0312 Y 37.5400 Z -1.0000 I -229.1216 J -4.3018
G02 X 18.1148 Y 40.6270 Z -1.0000 I 26.0195 J 0.8401
G02 X 18.2938 Y 41.1098 Z -1.0000 I 0.9657 J -0.0835
G03 X 18.5304 Y 41.5583 Z -1.0000 I -1.4915 J 1.0736
G03 X 18.6311 Y 42.1892 Z -1.0000 I -1.5990 J 0.5787
G02 X 18.6175 Y 42.8283 Z -1.0000 I 34.1957 J 1.0500
G03 X 18.3637 Y 43.7017 Z -1.0000 I -1.6992 J -0.0202
G02 X 18.1114 Y 44.5217 Z -1.0000 I 1.4449 J 0.8933
G02 X 18.0116 Y 47.6570 Z -1.0000 I 138.3025 J 5.9721
G02 X 18.1148 Y 50.7870 Z -1.0000 I 29.2997 J 0.6006
G02 X 18.2938 Y 51.2697 Z -1.0000 I 0.9657 J -0.0835
G03 X 18.5304 Y 51.7183 Z -1.0000 I -1.4916 J 1.0736
G03 X 18.6311 Y 52.3492 Z -1.0000 I -1.5990 J 0.5787
G02 X 18.6175 Y 52.9883 Z -1.0000 I 34.1943 J 1.0499
G03 X 18.3637 Y 53.8617 Z -1.0000 I -1.6992 J -0.0202
G02 X 18.1114 Y 54.6817 Z -1.0000 I 1.4449 J 0.8933
G02 X 18.0116 Y 57.8170 Z -1.0000 I 138.3027 J 5.9721
G02 X 18.1148 Y 60.9470 Z -1.0000 I 29.2997 J 0.6006
G02 X 18.3726 Y 61.7193 Z -1.0000 I 1.7360 J -0.1502
G03 X 18.6175 Y 62.5557 Z -1.0000 I -1.3710 J 0.8556
G02 X 18.6311 Y 63.1948 Z -1.0000 I 34.1235 J -0.4090
G03 X 18.5305 Y 63.8257 Z -1.0000 I -1.6995 J 0.0522
G03 X 18.2846 Y 64.3121 Z -1.0000 I -2.1247 J -0.7684
G02 X 18.1114 Y 64.8417 Z -1.0000 I 0.8600 J 0.5744
G02 X 18.0116 Y 67.9770 Z -1.0000 I 138.3026 J 5.9721
G02 X 18.1148 Y 71.1070 Z -1.0000 I 29.2997 J 0.6006
G02 X 18.3705 Y 71.8057 Z -1.0000 I 1.4185 J -0.1228
G03 X 18.6166 Y 72.5463 Z -1.0000 I -1.0988 J 0.7763
G02 X 18.6409 Y 73.2713 Z -1.0000 I 52.2506 J -1.3914
G03 X 18.5305 Y 73.9857 Z -1.0000 I -1.8740 J 0.0759
G03 X 18.3214 Y 74.3580 Z -1.0000 I -1.2247 J -0.4429
G02 X 18.1511 Y 74.7477 Z -1.0000 I 0.6346 J 0.5094
G02 X 18.1179 Y 76.2164 Z -1.0000 I 5.8261 J 0.8664
G03 X 18.1945 Y 77.7110 Z -1.0000 I -14.5386 J 1.4946
M5
G4 P0.1

(Change tool to Cylindrical cutter)

M5
G4 P0.1
G00 X 20.0609 Y 74.4308

M3 S300
G03 X 19.6331 Y 73.7963 Z -1.0000 I 0.2544 J -0.6330 F 1000.0000
G02 X 19.6338 Y 73.0543 Z -1.0000 I -363.4561 J -0.7420
G03 X 19.7861 Y 72.1622 Z -1.0000 I 2.6894 J 0.0000
G02 X 20.0306 Y 71.3535 Z -1.0000 I -8.9421 J -3.1443
G02 X 20.1303 Y 70.3060 Z -1.0000 I -3.3249 J -0.8450
G02 X 20.0522 Y 69.2447 Z -1.0000 I -36.8603 J 2.1796
G02 X 19.7299 Y 68.5337 Z -1.0000 I -1.1730 J 0.1032
G03 X 19.4839 Y 67.7204 Z -1.0000 I 0.6780 J -0.6489
G03 X 19.9083 Y 67.1127 Z -1.0000 I 0.8686 J 0.1545
G03 X 20.6486 Y 67.0319 Z -1.0000 I 0.4609 J 0.7909
G03 X 21.1602 Y 67.4247 Z -1.0000 I -0.2912 J 0.9091
G03 X 21.2947 Y 68.0590 Z -1.0000 I -0.7687 J 0.4943
G03 X 21.0174 Y 68.5549 Z -1.0000 I -0.8058 J -0.1250
G02 X 20.7009 Y 68.9979 Z -1.0000 I 0.7267 J 0.8538
G02 X 20.5703 Y 69.9950 Z -1.0000 I 1.9311 J 0.7600
G03 X 20.6514 Y 71.0223 Z -1.0000 I -14.3435 J 1.6498
G02 X 20.8247 Y 71.5520 Z -1.0000 I 1.0333 J -0.0448
G03 X 21.0705 Y 72.0383 Z -1.0000 I -1.8785 J 1.2546
G03 X 21.1997 Y 72.8361 Z -1.0000 I -2.0477 J 0.7411
G03 X 21.1431 Y 73.6470 Z -1.0000 I -9.3009 J -0.2419
G03 X 20.8113 Y 74.2955 Z -1.0000 I -1.0293 J -0.1174
G03 X 20.0609 Y 74.4308 Z -1.0000 I -0.4830 J -0.5304
M5
G4 P0.1

(Change tool to Cylindrical cutter)

M5
G4 P0.1
G00 X 23.6978 Y 72.7157

M3 S300
G01 X 27.6772 Y 72.7157 Z -1.0000 F 1000.0000
G01 X 27.6772 Y 62.8943 Z -1.0000
G01 X 27.6772 Y 56.6290 Z -1.0000
G01 X 27.6772 Y 51.8877 Z -1.0000
G02 X 27.5895 Y 50.9480 Z -1.0000 I -5.0817 J 0.0000
G03 X 27.7770 Y 50.0617 Z -1.0000 I 1.1584 J -0.2180
G03 X 28.3409 Y 49.8295 Z -1.0000 I 0.4603 J 0.3168
G02 X 28.9472 Y 49.8435 Z -1.0000 I 0.3455 J -1.8293
G02 X 30.3481 Y 49.3476 Z -1.0000 I -0.5254 J -3.7111
G03 X 31.8083 Y 50.1097 Z -1.0000 I 0.4965 J 0.8287
G03 X 30.4262 Y 50.9927 Z -1.0000 I -0.9319 J 0.0644
G02 X 29.0318 Y 50.4740 Z -1.0000 I -2.4527 J 4.4600
G02 X 28.6027 Y 50.4864 Z -1.0000 I -0.1891 J 0.8895
G02 X 28.2968 Y 50.7920 Z -1.0000 I 0.1153 J 0.4213
G02 X 28.2267 Y 51.6298 Z -1.0000 I 2.2078 J 0.6064
G03 X 28.2698 Y 52.4803 Z -1.0000 I -8.3696 J 0.8505
G01 X 28.2698 Y 56.0363 Z -1.0000
G01 X 28.2698 Y 67.5510 Z -1.0000
G01 X 28.2698 Y 71.7843 Z -1.0000
G02 X 28.3768 Y 72.5577 Z -1.0000 I 2.8500 J -0.0000
G03 X 28.2036 Y 73.2442 Z -1.0000 I -0.6835 J 0.1927
G03 X 27.6284 Y 73.3975 Z -1.0000 I -0.4149 J -0.4013
G02 X 26.9998 Y 73.3083 Z -1.0000 I -0.6292 J 2.1763
G01 X 23.6978 Y 73.3083 Z -1.0000
G03 X 22.9847 Y 74.1929 Z -1.0000 I -0.9291 J -0.0193
G03 X 22.1742 Y 73.5623 Z -1.0000 I -0.1529 J -0.6397
G02 X 22.1021 Y 72.6588 Z -1.0000 I -6.9177 J 0.0973
G03 X 22.3213 Y 71.8036 Z -1.0000 I 1.1319 J -0.1655
G03 X 23.3808 Y 71.8031 Z -1.0000 I 0.5299 J 0.4005
G03 X 23.6978 Y 72.7157 Z -1.0000 I -1.2480 J 0.9449
M5
G4 P0.1

(Change tool to Cylindrical cutter)

M5
G4 P0.1
G00 X 20.7345 Y 72.6310

M3 S300
G01 X 19.9725 Y 72.6310 Z -1.0000 F 1000.0000
G02 X 20.4013 Y 73.1406 Z -1.0000 I 0.4065 J 0.0932
G02 X 20.7345 Y 72.6310 Z -1.0000 I -0.0201 J -0.3769
M5
G4 P0.1

(Change tool to Cylindrical cutter)

M5
G4 P0.1
G00 X 23.2745 Y 73.3930

M3 S300
G01 X 23.2745 Y 72.6310 Z -1.0000 F 1000.0000
G02 X 22.7676 Y 73.0130 Z -1.0000 I -0.1111 J 0.3800
G02 X 23.2745 Y 73.3930 Z -1.0000 I 0.3974 J -0.0020
M5
G4 P0.1

(Change tool to Cylindrical cutter)

M5
G4 P0.1
G00 X 18.1945 Y 73.3930

M3 S300
G01 X 18.1945 Y 72.6310 Z -1.0000 F 1000.0000
G01 X 17.4325 Y 72.6310 Z -1.0000
G01 X 17.4325 Y 73.3930 Z -1.0000
G01 X 18.1945 Y 73.3930 Z -1.0000
M5
G4 P0.1

(Change tool to Cylindrical cutter)

M5
G4 P0.1
G00 X 35.3818 Y 73.3083

M3 S300
G01 X 35.8898 Y 73.3083 Z -1.0000 F 1000.0000
G01 X 35.8898 Y 72.6310 Z -1.0000
G02 X 35.4110 Y 72.7962 Z -1.0000 I -0.0804 J 0.5435
G02 X 35.3818 Y 73.3083 Z -1.0000 I 0.2879 J 0.2733
M5
G4 P0.1

(Change tool to Cylindrical cutter)

M5
G4 P0.1
G00 X 30.2172 Y 53.5810

M3 S300
G02 X 29.6882 Y 53.6741 Z -1.0000 I 3.1446 J 19.4139 F 1000.0000
G03 X 29.1830 Y 53.5148 Z -1.0000 I -0.1045 J -0.5494
G03 X 29.0673 Y 52.5900 Z -1.0000 I 0.5535 J -0.5389
G03 X 29.7942 Y 52.0763 Z -1.0000 I 0.9198 J 0.5304
G03 X 30.7040 Y 51.9510 Z -1.0000 I 1.8215 J 9.8597
G03 X 31.5593 Y 52.1927 Z -1.0000 I 0.1128 J 1.2351
G03 X 31.5654 Y 53.0684 Z -1.0000 I -0.3291 J 0.4402
G03 X 30.8098 Y 53.3270 Z -1.0000 I -0.7600 J -0.9876
G01 X 30.8945 Y 57.5603 Z -1.0000
G01 X 44.7798 Y 57.4757 Z -1.0000
G01 X 44.7798 Y 56.7983 Z -1.0000
G01 X 46.7272 Y 56.7983 Z -1.0000
G01 X 46.7272 Y 58.7456 Z -1.0000
G01 X 44.7798 Y 58.7456 Z -1.0000
G01 X 44.7798 Y 58.0683 Z -1.0000
G01 X 35.8898 Y 58.1530 Z -1.0000
G01 X 35.8898 Y 64.0797 Z -1.0000
G03 X 35.8128 Y 65.4421 Z -1.0000 I -12.0911 J 0.0000
G02 X 35.9168 Y 66.7802 Z -1.0000 I 3.5224 J 0.3995
G02 X 36.2036 Y 67.2006 Z -1.0000 I 0.7557 J -0.2075
G03 X 36.5118 Y 67.6360 Z -1.0000 I -0.5177 J 0.6933
G03 X 36.3838 Y 68.4731 Z -1.0000 I -0.9205 J 0.2876
G03 X 35.6358 Y 68.8808 Z -1.0000 I -0.7800 J -0.5409
G03 X 34.8628 Y 68.5431 Z -1.0000 I -0.0331 J -0.9779
G03 X 34.6696 Y 67.7203 Z -1.0000 I 0.6886 J -0.5957
G03 X 34.9734 Y 67.2427 Z -1.0000 I 0.8856 J 0.2278
G02 X 35.2702 Y 66.7815 Z -1.0000 I -0.5733 J -0.6951
G02 X 35.3751 Y 65.4003 Z -1.0000 I -3.6044 J -0.9683
G03 X 35.2972 Y 63.9950 Z -1.0000 I 12.6266 J -1.4053
G01 X 35.2972 Y 58.0683 Z -1.0000
G01 X 30.8098 Y 58.1530 Z -1.0000
G01 X 30.8098 Y 65.7730 Z -1.0000
G03 X 30.7074 Y 67.5633 Z -1.0000 I -15.6943 J 0.0000
G02 X 30.8367 Y 69.3211 Z -1.0000 I 4.6908 J 0.5386
G02 X 31.1334 Y 69.7773 Z -1.0000 I 0.8472 J -0.2265
G03 X 31.4386 Y 70.2607 Z -1.0000 I -0.5553 J 0.6887
G03 X 31.1740 Y 71.1265 Z -1.0000 I -0.8695 J 0.2076
G03 X 30.3019 Y 71.3582 Z -1.0000 I -0.6566 J -0.7147
G03 X 29.8156 Y 70.2158 Z -1.0000 I 0.1701 J -0.7471
G02 X 30.1902 Y 69.3257 Z -1.0000 I -2.8906 J -1.7405
G02 X 30.2710 Y 68.2768 Z -1.0000 I -2.8765 J -0.7490
G03 X 30.2172 Y 67.2123 Z -1.0000 I 10.4979 J -1.0645
G01 X 30.2172 Y 53.5810 Z -1.0000
M5
G4 P0.1

(Change tool to Cylindrical cutter)

M5
G4 P0.1
G00 X 30.8945 Y 70.1757

M3 S300
G01 X 30.1325 Y 70.1757 Z -1.0000 F 1000.0000
G02 X 30.5394 Y 70.6504 Z -1.0000 I 0.3955 J 0.0727
G02 X 30.8945 Y 70.1757 Z -1.0000 I -0.0107 J -0.3782
M5
G4 P0.1

(Change tool to Cylindrical cutter)

M5
G4 P0.1
G00 X 35.9745 Y 67.6357

M3 S300
G01 X 35.2125 Y 67.6357 Z -1.0000 F 1000.0000
G02 X 35.6340 Y 68.0441 Z -1.0000 I 0.4219 J -0.0137
G02 X 35.9745 Y 67.6357 Z -1.0000 I 0.0003 J -0.3459
M5
G4 P0.1

(Change tool to Cylindrical cutter)

M5
G4 P0.1
G00 X 9.9817 Y 68.3130

M3 S300
G01 X 9.9817 Y 67.6357 Z -1.0000 F 1000.0000
G02 X 9.8336 Y 67.9714 Z -1.0000 I 0.2159 J 0.2958
G02 X 9.9817 Y 68.3130 Z -1.0000 I 0.6264 J -0.0687
M5
G4 P0.1

(Change tool to Cylindrical cutter)

M5
G4 P0.1
G00 X 20.7344 Y 68.2283

M3 S300
G02 X 20.3760 Y 67.7535 Z -1.0000 I -0.3660 J -0.0964 F 1000.0000
G02 X 19.9724 Y 68.2283 Z -1.0000 I -0.0081 J 0.4021
G01 X 20.7344 Y 68.2283 Z -1.0000
M5
G4 P0.1

(Change tool to Cylindrical cutter)

M5
G4 P0.1
G00 X 10.6591 Y 68.1437

M3 S300
G01 X 10.6591 Y 67.7203 Z -1.0000 F 1000.0000
G01 X 10.5744 Y 67.7203 Z -1.0000
G01 X 10.6591 Y 68.1437 Z -1.0000
M5
G4 P0.1

(Change tool to Cylindrical cutter)

M5
G4 P0.1
G00 X 20.0608 Y 64.2707

M3 S300
G03 X 19.6330 Y 63.6363 Z -1.0000 I 0.2544 J -0.6330 F 1000.0000
G02 X 19.6337 Y 62.8943 Z -1.0000 I -363.4561 J -0.7420
G03 X 19.7860 Y 62.0022 Z -1.0000 I 2.6894 J 0.0000
G02 X 20.0305 Y 61.1935 Z -1.0000 I -8.9421 J -3.1444
G02 X 20.1302 Y 60.1460 Z -1.0000 I -3.3249 J -0.8450
G02 X 20.0521 Y 59.0847 Z -1.0000 I -36.8605 J 2.1796
G02 X 19.7298 Y 58.3737 Z -1.0000 I -1.1730 J 0.1032
G03 X 19.4838 Y 57.5604 Z -1.0000 I 0.6780 J -0.6489
G03 X 19.9100 Y 56.9561 Z -1.0000 I 0.8579 J 0.1526
G03 X 20.6496 Y 56.8870 Z -1.0000 I 0.4461 J 0.7823
G03 X 21.1548 Y 57.2746 Z -1.0000 I -0.3272 J 0.9494
G03 X 21.2946 Y 57.8990 Z -1.0000 I -0.7268 J 0.4905
G03 X 21.0173 Y 58.3949 Z -1.0000 I -0.8052 J -0.1246
G02 X 20.7008 Y 58.8379 Z -1.0000 I 0.7263 J 0.8536
G02 X 20.5702 Y 59.8350 Z -1.0000 I 1.9311 J 0.7600
G03 X 20.6513 Y 60.8623 Z -1.0000 I -14.3435 J 1.6498
G02 X 20.8246 Y 61.3920 Z -1.0000 I 1.0333 J -0.0448
G03 X 21.0703 Y 61.8783 Z -1.0000 I -1.8785 J 1.2546
G03 X 21.1996 Y 62.6761 Z -1.0000 I -2.0477 J 0.7411
G03 X 21.1430 Y 63.4870 Z -1.0000 I -9.3010 J -0.2419
G03 X 20.8112 Y 64.1355 Z -1.0000 I -1.0293 J -0.1174
G03 X 20.0608 Y 64.2707 Z -1.0000 I -0.4830 J -0.5304
M5
G4 P0.1

(Change tool to Cylindrical cutter)

M5
G4 P0.1
G00 X 23.6977 Y 62.5557

M3 S300
G01 X 25.2217 Y 62.4710 Z -1.0000 F 1000.0000
G01 X 25.2217 Y 51.4643 Z -1.0000
G01 X 25.2217 Y 48.5857 Z -1.0000
G02 X 25.1798 Y 47.9945 Z -1.0000 I -4.1917 J -0.0000
G03 X 25.3088 Y 47.4272 Z -1.0000 I 0.8066 J -0.1149
G03 X 26.1239 Y 47.1218 Z -1.0000 I 0.6198 J 0.4135
G02 X 26.9997 Y 47.2914 Z -1.0000 I 1.5832 J -5.8273
G02 X 28.8594 Y 47.1846 Z -1.0000 I 0.6275 J -5.3174
G03 X 30.6404 Y 46.9770 Z -1.0000 I 1.7805 J 7.5298
G03 X 31.3422 Y 47.0456 Z -1.0000 I -0.0000 J 3.6230
G03 X 31.8082 Y 47.6542 Z -1.0000 I -0.1123 J 0.5687
G03 X 31.1897 Y 48.2407 Z -1.0000 I -0.6285 J -0.0434
G03 X 30.3864 Y 48.2470 Z -1.0000 I -0.7865 J -49.5000
G03 X 29.6438 Y 48.1051 Z -1.0000 I 0.0009 J -2.0185
G02 X 28.9471 Y 47.9205 Z -1.0000 I -1.1250 J 2.8396
G02 X 27.3859 Y 47.8171 Z -1.0000 I -1.4736 J 10.4072
G03 X 25.8144 Y 47.8236 Z -1.0000 I -1.5715 J -188.6967
G01 X 25.8144 Y 58.9150 Z -1.0000
G01 X 25.8144 Y 61.7937 Z -1.0000
G02 X 25.8616 Y 62.3801 Z -1.0000 I 3.6661 J -0.0000
G03 X 25.7274 Y 62.9389 Z -1.0000 I -0.7347 J 0.1191
G03 X 24.8228 Y 63.2758 Z -1.0000 I -0.7082 J -0.5187
G02 X 23.6977 Y 63.1483 Z -1.0000 I -1.1250 J 4.9003
G03 X 22.9846 Y 64.0329 Z -1.0000 I -0.9291 J -0.0193
G03 X 22.1741 Y 63.4023 Z -1.0000 I -0.1529 J -0.6397
G02 X 22.1020 Y 62.4988 Z -1.0000 I -6.9177 J 0.0973
G03 X 22.3212 Y 61.6436 Z -1.0000 I 1.1319 J -0.1655
G03 X 23.3807 Y 61.6431 Z -1.0000 I 0.5299 J 0.4005
G03 X 23.6977 Y 62.5557 Z -1.0000 I -1.2480 J 0.9449
M5
G4 P0.1

(Change tool to Cylindrical cutter)

M5
G4 P0.1
G00 X 20.7344 Y 62.4710

M3 S300
G01 X 19.9724 Y 62.4710 Z -1.0000 F 1000.0000
G02 X 20.4012 Y 62.9806 Z -1.0000 I 0.4065 J 0.0932
G02 X 20.7344 Y 62.4710 Z -1.0000 I -0.0201 J -0.3769
M5
G4 P0.1

(Change tool to Cylindrical cutter)

M5
G4 P0.1
G00 X 23.2744 Y 63.2330

M3 S300
G01 X 23.2744 Y 62.4710 Z -1.0000 F 1000.0000
G02 X 22.7688 Y 62.8520 Z -1.0000 I -0.1092 J 0.3810
G02 X 23.2744 Y 63.2330 Z -1.0000 I 0.3964 J 0.0000
M5
G4 P0.1

(Change tool to Cylindrical cutter)

M5
G4 P0.1
G00 X 18.1944 Y 63.2330

M3 S300
G01 X 18.1944 Y 62.4710 Z -1.0000 F 1000.0000
G01 X 17.4324 Y 62.4710 Z -1.0000
G01 X 17.4324 Y 63.2330 Z -1.0000
G01 X 18.1944 Y 63.2330 Z -1.0000
M5
G4 P0.1

(Change tool to Cylindrical cutter)

M5
G4 P0.1
G00 X 45.3724 Y 57.3910

M3 S300
G01 X 45.4571 Y 58.1530 Z -1.0000 F 1000.0000
G02 X 45.9046 Y 57.8010 Z -1.0000 I 0.0930 J -0.3423
G02 X 45.3724 Y 57.3910 Z -1.0000 I -0.4332 J 0.0119
M5
G4 P0.1

(Change tool to Cylindrical cutter)

M5
G4 P0.1
G00 X 9.9817 Y 58.0683

M3 S300
G01 X 9.9817 Y 57.4757 Z -1.0000 F 1000.0000
G01 X 9.8124 Y 58.0683 Z -1.0000
G01 X 9.9817 Y 58.0683 Z -1.0000
M5
G4 P0.1

(Change tool to Cylindrical cutter)

M5
G4 P0.1
G00 X 20.7344 Y 58.0683

M3 S300
G02 X 20.3760 Y 57.5935 Z -1.0000 I -0.3660 J -0.0964 F 1000.0000
G02 X 19.9724 Y 58.0683 Z -1.0000 I -0.0081 J 0.4021
G01 X 20.7344 Y 58.0683 Z -1.0000
M5
G4 P0.1

(Change tool to Cylindrical cutter)

M5
G4 P0.1
G00 X 46.1344 Y 55.6130

M3 S300
G01 X 46.1344 Y 54.8510 Z -1.0000 F 1000.0000
G01 X 45.3724 Y 54.8510 Z -1.0000
G01 X 45.4571 Y 55.6130 Z -1.0000
G01 X 46.1344 Y 55.6130 Z -1.0000
M5
G4 P0.1

(Change tool to Cylindrical cutter)

M5
G4 P0.1
G00 X 20.0608 Y 54.1108

M3 S300
G03 X 19.6330 Y 53.4763 Z -1.0000 I 0.2544 J -0.6330 F 1000.0000
G02 X 19.6337 Y 52.7343 Z -1.0000 I -363.4561 J -0.7420
G03 X 19.7860 Y 51.8422 Z -1.0000 I 2.6894 J 0.0000
G02 X 20.0305 Y 51.0335 Z -1.0000 I -8.9421 J -3.1444
G02 X 20.1302 Y 49.9860 Z -1.0000 I -3.3249 J -0.8450
G02 X 20.0521 Y 48.9247 Z -1.0000 I -36.8605 J 2.1796
G02 X 19.7298 Y 48.2137 Z -1.0000 I -1.1730 J 0.1032
G03 X 19.4838 Y 47.4004 Z -1.0000 I 0.6780 J -0.6489
G03 X 19.9100 Y 46.7961 Z -1.0000 I 0.8579 J 0.1526
G03 X 20.6496 Y 46.7270 Z -1.0000 I 0.4461 J 0.7823
G03 X 21.1548 Y 47.1147 Z -1.0000 I -0.3275 J 0.9496
G03 X 21.2946 Y 47.7390 Z -1.0000 I -0.7269 J 0.4906
G03 X 21.0186 Y 48.2395 Z -1.0000 I -0.8220 J -0.1269
G02 X 20.7008 Y 48.6847 Z -1.0000 I 0.7718 J 0.8869
G02 X 20.5680 Y 49.6776 Z -1.0000 I 1.8614 J 0.7542
G03 X 20.6513 Y 50.7023 Z -1.0000 I -13.4514 J 1.6096
G02 X 20.8246 Y 51.2320 Z -1.0000 I 1.0333 J -0.0448
G03 X 21.0704 Y 51.7183 Z -1.0000 I -1.8785 J 1.2546
G03 X 21.1996 Y 52.5161 Z -1.0000 I -2.0477 J 0.7411
G03 X 21.1430 Y 53.3270 Z -1.0000 I -9.3009 J -0.2419
G03 X 20.8112 Y 53.9755 Z -1.0000 I -1.0293 J -0.1174
G03 X 20.0608 Y 54.1108 Z -1.0000 I -0.4830 J -0.5304
M5
G4 P0.1

(Change tool to Cylindrical cutter)

M5
G4 P0.1
G00 X 23.1897 Y 45.3683

M3 S300
G03 X 23.0912 Y 48.1294 Z -1.0000 I -38.7380 J 0.0000 F 1000.0000
G02 X 23.2023 Y 50.8717 Z -1.0000 I 12.2674 J 0.8766
G02 X 23.4529 Y 51.4877 Z -1.0000 I 1.4167 J -0.2174
G03 X 23.6901 Y 52.1417 Z -1.0000 I -1.0507 J 0.7510
G03 X 23.7538 Y 53.2661 Z -1.0000 I -30.1868 J 2.2746
G03 X 23.0203 Y 54.1530 Z -1.0000 I -0.8633 J 0.0328
G03 X 22.1777 Y 53.4347 Z -1.0000 I -0.1101 J -0.7242
G03 X 22.1737 Y 52.3957 Z -1.0000 I 122.1768 J -0.9904
G03 X 22.3602 Y 51.6348 Z -1.0000 I 1.6486 J 0.0007
G02 X 22.5846 Y 50.9530 Z -1.0000 I -1.9717 J -1.0269
G02 X 22.6700 Y 48.9296 Z -1.0000 I -8.8162 J -1.3854
G03 X 22.5971 Y 46.8923 Z -1.0000 I 28.4256 J -2.0373
G02 X 22.4750 Y 45.8581 Z -1.0000 I -4.4411 J 0.0000
G03 X 22.6841 Y 44.9114 Z -1.0000 I 1.0783 J -0.2582
G03 X 23.5507 Y 44.6345 Z -1.0000 I 0.6394 J 0.5064
G02 X 24.5444 Y 44.7757 Z -1.0000 I 0.9937 J -3.4258
G03 X 26.7055 Y 44.8172 Z -1.0000 I 0.0000 J 56.1689
G02 X 28.8624 Y 44.7707 Z -1.0000 I 0.6912 J -17.9525
G02 X 29.4096 Y 44.6037 Z -1.0000 I -0.1092 J -1.3380
G03 X 29.9631 Y 44.4406 Z -1.0000 I 0.6338 J 1.1307
G02 X 30.9732 Y 44.3516 Z -1.0000 I -1.2157 J -19.5779
G03 X 31.7972 Y 44.9453 Z -1.0000 I 0.0856 J 0.7499
G03 X 31.0416 Y 45.7896 Z -1.0000 I -0.6871 J 0.1453
G02 X 29.9631 Y 45.7032 Z -1.0000 I -2.9646 J 30.2394
G03 X 29.4096 Y 45.5401 Z -1.0000 I 0.0805 J -1.2941
G02 X 28.8624 Y 45.3732 Z -1.0000 I -0.6566 J 1.1714
G02 X 26.0289 Y 45.3128 Z -1.0000 I -1.9167 J 23.4299
G03 X 23.1897 Y 45.3681 Z -1.0000 I -2.8392 J -72.7460
M5
G4 P0.1

(Change tool to Cylindrical cutter)

M5
G4 P0.1
G00 X 45.4574 Y 53.6103

M3 S300
G03 X 45.0220 Y 53.3020 Z -1.0000 I 0.2582 J -0.8264 F 1000.0000
G02 X 44.6016 Y 53.0153 Z -1.0000 I -0.6279 J 0.4690
G02 X 43.7657 Y 52.9454 Z -1.0000 I -0.6051 J 2.2043
G03 X 42.9171 Y 52.9883 Z -1.0000 I -0.8486 J -8.3621
G03 X 41.3037 Y 52.9352 Z -1.0000 I -0.0000 J -24.5189
G02 X 39.6997 Y 53.0008 Z -1.0000 I -0.4959 J 7.5194
G02 X 39.2764 Y 53.1577 Z -1.0000 I 0.1615 J 1.0854
G03 X 38.8531 Y 53.3146 Z -1.0000 I -0.5848 J -0.9285
G03 X 37.7833 Y 53.4527 Z -1.0000 I -4.1588 J -27.9949
G03 X 36.8852 Y 52.8999 Z -1.0000 I -0.0937 J -0.8536
G03 X 37.4861 Y 52.0484 Z -1.0000 I 0.5906 J -0.2210
G02 X 38.4297 Y 52.0570 Z -1.0000 I 1.0750 J -66.2273
G03 X 39.1262 Y 52.2137 Z -1.0000 I -0.0035 J 1.6413
G02 X 39.7844 Y 52.3907 Z -1.0000 I 0.8211 J -1.7415
G02 X 42.0258 Y 52.4511 Z -1.0000 I 1.6427 J -19.3159
G03 X 44.2716 Y 52.3953 Z -1.0000 I 5.7660 J 186.5980
G02 X 45.0810 Y 52.0316 Z -1.0000 I -0.0213 J -1.1298
G03 X 45.9651 Y 51.7521 Z -1.0000 I 0.6864 J 0.6331
G03 X 46.6845 Y 52.9410 Z -1.0000 I -0.2024 J 0.9346
G03 X 45.4574 Y 53.6103 Z -1.0000 I -0.9371 J -0.2586
M5
G4 P0.1

(Change tool to Cylindrical cutter)

M5
G4 P0.1
G00 X 20.7344 Y 52.3110

M3 S300
G01 X 19.9724 Y 52.3110 Z -1.0000 F 1000.0000
G02 X 20.4012 Y 52.8207 Z -1.0000 I 0.4065 J 0.0932
G02 X 20.7344 Y 52.3110 Z -1.0000 I -0.0201 J -0.3769
M5
G4 P0.1

(Change tool to Cylindrical cutter)

M5
G4 P0.1
G00 X 23.2744 Y 52.3110

M3 S300
G01 X 22.5124 Y 52.3110 Z -1.0000 F 1000.0000
G02 X 22.9412 Y 52.8207 Z -1.0000 I 0.4065 J 0.0932
G02 X 23.2744 Y 52.3110 Z -1.0000 I -0.0201 J -0.3769
M5
G4 P0.1

(Change tool to Cylindrical cutter)

M5
G4 P0.1
G00 X 45.3724 Y 52.3110

M3 S300
G01 X 45.4571 Y 53.0730 Z -1.0000 F 1000.0000
G02 X 45.9046 Y 52.7210 Z -1.0000 I 0.0930 J -0.3423
G02 X 45.3724 Y 52.3110 Z -1.0000 I -0.4332 J 0.0119
M5
G4 P0.1

(Change tool to Cylindrical cutter)

M5
G4 P0.1
G00 X 18.1944 Y 53.0730

M3 S300
G01 X 18.1944 Y 52.3110 Z -1.0000 F 1000.0000
G01 X 17.4324 Y 52.3110 Z -1.0000
G01 X 17.4324 Y 53.0730 Z -1.0000
G01 X 18.1944 Y 53.0730 Z -1.0000
M5
G4 P0.1

(Change tool to Cylindrical cutter)

M5
G4 P0.1
G00 X 38.4297 Y 52.9884

M3 S300
G01 X 38.4297 Y 52.3957 Z -1.0000 F 1000.0000
G02 X 38.0450 Y 52.6920 Z -1.0000 I -0.0782 J 0.2963
G02 X 38.4297 Y 52.9884 Z -1.0000 I 0.3065 J 0.0000
M5
G4 P0.1

(Change tool to Cylindrical cutter)

M5
G4 P0.1
G00 X 30.8944 Y 52.9037

M3 S300
G02 X 30.6749 Y 52.4911 Z -1.0000 I -0.5808 J 0.0443 F 1000.0000
G02 X 30.2171 Y 52.3957 Z -1.0000 I -0.3243 J 0.4101
G01 X 30.2171 Y 52.4804 Z -1.0000
G03 X 30.6265 Y 52.5851 Z -1.0000 I 0.0854 J 0.5186
G03 X 30.8944 Y 52.9037 Z -1.0000 I -0.6230 J 0.7958
M5
G4 P0.1

(Change tool to Cylindrical cutter)

M5
G4 P0.1
G00 X 45.4574 Y 51.0703

M3 S300
G03 X 45.0220 Y 50.7620 Z -1.0000 I 0.2582 J -0.8264 F 1000.0000
G02 X 44.6016 Y 50.4753 Z -1.0000 I -0.6279 J 0.4690
G02 X 43.7657 Y 50.4054 Z -1.0000 I -0.6051 J 2.2043
G03 X 42.9171 Y 50.4484 Z -1.0000 I -0.8486 J -8.3621
G03 X 41.3037 Y 50.3952 Z -1.0000 I 0.0000 J -24.5189
G02 X 39.6997 Y 50.4608 Z -1.0000 I -0.4959 J 7.5194
G02 X 39.2764 Y 50.6177 Z -1.0000 I 0.1615 J 1.0854
G03 X 38.8531 Y 50.7746 Z -1.0000 I -0.5848 J -0.9285
G03 X 37.7833 Y 50.9127 Z -1.0000 I -4.1588 J -27.9949
G03 X 36.8852 Y 50.3600 Z -1.0000 I -0.0937 J -0.8536
G03 X 37.4861 Y 49.5084 Z -1.0000 I 0.5906 J -0.2210
G02 X 38.4297 Y 49.5170 Z -1.0000 I 1.0750 J -66.2273
G03 X 39.1262 Y 49.6738 Z -1.0000 I -0.0035 J 1.6413
G02 X 39.7844 Y 49.8507 Z -1.0000 I 0.8211 J -1.7415
G02 X 42.0258 Y 49.9112 Z -1.0000 I 1.6427 J -19.3159
G03 X 44.2716 Y 49.8553 Z -1.0000 I 5.7660 J 186.5980
G02 X 45.0810 Y 49.4916 Z -1.0000 I -0.0213 J -1.1298
G03 X 45.9651 Y 49.2121 Z -1.0000 I 0.6864 J 0.6331
G03 X 46.6845 Y 50.4010 Z -1.0000 I -0.2024 J 0.9346
G03 X 45.4574 Y 51.0704 Z -1.0000 I -0.9371 J -0.2586
M5
G4 P0.1

(Change tool to Cylindrical cutter)

M5
G4 P0.1
G00 X 45.3724 Y 49.7711

M3 S300
G01 X 45.3724 Y 50.5331 Z -1.0000 F 1000.0000
G02 X 45.8518 Y 50.1529 Z -1.0000 I 0.0875 J -0.3820
G02 X 45.3724 Y 49.7711 Z -1.0000 I -0.3903 J -0.0018
M5
G4 P0.1

(Change tool to Cylindrical cutter)

M5
G4 P0.1
G00 X 30.3017 Y 49.7711

M3 S300
G01 X 30.3017 Y 50.5331 Z -1.0000 F 1000.0000
G02 X 30.6548 Y 50.1521 Z -1.0000 I -0.0290 J -0.3810
G02 X 30.3017 Y 49.7711 Z -1.0000 I -0.3821 J -0.0000
M5
G4 P0.1

(Change tool to Cylindrical cutter)

M5
G4 P0.1
G00 X 38.4297 Y 50.4484

M3 S300
G01 X 38.4297 Y 49.8557 Z -1.0000 F 1000.0000
G02 X 38.0450 Y 50.1521 Z -1.0000 I -0.0782 J 0.2963
G02 X 38.4297 Y 50.4484 Z -1.0000 I 0.3065 J 0.0000
M5
G4 P0.1

(Change tool to Cylindrical cutter)

M5
G4 P0.1
G00 X 45.4574 Y 48.5304

M3 S300
G03 X 45.0220 Y 48.2221 Z -1.0000 I 0.2582 J -0.8263 F 1000.0000
G02 X 44.6016 Y 47.9353 Z -1.0000 I -0.6279 J 0.4690
G02 X 43.7657 Y 47.8655 Z -1.0000 I -0.6051 J 2.2041
G03 X 42.9171 Y 47.9084 Z -1.0000 I -0.8486 J -8.3599
G03 X 41.3037 Y 47.8553 Z -1.0000 I -0.0000 J -24.5202
G02 X 39.6997 Y 47.9209 Z -1.0000 I -0.4957 J 7.5176
G02 X 39.2764 Y 48.0778 Z -1.0000 I 0.1614 J 1.0852
G03 X 38.8531 Y 48.2347 Z -1.0000 I -0.5848 J -0.9284
G03 X 37.7833 Y 48.3728 Z -1.0000 I -4.1564 J -27.9755
G03 X 36.8852 Y 47.8201 Z -1.0000 I -0.0937 J -0.8536
G03 X 37.4861 Y 46.9685 Z -1.0000 I 0.5906 J -0.2210
G02 X 38.4297 Y 46.9771 Z -1.0000 I 1.0756 J -66.2723
G03 X 39.1262 Y 47.1338 Z -1.0000 I -0.0032 J 1.6402
G02 X 39.7844 Y 47.3108 Z -1.0000 I 0.8210 J -1.7410
G02 X 42.0258 Y 47.3713 Z -1.0000 I 1.6431 J -19.3205
G03 X 44.2716 Y 47.3158 Z -1.0000 I 5.6338 J 182.4886
G02 X 45.0809 Y 46.9519 Z -1.0000 I -0.0214 J -1.1295
G03 X 45.9650 Y 46.6726 Z -1.0000 I 0.6859 J 0.6322
G03 X 46.6852 Y 47.8572 Z -1.0000 I -0.2031 J 0.9348
G03 X 45.4574 Y 48.5309 Z -1.0000 I -0.9380 J -0.2538
M5
G4 P0.1

(Change tool to Cylindrical cutter)

M5
G4 P0.1
G00 X 45.3724 Y 47.2316

M3 S300
G01 X 45.3724 Y 47.9936 Z -1.0000 F 1000.0000
G02 X 45.8518 Y 47.6134 Z -1.0000 I 0.0875 J -0.3820
G02 X 45.3724 Y 47.2316 Z -1.0000 I -0.3903 J -0.0018
M5
G4 P0.1

(Change tool to Cylindrical cutter)

M5
G4 P0.1
G00 X 30.3017 Y 47.2316

M3 S300
G01 X 30.3017 Y 47.9936 Z -1.0000 F 1000.0000
G02 X 30.6548 Y 47.6125 Z -1.0000 I -0.0291 J -0.3810
G02 X 30.3017 Y 47.2316 Z -1.0000 I -0.3821 J -0.0000
M5
G4 P0.1

(Change tool to Cylindrical cutter)

M5
G4 P0.1
G00 X 38.4297 Y 47.9089

M3 S300
G01 X 38.4297 Y 47.3162 Z -1.0000 F 1000.0000
G02 X 38.0450 Y 47.6126 Z -1.0000 I -0.0782 J 0.2963
G02 X 38.4297 Y 47.9089 Z -1.0000 I 0.3065 J 0.0000
M5
G4 P0.1

(Change tool to Cylindrical cutter)

M5
G4 P0.1
G00 X 10.5744 Y 47.9089

M3 S300
G01 X 10.5744 Y 47.3162 Z -1.0000 F 1000.0000
G01 X 9.8124 Y 47.3162 Z -1.0000
G01 X 9.8124 Y 47.9089 Z -1.0000
G01 X 10.5744 Y 47.9089 Z -1.0000
M5
G4 P0.1

(Change tool to Cylindrical cutter)

M5
G4 P0.1
G00 X 20.7344 Y 47.9089

M3 S300
G02 X 20.3760 Y 47.4341 Z -1.0000 I -0.3660 J -0.0964 F 1000.0000
G02 X 19.9724 Y 47.9089 Z -1.0000 I -0.0081 J 0.4021
G01 X 20.7344 Y 47.9089 Z -1.0000
M5
G4 P0.1

(Change tool to Cylindrical cutter)

M5
G4 P0.1
G00 X 45.4571 Y 40.2042

M3 S300
G03 X 42.5678 Y 40.1467 Z -1.0000 I 0.0000 J -72.5659 F 1000.0000
G02 X 39.6997 Y 40.3013 Z -1.0000 I -0.6112 J 15.3387
G02 X 39.2393 Y 40.4683 Z -1.0000 I 0.1810 J 1.2173
G03 X 38.7684 Y 40.6225 Z -1.0000 I -0.5621 J -0.9204
G02 X 37.6686 Y 40.7336 Z -1.0000 I 2.9413 J 34.6404
G03 X 36.8496 Y 39.9505 Z -1.0000 I -0.0855 J -0.7304
G03 X 37.6589 Y 39.2788 Z -1.0000 I 0.7267 J 0.0522
G02 X 38.6837 Y 39.3592 Z -1.0000 I 1.6451 J -14.4098
G03 X 39.2396 Y 39.5206 Z -1.0000 I -0.0522 J 1.2176
G02 X 39.7844 Y 39.6912 Z -1.0000 I 0.6561 J -1.1396
G02 X 41.9054 Y 39.7211 Z -1.0000 I 1.2711 J -14.9544
G03 X 44.0177 Y 39.6148 Z -1.0000 I 9.3478 J 164.8047
G02 X 45.0130 Y 39.4842 Z -1.0000 I -0.2537 J -5.7910
G03 X 45.9140 Y 39.7472 Z -1.0000 I 0.2104 J 0.9537
G03 X 46.0941 Y 40.2965 Z -1.0000 I -0.4528 J 0.4526
G02 X 46.0497 Y 40.8815 Z -1.0000 I 3.8332 J 0.5850
G03 X 45.9614 Y 42.4153 Z -1.0000 I -13.3535 J 0.0000
G02 X 46.0766 Y 43.9207 Z -1.0000 I 3.9392 J 0.4555
G02 X 46.4478 Y 44.5223 Z -1.0000 I 1.2127 J -0.3329
G03 X 46.6934 Y 45.2841 Z -1.0000 I -0.5336 J 0.5925
G03 X 46.0677 Y 45.9876 Z -1.0000 I -0.9374 J -0.2037
G03 X 45.1365 Y 45.8216 Z -1.0000 I -0.3163 J -0.9204
G03 X 44.8137 Y 45.3018 Z -1.0000 I 0.5941 J -0.7292
G03 X 44.8652 Y 44.6928 Z -1.0000 I 0.9802 J -0.2238
G03 X 45.1637 Y 44.3101 Z -1.0000 I 0.8424 J 0.3495
G02 X 45.4301 Y 43.9207 Z -1.0000 I -0.4316 J -0.5811
G02 X 45.5681 Y 42.0808 Z -1.0000 I -4.6357 J -1.2728
G03 X 45.4571 Y 40.2042 Z -1.0000 I 15.7977 J -1.8767
M5
G4 P0.1

(Change tool to Cylindrical cutter)

M5
G4 P0.1
G00 X 46.1344 Y 44.6915

M3 S300
G01 X 45.3724 Y 44.6915 Z -1.0000 F 1000.0000
G02 X 45.7746 Y 45.1839 Z -1.0000 I 0.3924 J 0.0899
G02 X 46.1344 Y 44.6915 Z -1.0000 I -0.0094 J -0.3845
M5
G4 P0.1

(Change tool to Cylindrical cutter)

M5
G4 P0.1
G00 X 30.3017 Y 44.6915

M3 S300
G01 X 30.3017 Y 45.4535 Z -1.0000 F 1000.0000
G02 X 30.6548 Y 45.0725 Z -1.0000 I -0.0290 J -0.3810
G02 X 30.3017 Y 44.6915 Z -1.0000 I -0.3821 J 0.0000
M5
G4 P0.1

(Change tool to Cylindrical cutter)

M5
G4 P0.1
G00 X 38.5144 Y 45.1995

M3 S300
G01 X 37.9217 Y 45.2842 Z -1.0000 F 1000.0000
G01 X 37.9217 Y 45.4536 Z -1.0000
G01 X 38.5144 Y 45.1996 Z -1.0000
M5
G4 P0.1

(Change tool to Cylindrical cutter)

M5
G4 P0.1
G00 X 20.0608 Y 43.9514

M3 S300
G03 X 19.6336 Y 43.3170 Z -1.0000 I 0.2570 J -0.6341 F 1000.0000
G02 X 19.6337 Y 42.5749 Z -1.0000 I -1818.0744 J -0.7421
G03 X 19.7860 Y 41.6828 Z -1.0000 I 2.6895 J -0.0000
G02 X 20.0305 Y 40.8739 Z -1.0000 I -8.9413 J -3.1439
G02 X 20.1302 Y 39.8266 Z -1.0000 I -3.3242 J -0.8449
G02 X 20.0521 Y 38.7652 Z -1.0000 I -36.8667 J 2.1801
G02 X 19.7298 Y 38.0542 Z -1.0000 I -1.1730 J 0.1032
G03 X 19.4838 Y 37.2410 Z -1.0000 I 0.6780 J -0.6489
G03 X 19.9120 Y 36.6423 Z -1.0000 I 0.8423 J 0.1499
G03 X 20.6496 Y 36.5795 Z -1.0000 I 0.4391 J 0.7939
G03 X 21.1521 Y 36.9614 Z -1.0000 I -0.3352 J 0.9625
G03 X 21.2945 Y 37.5796 Z -1.0000 I -0.7035 J 0.4876
G03 X 21.0186 Y 38.0801 Z -1.0000 I -0.8220 J -0.1269
G02 X 20.7008 Y 38.5253 Z -1.0000 I 0.7718 J 0.8869
G02 X 20.5680 Y 39.5182 Z -1.0000 I 1.8615 J 0.7543
G03 X 20.6513 Y 40.5429 Z -1.0000 I -13.4515 J 1.6096
G02 X 20.8245 Y 41.0725 Z -1.0000 I 1.0333 J -0.0448
G03 X 21.0703 Y 41.5589 Z -1.0000 I -1.8785 J 1.2546
G03 X 21.1996 Y 42.3566 Z -1.0000 I -2.0477 J 0.7411
G03 X 21.1430 Y 43.1676 Z -1.0000 I -9.3011 J -0.2419
G03 X 20.8103 Y 43.8176 Z -1.0000 I -1.0313 J -0.1176
G03 X 20.0608 Y 43.9514 Z -1.0000 I -0.4811 J -0.5286
M5
G4 P0.1

(Change tool to Cylindrical cutter)

M5
G4 P0.1
G00 X 23.6977 Y 42.2362

M3 S300
G03 X 26.2826 Y 42.2865 Z -1.0000 I -0.0000 J 66.5208 F 1000.0000
G02 X 28.8624 Y 42.2312 Z -1.0000 I 0.8322 J -21.3997
G02 X 29.4096 Y 42.0642 Z -1.0000 I -0.1092 J -1.3380
G03 X 29.9630 Y 41.9012 Z -1.0000 I 0.6338 J 1.1307
G02 X 31.0217 Y 41.8140 Z -1.0000 I -1.6453 J -26.4468
G03 X 31.8082 Y 42.5747 Z -1.0000 I 0.0730 J 0.7114
G03 X 30.9991 Y 43.2520 Z -1.0000 I -0.7302 J -0.0505
G02 X 29.9630 Y 43.1637 Z -1.0000 I -2.4406 J 22.5349
G03 X 29.4096 Y 43.0007 Z -1.0000 I 0.0805 J -1.2941
G02 X 28.8624 Y 42.8337 Z -1.0000 I -0.6566 J 1.1714
G02 X 26.2827 Y 42.7785 Z -1.0000 I -1.7476 J 21.3601
G03 X 23.6977 Y 42.8287 Z -1.0000 I -2.5849 J -66.5209
G03 X 23.3807 Y 43.7412 Z -1.0000 I -1.5650 J -0.0324
G03 X 22.3212 Y 43.7407 Z -1.0000 I -0.5296 J -0.4009
G03 X 22.1020 Y 42.8856 Z -1.0000 I 0.9126 J -0.6896
G02 X 22.1741 Y 41.9820 Z -1.0000 I -6.8413 J -1.0004
G03 X 22.5170 Y 41.2292 Z -1.0000 I 1.0291 J 0.0142
G03 X 23.4181 Y 41.2470 Z -1.0000 I 0.4409 J 0.4930
G03 X 23.6569 Y 41.7184 Z -1.0000 I -0.5633 J 0.5816
G03 X 23.6977 Y 42.2360 Z -1.0000 I -4.4415 J 0.6103
M5
G4 P0.1

(Change tool to Cylindrical cutter)

M5
G4 P0.1
G00 X 20.7344 Y 42.1513

M3 S300
G01 X 19.9724 Y 42.1513 Z -1.0000 F 1000.0000
G02 X 20.4012 Y 42.6610 Z -1.0000 I 0.4065 J 0.0932
G02 X 20.7344 Y 42.1513 Z -1.0000 I -0.0201 J -0.3769
M5
G4 P0.1

(Change tool to Cylindrical cutter)

M5
G4 P0.1
G00 X 23.2744 Y 42.9133

M3 S300
G01 X 23.2744 Y 42.1513 Z -1.0000 F 1000.0000
G02 X 22.7688 Y 42.5323 Z -1.0000 I -0.1092 J 0.3810
G02 X 23.2744 Y 42.9133 Z -1.0000 I 0.3964 J 0.0000
M5
G4 P0.1

(Change tool to Cylindrical cutter)

M5
G4 P0.1
G00 X 18.1944 Y 42.9133

M3 S300
G01 X 18.1944 Y 42.1513 Z -1.0000 F 1000.0000
G01 X 17.4324 Y 42.1513 Z -1.0000
G01 X 17.4324 Y 42.9133 Z -1.0000
G01 X 18.1944 Y 42.9133 Z -1.0000
M5
G4 P0.1

(Change tool to Cylindrical cutter)

M5
G4 P0.1
G00 X 30.3017 Y 42.1513

M3 S300
G01 X 30.3017 Y 42.9133 Z -1.0000 F 1000.0000
G02 X 30.6548 Y 42.5323 Z -1.0000 I -0.0291 J -0.3810
G02 X 30.3017 Y 42.1513 Z -1.0000 I -0.3821 J -0.0000
M5
G4 P0.1

(Change tool to Cylindrical cutter)

M5
G4 P0.1
G00 X 38.5144 Y 42.4053

M3 S300
G02 X 38.1998 Y 42.2296 Z -1.0000 I -0.4567 J 0.4483 F 1000.0000
G02 X 37.8370 Y 42.2360 Z -1.0000 I -0.1685 J 0.7397
G01 X 38.5144 Y 42.4053 Z -1.0000
M5
G4 P0.1

(Change tool to Cylindrical cutter)

M5
G4 P0.1
G00 X 29.6281 Y 40.5645

M3 S300
G03 X 29.2348 Y 40.1718 Z -1.0000 I 0.2707 J -0.6645 F 1000.0000
G02 X 28.8575 Y 39.7637 Z -1.0000 I -0.7346 J 0.3007
G02 X 26.7752 Y 38.9779 Z -1.0000 I -4.7363 J 9.3981
G03 X 24.6290 Y 38.3413 Z -1.0000 I 8.4504 J -32.4267
G02 X 23.5651 Y 38.1162 Z -1.0000 I -1.5223 J 4.5670
G03 X 22.6841 Y 37.6163 Z -1.0000 I 0.1181 J -1.2345
G03 X 22.4969 Y 36.7421 Z -1.0000 I 0.8772 J -0.6450
G02 X 22.5970 Y 35.8013 Z -1.0000 I -4.3675 J -0.9407
G02 X 22.3541 Y 33.7232 Z -1.0000 I -9.0079 J -0.0000
G03 X 22.1774 Y 31.6527 Z -1.0000 I 6.8703 J -1.6289
G03 X 22.4604 Y 31.0783 Z -1.0000 I 0.8298 J 0.0519
G03 X 23.1046 Y 30.9277 Z -1.0000 I 0.4638 J 0.5313
G03 X 23.6904 Y 31.6724 Z -1.0000 I -0.2012 J 0.7610
G03 X 23.6976 Y 32.5840 Z -1.0000 I -35.6107 J 0.7396
G03 X 23.4947 Y 33.3825 Z -1.0000 I -1.7039 J -0.0080
G02 X 23.2166 Y 34.1080 Z -1.0000 I 2.7041 J 1.4528
G02 X 23.1474 Y 35.0337 Z -1.0000 I 2.7509 J 0.6708
G03 X 23.1897 Y 35.9707 Z -1.0000 I -10.3659 J 0.9370
G03 X 23.1422 Y 36.5951 Z -1.0000 I -4.1248 J 0.0000
G02 X 23.3254 Y 37.1812 Z -1.0000 I 0.6906 J 0.1058
G02 X 24.2514 Y 37.6646 Z -1.0000 I 1.1652 J -1.1034
G03 X 25.3064 Y 37.9180 Z -1.0000 I -0.9407 J 6.2397
G03 X 27.4067 Y 38.6765 Z -1.0000 I -14.2163 J 42.6514
G02 X 29.5397 Y 39.3135 Z -1.0000 I 4.9787 J -12.7828
G02 X 30.4819 Y 39.3245 Z -1.0000 I 0.4986 J -2.3505
G03 X 31.4008 Y 39.4084 Z -1.0000 I 0.3117 J 1.6595
G03 X 31.8026 Y 39.9468 Z -1.0000 I -0.2268 J 0.5884
G03 X 31.4820 Y 40.5403 Z -1.0000 I -0.6186 J 0.0492
G03 X 30.5633 Y 40.7615 Z -1.0000 I -0.8673 J -1.5833
G03 X 29.6281 Y 40.5645 Z -1.0000 I 0.0766 J -2.6812
M5
G4 P0.1

(Change tool to Cylindrical cutter)

M5
G4 P0.1
G00 X 30.3864 Y 39.6113

M3 S300
G01 X 30.2170 Y 40.2886 Z -1.0000 F 1000.0000
G02 X 30.6604 Y 40.0274 Z -1.0000 I 0.0924 J -0.3500
G02 X 30.3864 Y 39.6113 Z -1.0000 I -0.3272 J -0.0828
M5
G4 P0.1

(Change tool to Cylindrical cutter)

M5
G4 P0.1
G00 X 38.4297 Y 40.2886

M3 S300
G01 X 38.4297 Y 39.6960 Z -1.0000 F 1000.0000
G02 X 38.0450 Y 39.9923 Z -1.0000 I -0.0782 J 0.2963
G02 X 38.4297 Y 40.2886 Z -1.0000 I 0.3065 J 0.0000
M5
G4 P0.1

(Change tool to Cylindrical cutter)

M5
G4 P0.1
G00 X 29.2857 Y 37.1560

M3 S300
G01 X 26.4070 Y 35.7376 Z -1.0000 F 1000.0000
G01 X 25.3087 Y 35.1007 Z -1.0000
G01 X 25.2217 Y 34.1080 Z -1.0000
G01 X 25.2217 Y 31.6527 Z -1.0000
G01 X 25.2217 Y 22.5086 Z -1.0000
G01 X 23.6977 Y 22.5086 Z -1.0000
G03 X 23.3807 Y 23.4212 Z -1.0000 I -1.5650 J -0.0324
G03 X 22.3212 Y 23.4207 Z -1.0000 I -0.5296 J -0.4009
G03 X 22.1020 Y 22.5656 Z -1.0000 I 0.9126 J -0.6896
G02 X 22.1740 Y 21.6620 Z -1.0000 I -6.8413 J -1.0004
G03 X 22.9846 Y 21.0314 Z -1.0000 I 0.6577 J 0.0092
G03 X 23.6977 Y 21.9160 Z -1.0000 I -0.2160 J 0.9038
G02 X 24.7903 Y 21.7563 Z -1.0000 I 0.0000 J -3.8186
G03 X 25.7273 Y 22.0517 Z -1.0000 I 0.2506 J 0.8391
G03 X 25.9930 Y 23.3105 Z -1.0000 I -1.1316 J 0.8962
G02 X 25.8144 Y 24.7100 Z -1.0000 I 5.3934 J 1.3995
G01 X 25.8144 Y 31.9913 Z -1.0000
G03 X 25.6682 Y 33.3777 Z -1.0000 I -6.6473 J 0.0000
G02 X 25.9014 Y 34.6676 Z -1.0000 I 1.6901 J 0.3604
G02 X 26.4380 Y 35.0958 Z -1.0000 I 0.8945 J -0.5706
G03 X 27.0844 Y 35.3638 Z -1.0000 I -2.4120 J 6.7306
G03 X 28.5002 Y 36.1259 Z -1.0000 I -6.6614 J 14.0728
G02 X 29.9630 Y 36.7634 Z -1.0000 I 3.0881 J -5.0890
G02 X 30.8917 Y 36.7826 Z -1.0000 I 0.5010 J -1.7657
G03 X 31.7386 Y 37.1610 Z -1.0000 I 0.1773 J 0.7400
G03 X 30.8671 Y 38.9205 Z -1.0000 I -1.0580 J 0.5715
G03 X 29.2857 Y 37.1560 Z -1.0000 I -0.2189 J -1.3946
M5
G4 P0.1

(Change tool to Cylindrical cutter)

M5
G4 P0.1
G00 X 42.9170 Y 37.1560

M3 S300
G03 X 42.9732 Y 31.9053 Z -1.0000 I 245.7151 J 0.0000 F 1000.0000
G02 X 42.9154 Y 26.6577 Z -1.0000 I -81.0634 J -1.7327
G02 X 42.7668 Y 26.2109 Z -1.0000 I -0.8579 J 0.0374
G03 X 42.5562 Y 25.8073 Z -1.0000 I 1.5977 J -1.0905
G03 X 42.2394 Y 24.4561 Z -1.0000 I 4.8999 J -1.8616
G03 X 42.9208 Y 23.3336 Z -1.0000 I 1.0897 J -0.1066
G03 X 44.1017 Y 24.1351 Z -1.0000 I 0.3208 J 0.7981
G03 X 43.9919 Y 25.4720 Z -1.0000 I -8.6165 J -0.0346
G03 X 43.7534 Y 26.0281 Z -1.0000 I -1.2297 J -0.1982
G02 X 43.5222 Y 26.5726 Z -1.0000 I 0.9546 J 0.7265
G02 X 43.3822 Y 30.0741 Z -1.0000 I 15.4522 J 2.3718
G03 X 43.5097 Y 33.6000 Z -1.0000 I -48.6657 J 3.5259
G01 X 43.5097 Y 36.3093 Z -1.0000
G02 X 43.5616 Y 36.9059 Z -1.0000 I 3.4567 J 0.0000
G03 X 43.5171 Y 37.4821 Z -1.0000 I -1.1483 J 0.2012
G03 X 42.8165 Y 37.8573 Z -1.0000 I -0.5510 J -0.1872
G02 X 41.9857 Y 37.7486 Z -1.0000 I -0.8308 J 3.1219
G03 X 40.8396 Y 37.7127 Z -1.0000 I -0.0000 J -18.2786
G02 X 39.6997 Y 37.7612 Z -1.0000 I -0.3405 J 5.4208
G02 X 38.9641 Y 37.9480 Z -1.0000 I 0.5522 J 3.7152
G03 X 38.1757 Y 38.0874 Z -1.0000 I -0.7885 J -2.1604
G03 X 37.4772 Y 38.0801 Z -1.0000 I 0.0000 J -33.5734
G03 X 36.8852 Y 37.6603 Z -1.0000 I 0.0134 J -0.6463
G03 X 37.3571 Y 36.8722 Z -1.0000 I 0.5502 J -0.2059
G03 X 38.1757 Y 36.8174 Z -1.0000 I 0.8186 J 6.0840
G03 X 38.9641 Y 36.9567 Z -1.0000 I 0.0000 J 2.3000
G02 X 39.6997 Y 37.1436 Z -1.0000 I 1.2883 J -3.5303
G02 X 41.3035 Y 37.2091 Z -1.0000 I 1.1079 J -7.4537
G03 X 42.9170 Y 37.1560 Z -1.0000 I 1.6135 J 24.4634
M5
G4 P0.1

(Change tool to Cylindrical cutter)

M5
G4 P0.1
G00 X 30.3863 Y 37.0713

M3 S300
G01 X 30.1323 Y 37.5793 Z -1.0000 F 1000.0000
G02 X 30.6066 Y 37.5078 Z -1.0000 I 0.2112 J -0.2078
G02 X 30.3863 Y 37.0713 Z -1.0000 I -0.2677 J -0.1387
M5
G4 P0.1

(Change tool to Cylindrical cutter)

M5
G4 P0.1
G00 X 38.4297 Y 37.7486

M3 S300
G01 X 38.4297 Y 37.1559 Z -1.0000 F 1000.0000
G02 X 38.0449 Y 37.4523 Z -1.0000 I -0.0782 J 0.2963
G02 X 38.4297 Y 37.7486 Z -1.0000 I 0.3065 J 0.0000
M5
G4 P0.1

(Change tool to Cylindrical cutter)

M5
G4 P0.1
G00 X 10.5743 Y 37.7486

M3 S300
G01 X 10.5743 Y 37.1559 Z -1.0000 F 1000.0000
G01 X 9.8124 Y 37.1559 Z -1.0000
G01 X 9.8124 Y 37.7486 Z -1.0000
G01 X 10.5744 Y 37.7486 Z -1.0000
M5
G4 P0.1

(Change tool to Cylindrical cutter)

M5
G4 P0.1
G00 X 20.7344 Y 37.7486

M3 S300
G02 X 20.3793 Y 37.2739 Z -1.0000 I -0.3658 J -0.0965 F 1000.0000
G02 X 19.9724 Y 37.7486 Z -1.0000 I -0.0114 J 0.4020
G01 X 20.7344 Y 37.7486 Z -1.0000
M5
G4 P0.1

(Change tool to Cylindrical cutter)

M5
G4 P0.1
G00 X 30.2171 Y 34.2773

M3 S300
G01 X 30.2171 Y 12.3486 Z -1.0000 F 1000.0000
G01 X 23.6977 Y 12.3486 Z -1.0000
G03 X 23.3807 Y 13.2611 Z -1.0000 I -1.5650 J -0.0324
G03 X 22.3212 Y 13.2607 Z -1.0000 I -0.5296 J -0.4009
G03 X 22.1020 Y 12.4055 Z -1.0000 I 0.9126 J -0.6896
G02 X 22.1741 Y 11.5020 Z -1.0000 I -6.8413 J -1.0004
G03 X 22.9846 Y 10.8714 Z -1.0000 I 0.6577 J 0.0092
G03 X 23.6977 Y 11.7560 Z -1.0000 I -0.2160 J 0.9038
G01 X 28.8624 Y 11.7560 Z -1.0000
G01 X 30.6740 Y 11.8917 Z -1.0000
G01 X 30.8097 Y 13.3646 Z -1.0000
G01 X 30.8097 Y 17.5980 Z -1.0000
G01 X 30.8097 Y 34.2773 Z -1.0000
G03 X 31.4849 Y 34.8955 Z -1.0000 I -0.0023 J 0.6804
G03 X 30.8944 Y 35.5472 Z -1.0000 I -0.5947 J 0.0545
G02 X 30.1679 Y 35.5903 Z -1.0000 I 0.0507 J 7.0041
G03 X 29.4744 Y 35.3998 Z -1.0000 I -0.1078 J -0.9653
G03 X 29.4705 Y 34.5353 Z -1.0000 I 0.3280 J -0.4337
G03 X 30.2171 Y 34.2773 Z -1.0000 I 0.7578 J 0.9837
M5
G4 P0.1

(Change tool to Cylindrical cutter)

M5
G4 P0.1
G00 X 30.8944 Y 34.7006

M3 S300
G01 X 30.2171 Y 34.6159 Z -1.0000 F 1000.0000
G02 X 30.4936 Y 35.0269 Z -1.0000 I 0.3186 J 0.0841
G02 X 30.8944 Y 34.7006 Z -1.0000 I 0.0455 J -0.3534
M5
G4 P0.1

(Change tool to Cylindrical cutter)

M5
G4 P0.1
G00 X 38.5144 Y 34.7006

M3 S300
G01 X 38.0064 Y 34.7853 Z -1.0000 F 1000.0000
G01 X 37.9217 Y 35.2933 Z -1.0000
G02 X 38.3278 Y 35.1067 Z -1.0000 I -0.0490 J -0.6416
G02 X 38.5144 Y 34.7007 Z -1.0000 I -0.4550 J -0.4550
M5
G4 P0.1

(Change tool to Cylindrical cutter)

M5
G4 P0.1
G00 X 20.0608 Y 33.7912

M3 S300
G03 X 19.6336 Y 33.1568 Z -1.0000 I 0.2570 J -0.6341 F 1000.0000
G02 X 19.6337 Y 32.4147 Z -1.0000 I -1818.0744 J -0.7421
G03 X 19.7860 Y 31.5225 Z -1.0000 I 2.6894 J 0.0000
G02 X 20.0305 Y 30.7138 Z -1.0000 I -8.9419 J -3.1443
G02 X 20.1302 Y 29.6663 Z -1.0000 I -3.3249 J -0.8450
G02 X 20.0521 Y 28.6050 Z -1.0000 I -36.8603 J 2.1796
G02 X 19.7298 Y 27.8940 Z -1.0000 I -1.1730 J 0.1032
G03 X 19.4838 Y 27.0807 Z -1.0000 I 0.6780 J -0.6489
G03 X 19.9120 Y 26.4820 Z -1.0000 I 0.8423 J 0.1499
G03 X 20.6496 Y 26.4192 Z -1.0000 I 0.4391 J 0.7939
G03 X 21.1512 Y 26.8028 Z -1.0000 I -0.3324 J 0.9543
G03 X 21.2949 Y 27.4192 Z -1.0000 I -0.7201 J 0.4928
G03 X 21.0171 Y 27.9256 Z -1.0000 I -0.8124 J -0.1163
G02 X 20.7005 Y 28.3662 Z -1.0000 I 0.7481 J 0.8714
G02 X 20.5680 Y 29.3586 Z -1.0000 I 1.8608 J 0.7535
G03 X 20.6513 Y 30.3827 Z -1.0000 I -13.3971 J 1.6053
G02 X 20.8246 Y 30.9123 Z -1.0000 I 1.0333 J -0.0448
G03 X 21.0704 Y 31.3986 Z -1.0000 I -1.8785 J 1.2546
G03 X 21.1996 Y 32.1964 Z -1.0000 I -2.0477 J 0.7411
G03 X 21.1430 Y 33.0073 Z -1.0000 I -9.3011 J -0.2419
G03 X 20.8103 Y 33.6574 Z -1.0000 I -1.0313 J -0.1176
G03 X 20.0608 Y 33.7912 Z -1.0000 I -0.4811 J -0.5286
M5
G4 P0.1

(Change tool to Cylindrical cutter)

M5
G4 P0.1
G00 X 20.7344 Y 31.9913

M3 S300
G01 X 19.9724 Y 31.9913 Z -1.0000 F 1000.0000
G02 X 20.4012 Y 32.5010 Z -1.0000 I 0.4065 J 0.0932
G02 X 20.7344 Y 31.9913 Z -1.0000 I -0.0201 J -0.3769
M5
G4 P0.1

(Change tool to Cylindrical cutter)

M5
G4 P0.1
G00 X 18.1944 Y 32.7533

M3 S300
G01 X 18.1944 Y 31.9913 Z -1.0000 F 1000.0000
G01 X 17.4324 Y 31.9913 Z -1.0000
G01 X 17.4324 Y 32.7533 Z -1.0000
G01 X 18.1944 Y 32.7533 Z -1.0000
M5
G4 P0.1

(Change tool to Cylindrical cutter)

M5
G4 P0.1
G00 X 23.2744 Y 32.7533

M3 S300
G02 X 22.9412 Y 32.2437 Z -1.0000 I -0.3534 J -0.1327 F 1000.0000
G02 X 22.5124 Y 32.7533 Z -1.0000 I -0.0223 J 0.4165
G01 X 23.2744 Y 32.7533 Z -1.0000
M5
G4 P0.1

(Change tool to Cylindrical cutter)

M5
G4 P0.1
G00 X 10.5744 Y 27.5887

M3 S300
G01 X 10.5744 Y 26.9960 Z -1.0000 F 1000.0000
G01 X 9.8124 Y 26.9960 Z -1.0000
G01 X 9.8124 Y 27.5887 Z -1.0000
G01 X 10.5744 Y 27.5887 Z -1.0000
M5
G4 P0.1

(Change tool to Cylindrical cutter)

M5
G4 P0.1
G00 X 20.7344 Y 27.5887

M3 S300
G02 X 20.3793 Y 27.1139 Z -1.0000 I -0.3658 J -0.0965 F 1000.0000
G02 X 19.9724 Y 27.5887 Z -1.0000 I -0.0114 J 0.4020
G01 X 20.7344 Y 27.5887 Z -1.0000
M5
G4 P0.1

(Change tool to Cylindrical cutter)

M5
G4 P0.1
G00 X 40.3808 Y 26.1712

M3 S300
G03 X 39.9536 Y 25.5368 Z -1.0000 I 0.2570 J -0.6341 F 1000.0000
G02 X 39.9537 Y 24.7947 Z -1.0000 I -1818.0744 J -0.7421
G03 X 40.1060 Y 23.9025 Z -1.0000 I 2.6894 J 0.0000
G02 X 40.3505 Y 23.0938 Z -1.0000 I -8.9419 J -3.1443
G02 X 40.4502 Y 22.0462 Z -1.0000 I -3.3256 J -0.8450
G02 X 40.3721 Y 20.9850 Z -1.0000 I -36.8515 J 2.1789
G02 X 40.0498 Y 20.2740 Z -1.0000 I -1.1730 J 0.1032
G03 X 39.8038 Y 19.4607 Z -1.0000 I 0.6780 J -0.6489
G03 X 40.2384 Y 18.8694 Z -1.0000 I 0.8176 J 0.1455
G03 X 40.9696 Y 18.8090 Z -1.0000 I 0.4377 J 0.8420
G03 X 41.4730 Y 19.1839 Z -1.0000 I -0.3036 J 0.9331
G03 X 41.6146 Y 19.7993 Z -1.0000 I -0.7016 J 0.4853
G03 X 41.3386 Y 20.2998 Z -1.0000 I -0.8220 J -0.1269
G02 X 41.0208 Y 20.7450 Z -1.0000 I 0.7718 J 0.8869
G02 X 40.8880 Y 21.7379 Z -1.0000 I 1.8615 J 0.7543
G03 X 40.9713 Y 22.7627 Z -1.0000 I -13.4591 J 1.6104
G02 X 41.1446 Y 23.2923 Z -1.0000 I 1.0333 J -0.0448
G03 X 41.3904 Y 23.7786 Z -1.0000 I -1.8785 J 1.2546
G03 X 41.5196 Y 24.5764 Z -1.0000 I -2.0477 J 0.7411
G03 X 41.4630 Y 25.3873 Z -1.0000 I -9.3010 J -0.2419
G03 X 41.1303 Y 26.0374 Z -1.0000 I -1.0313 J -0.1176
G03 X 40.3808 Y 26.1712 Z -1.0000 I -0.4811 J -0.5286
M5
G4 P0.1

(Change tool to Cylindrical cutter)

M5
G4 P0.1
G00 X 41.0544 Y 24.3713

M3 S300
G01 X 40.2924 Y 24.3713 Z -1.0000 F 1000.0000
G02 X 40.6947 Y 24.8636 Z -1.0000 I 0.3924 J 0.0899
G02 X 41.0544 Y 24.3713 Z -1.0000 I -0.0095 J -0.3845
M5
G4 P0.1

(Change tool to Cylindrical cutter)

M5
G4 P0.1
G00 X 38.5144 Y 25.1333

M3 S300
G02 X 38.1517 Y 24.6408 Z -1.0000 I -0.3693 J -0.1079 F 1000.0000
G02 X 37.7524 Y 25.1333 Z -1.0000 I -0.0068 J 0.4026
G01 X 38.5144 Y 25.1333 Z -1.0000
M5
G4 P0.1

(Change tool to Cylindrical cutter)

M5
G4 P0.1
G00 X 43.5944 Y 25.1333

M3 S300
G02 X 43.2317 Y 24.6408 Z -1.0000 I -0.3693 J -0.1079 F 1000.0000
G02 X 42.8324 Y 25.1333 Z -1.0000 I -0.0068 J 0.4026
G01 X 43.5944 Y 25.1333 Z -1.0000
M5
G4 P0.1

(Change tool to Cylindrical cutter)

M5
G4 P0.1
G00 X 20.0608 Y 23.6312

M3 S300
G03 X 19.6336 Y 22.9968 Z -1.0000 I 0.2570 J -0.6341 F 1000.0000
G02 X 19.6337 Y 22.2547 Z -1.0000 I -1818.0744 J -0.7421
G03 X 19.7860 Y 21.3625 Z -1.0000 I 2.6894 J 0.0000
G02 X 20.0305 Y 20.5538 Z -1.0000 I -8.9419 J -3.1443
G02 X 20.1302 Y 19.5063 Z -1.0000 I -3.3249 J -0.8450
G02 X 20.0521 Y 18.4450 Z -1.0000 I -36.8603 J 2.1796
G02 X 19.7298 Y 17.7340 Z -1.0000 I -1.1730 J 0.1032
G03 X 19.4838 Y 16.9207 Z -1.0000 I 0.6780 J -0.6489
G03 X 19.9184 Y 16.3294 Z -1.0000 I 0.8176 J 0.1455
G03 X 20.6496 Y 16.2690 Z -1.0000 I 0.4377 J 0.8420
G03 X 21.1522 Y 16.6455 Z -1.0000 I -0.3010 J 0.9252
G03 X 21.2949 Y 17.2592 Z -1.0000 I -0.7183 J 0.4905
G03 X 21.0171 Y 17.7656 Z -1.0000 I -0.8124 J -0.1163
G02 X 20.7005 Y 18.2062 Z -1.0000 I 0.7481 J 0.8714
G02 X 20.5680 Y 19.1986 Z -1.0000 I 1.8608 J 0.7535
G03 X 20.6513 Y 20.2227 Z -1.0000 I -13.3971 J 1.6053
G02 X 20.8246 Y 20.7523 Z -1.0000 I 1.0333 J -0.0448
G03 X 21.0704 Y 21.2386 Z -1.0000 I -1.8785 J 1.2546
G03 X 21.1996 Y 22.0364 Z -1.0000 I -2.0477 J 0.7411
G03 X 21.1430 Y 22.8473 Z -1.0000 I -9.3011 J -0.2419
G03 X 20.8103 Y 23.4974 Z -1.0000 I -1.0313 J -0.1176
G03 X 20.0608 Y 23.6312 Z -1.0000 I -0.4811 J -0.5286
M5
G4 P0.1

(Change tool to Cylindrical cutter)

M5
G4 P0.1
G00 X 20.7344 Y 21.8313

M3 S300
G01 X 19.9724 Y 21.8313 Z -1.0000 F 1000.0000
G02 X 20.4012 Y 22.3410 Z -1.0000 I 0.4065 J 0.0932
G02 X 20.7344 Y 21.8313 Z -1.0000 I -0.0201 J -0.3769
M5
G4 P0.1

(Change tool to Cylindrical cutter)

M5
G4 P0.1
G00 X 23.2744 Y 22.5933

M3 S300
G01 X 23.2744 Y 21.8313 Z -1.0000 F 1000.0000
G02 X 22.7688 Y 22.2123 Z -1.0000 I -0.1092 J 0.3810
G02 X 23.2744 Y 22.5933 Z -1.0000 I 0.3964 J 0.0000
M5
G4 P0.1

(Change tool to Cylindrical cutter)

M5
G4 P0.1
G00 X 18.1944 Y 22.5933

M3 S300
G01 X 18.1944 Y 21.8313 Z -1.0000 F 1000.0000
G01 X 17.4324 Y 21.8313 Z -1.0000
G01 X 17.4324 Y 22.5933 Z -1.0000
G01 X 18.1944 Y 22.5933 Z -1.0000
M5
G4 P0.1

(Change tool to Cylindrical cutter)

M5
G4 P0.1
G00 X 41.0544 Y 19.9687

M3 S300
G02 X 40.6993 Y 19.4939 Z -1.0000 I -0.3658 J -0.0965 F 1000.0000
G02 X 40.2924 Y 19.9687 Z -1.0000 I -0.0114 J 0.4020
G01 X 41.0544 Y 19.9687 Z -1.0000
M5
G4 P0.1

(Change tool to Cylindrical cutter)

M5
G4 P0.1
G00 X 10.5744 Y 17.4287

M3 S300
G01 X 10.5744 Y 16.8360 Z -1.0000 F 1000.0000
G01 X 9.8124 Y 16.8360 Z -1.0000
G01 X 9.8124 Y 17.4287 Z -1.0000
G01 X 10.5744 Y 17.4287 Z -1.0000
M5
G4 P0.1

(Change tool to Cylindrical cutter)

M5
G4 P0.1
G00 X 20.7344 Y 17.4287

M3 S300
G02 X 20.3793 Y 16.9539 Z -1.0000 I -0.3658 J -0.0965 F 1000.0000
G02 X 19.9724 Y 17.4287 Z -1.0000 I -0.0114 J 0.4020
G01 X 20.7344 Y 17.4287 Z -1.0000
M5
G4 P0.1

(Change tool to Cylindrical cutter)

M5
G4 P0.1
G00 X 20.0608 Y 13.4712

M3 S300
G03 X 19.6336 Y 12.8368 Z -1.0000 I 0.2570 J -0.6341 F 1000.0000
G02 X 19.6337 Y 12.0946 Z -1.0000 I -1818.0744 J -0.7421
G03 X 19.7860 Y 11.2025 Z -1.0000 I 2.6894 J -0.0000
G02 X 20.0305 Y 10.3938 Z -1.0000 I -8.9419 J -3.1443
G02 X 20.1302 Y 9.3463 Z -1.0000 I -3.3249 J -0.8450
G02 X 20.0521 Y 8.2850 Z -1.0000 I -36.8603 J 2.1796
G02 X 19.7183 Y 7.5445 Z -1.0000 I -1.2281 J 0.1080
G03 X 19.5011 Y 6.6763 Z -1.0000 I 0.6600 J -0.6263
G03 X 19.9996 Y 6.1375 Z -1.0000 I 0.7699 J 0.2123
G03 X 20.7340 Y 6.1461 Z -1.0000 I 0.3556 J 0.9842
G03 X 21.2012 Y 6.5637 Z -1.0000 I -0.3230 J 0.8316
G03 X 21.2785 Y 7.1837 Z -1.0000 I -0.7885 J 0.4131
G03 X 20.9449 Y 7.7264 Z -1.0000 I -0.9943 J -0.2373
G02 X 20.6547 Y 8.2859 Z -1.0000 I 0.5360 J 0.6330
G02 X 20.5822 Y 9.3072 Z -1.0000 I 28.4576 J 2.5328
G02 X 20.6766 Y 10.3166 Z -1.0000 I 3.4773 J 0.1842
G02 X 21.0020 Y 11.4427 Z -1.0000 I 13.5457 J -3.3045
G03 X 21.1498 Y 12.6873 Z -1.0000 I -2.9163 J 0.9774
G03 X 20.8154 Y 13.3448 Z -1.0000 I -0.9820 J -0.0857
G03 X 20.0608 Y 13.4712 Z -1.0000 I -0.4802 J -0.5509
M5
G4 P0.1

(Change tool to Cylindrical cutter)

M5
G4 P0.1
G00 X 20.7344 Y 11.6713

M3 S300
G01 X 20.1417 Y 11.6713 Z -1.0000 F 1000.0000
G02 X 20.3012 Y 12.1899 Z -1.0000 I 0.2143 J 0.2179
G02 X 20.7344 Y 11.6713 Z -1.0000 I 0.0697 J -0.3820
M5
G4 P0.1

(Change tool to Cylindrical cutter)

M5
G4 P0.1
G00 X 23.2744 Y 12.4333

M3 S300
G01 X 23.2744 Y 11.6713 Z -1.0000 F 1000.0000
G02 X 22.7675 Y 12.0513 Z -1.0000 I -0.1095 J 0.3820
G02 X 23.2744 Y 12.4333 Z -1.0000 I 0.3959 J 0.0020
M5
G4 P0.1

(Change tool to Cylindrical cutter)

M5
G4 P0.1
G00 X 18.1944 Y 12.4333

M3 S300
G02 X 17.8523 Y 11.9234 Z -1.0000 I -0.3533 J -0.1327 F 1000.0000
G02 X 17.4324 Y 12.4333 Z -1.0000 I -0.0124 J 0.4177
G01 X 18.1944 Y 12.4333 Z -1.0000
M5
G4 P0.1

(Change tool to Cylindrical cutter)

M5
G4 P0.1
G00 X 41.0544 Y 9.2160

M3 S300
G01 X 40.2924 Y 9.2160 Z -1.0000 F 1000.0000
G02 X 40.6960 Y 9.6908 Z -1.0000 I 0.3955 J 0.0727
G02 X 41.0544 Y 9.2160 Z -1.0000 I -0.0076 J -0.3784
M5
G4 P0.1

(Change tool to Cylindrical cutter)

M5
G4 P0.1
G00 X 10.5744 Y 7.2687

M3 S300
G01 X 10.5744 Y 6.6760 Z -1.0000 F 1000.0000
G01 X 9.8124 Y 6.6760 Z -1.0000
G01 X 9.8124 Y 7.2687 Z -1.0000
G01 X 10.5744 Y 7.2687 Z -1.0000
M5
G4 P0.1

(Change tool to Cylindrical cutter)

M5
G4 P0.1
G00 X 20.7344 Y 7.2687

M3 S300
G02 X 20.3793 Y 6.7939 Z -1.0000 I -0.3658 J -0.0965 F 1000.0000
G02 X 19.9724 Y 7.2687 Z -1.0000 I -0.0114 J 0.4020
G01 X 20.7344 Y 7.2687 Z -1.0000
M5
G4 P0.1

(End cutting path id: path854)


(Pass at depth -2.0)


(Footer)
M5
G4 P0.1
G00 X0.0000 Y0.0000
M2
(Using default footer. To add your own footer create file "footer" in the output dir.)
(end)
%
