%
(Header)
(Generated by gcodetools from Inkscape.)
(Using default header. To add your own header create file "header" in the output dir.)
M3
(Header end.)
G21 (All units in mm)

(Pass at depth -1.0)
(Start cutting path id: path916-2-3-9)
(Change tool to Cylindrical cutter)

M5
G4 P0.1
G00 X 46.4560 Y 66.8553

M3 S300
G01 X 87.0960 Y 66.8553 Z -1.0000 F 1000.0000
G01 X 87.0960 Y 128.6620 Z -1.0000
G01 X 46.4560 Y 128.6620 Z -1.0000
G01 X 46.4560 Y 66.8553 Z -1.0000
M5
G4 P0.1

(Change tool to Cylindrical cutter)

M5
G4 P0.1
G00 X 46.6253 Y 128.4927

M3 S300
G01 X 86.9267 Y 128.4927 Z -1.0000 F 1000.0000
G01 X 86.9267 Y 67.0247 Z -1.0000
G01 X 46.6253 Y 67.0247 Z -1.0000
G01 X 46.6253 Y 128.4927 Z -1.0000
M5
G4 P0.1

(Change tool to Cylindrical cutter)

M5
G4 P0.1
G00 X 53.7373 Y 87.6833

M3 S300
G01 X 53.7373 Y 97.2507 Z -1.0000 F 1000.0000
G03 X 54.3293 Y 97.2824 Z -1.0000 I 0.0000 J 5.5374
G02 X 54.9071 Y 97.1996 Z -1.0000 I 0.1263 J -1.1750
G02 X 55.3780 Y 96.8618 Z -1.0000 I -0.4837 J -1.1717
G03 X 55.9387 Y 96.5834 Z -1.0000 I 0.6170 J 0.5390
G03 X 56.8874 Y 97.1384 Z -1.0000 I 0.0671 J 0.9736
G03 X 56.6814 Y 98.2332 Z -1.0000 I -0.8549 J 0.4059
G03 X 55.5951 Y 98.2520 Z -1.0000 I -0.5534 J -0.5876
G02 X 54.7521 Y 97.8558 Z -1.0000 I -1.1064 J 1.2592
G02 X 53.9920 Y 97.8968 Z -1.0000 I -0.2845 J 1.7906
G03 X 53.2804 Y 97.7076 Z -1.0000 I -0.1925 J -0.7083
G03 X 53.0019 Y 96.6908 Z -1.0000 I 0.7528 J -0.7528
G02 X 53.1447 Y 95.5573 Z -1.0000 I -4.4281 J -1.1335
G01 X 53.1447 Y 89.5460 Z -1.0000
G02 X 52.9855 Y 88.3193 Z -1.0000 I -4.8043 J 0.0000
G03 X 53.2804 Y 87.2263 Z -1.0000 I 1.0981 J -0.2900
G03 X 54.4474 Y 86.9151 Z -1.0000 I 0.8524 J 0.8525
G02 X 55.7693 Y 87.0906 Z -1.0000 I 1.3219 J -4.8902
G01 X 55.7693 Y 72.4433 Z -1.0000
G01 X 48.7420 Y 72.4433 Z -1.0000
G01 X 48.7420 Y 125.1907 Z -1.0000
G01 X 55.3460 Y 125.1907 Z -1.0000
G01 X 58.3093 Y 125.1396 Z -1.0000
G01 X 59.6640 Y 123.9207 Z -1.0000
G01 X 62.6273 Y 120.8727 Z -1.0000
G03 X 62.3586 Y 120.3880 Z -1.0000 I 0.3522 J -0.5122
G03 X 62.6395 Y 119.8718 Z -1.0000 I 0.5684 J -0.0252
G03 X 63.7760 Y 119.5150 Z -1.0000 I 1.3463 J 2.3000
G03 X 64.8135 Y 120.0453 Z -1.0000 I 0.0876 J 1.1088
G03 X 64.8951 Y 120.5049 Z -1.0000 I -0.5492 J 0.3345
G03 X 64.6468 Y 120.8945 Z -1.0000 I -0.6241 J -0.1238
G03 X 64.0613 Y 121.0372 Z -1.0000 I -0.4650 J -0.6356
G02 X 63.4740 Y 121.1290 Z -1.0000 I -0.1496 J 0.9670
G02 X 62.5236 Y 121.8965 Z -1.0000 I 1.2767 J 2.5534
G03 X 61.6960 Y 122.8200 Z -1.0000 I -8.8400 J -7.0889
G02 X 60.3136 Y 124.3938 Z -1.0000 I 11.4664 J 11.4664
G03 X 58.7327 Y 125.6963 Z -1.0000 I -3.6293 J -2.7943
G03 X 57.7360 Y 125.8575 Z -1.0000 I -0.7558 J -1.5114
G02 X 56.7007 Y 125.7833 Z -1.0000 I -1.0353 J 7.1902
G01 X 51.7900 Y 125.7833 Z -1.0000
G01 X 49.1653 Y 125.7833 Z -1.0000
G02 X 48.6832 Y 125.8216 Z -1.0000 I -0.0000 J 3.0568
G03 X 48.2364 Y 125.6476 Z -1.0000 I -0.0748 J -0.4686
G03 X 47.9566 Y 124.3110 Z -1.0000 I 1.1972 J -0.9482
G02 X 48.1493 Y 122.8200 Z -1.0000 I -5.6700 J -1.4910
G01 X 48.1493 Y 114.8613 Z -1.0000
G01 X 48.1493 Y 83.9580 Z -1.0000
G01 X 48.1493 Y 74.7293 Z -1.0000
G01 X 48.1493 Y 72.6127 Z -1.0000
G03 X 48.1592 Y 72.2054 Z -1.0000 I 9.2026 J 0.0188
G03 X 48.4159 Y 71.8776 Z -1.0000 I 0.3590 J 0.0166
G03 X 49.3741 Y 71.7943 Z -1.0000 I 0.6824 J 2.2987
G02 X 50.3507 Y 71.8507 Z -1.0000 I 0.9766 J -8.4338
G01 X 54.4147 Y 71.8507 Z -1.0000
G02 X 55.4014 Y 71.7109 Z -1.0000 I 0.0000 J -3.5535
G03 X 56.2622 Y 71.9865 Z -1.0000 I 0.2251 J 0.7789
G03 X 56.3934 Y 72.4583 Z -1.0000 I -0.4948 J 0.3918
G02 X 56.3620 Y 72.9514 Z -1.0000 I 3.8529 J 0.4930
G01 X 56.3620 Y 75.4914 Z -1.0000
G01 X 56.3620 Y 84.2120 Z -1.0000
G01 X 56.3620 Y 86.4980 Z -1.0000
G02 X 56.3916 Y 87.0015 Z -1.0000 I 4.3025 J -0.0000
G03 X 56.2750 Y 87.4871 Z -1.0000 I -0.7173 J 0.0845
G03 X 55.1191 Y 87.8950 Z -1.0000 I -0.8500 J -0.5671
G02 X 53.7373 Y 87.6834 Z -1.0000 I -1.3817 J 4.4048
M5
G4 P0.1

(Change tool to Cylindrical cutter)

M5
G4 P0.1
G00 X 51.1973 Y 79.3860

M3 S300
G03 X 51.8324 Y 79.4193 Z -1.0000 I -0.0000 J 6.0704 F 1000.0000
G02 X 52.4530 Y 79.3352 Z -1.0000 I 0.1381 J -1.3125
G02 X 53.0290 Y 78.9933 Z -1.0000 I -0.7599 J -1.9363
G03 X 53.7370 Y 78.8490 Z -1.0000 I 0.4873 J 0.5816
G03 X 54.3957 Y 79.8166 Z -1.0000 I -0.2715 J 0.8928
G03 X 53.5680 Y 80.6455 Z -1.0000 I -0.9016 J -0.0725
G03 X 52.9514 Y 80.4338 Z -1.0000 I -0.0664 J -0.8103
G02 X 52.4496 Y 80.1142 Z -1.0000 I -1.1495 J 1.2507
G02 X 51.8315 Y 80.0275 Z -1.0000 I -0.4772 J 1.1568
G03 X 51.1973 Y 80.0634 Z -1.0000 I -0.6342 J -5.5976
G01 X 51.1973 Y 84.4660 Z -1.0000
G03 X 51.8324 Y 84.4993 Z -1.0000 I -0.0000 J 6.0704
G02 X 52.4530 Y 84.4152 Z -1.0000 I 0.1381 J -1.3125
G02 X 53.0290 Y 84.0733 Z -1.0000 I -0.7599 J -1.9363
G03 X 53.7370 Y 83.9290 Z -1.0000 I 0.4873 J 0.5816
G03 X 54.3957 Y 84.8966 Z -1.0000 I -0.2715 J 0.8928
G03 X 53.5680 Y 85.7255 Z -1.0000 I -0.9016 J -0.0725
G03 X 52.9514 Y 85.5138 Z -1.0000 I -0.0664 J -0.8103
G02 X 52.4496 Y 85.1942 Z -1.0000 I -1.1495 J 1.2507
G02 X 51.8315 Y 85.1075 Z -1.0000 I -0.4772 J 1.1569
G03 X 51.1973 Y 85.1434 Z -1.0000 I -0.6342 J -5.5977
G01 X 51.1973 Y 99.7907 Z -1.0000
G01 X 55.0073 Y 99.7907 Z -1.0000
G01 X 55.0073 Y 99.1134 Z -1.0000
G01 X 57.0393 Y 99.1134 Z -1.0000
G01 X 57.0393 Y 101.0607 Z -1.0000
G01 X 55.0073 Y 101.0607 Z -1.0000
G01 X 55.0073 Y 100.3834 Z -1.0000
G01 X 52.3827 Y 100.3834 Z -1.0000
G01 X 51.3331 Y 100.5191 Z -1.0000
G01 X 51.1973 Y 101.9920 Z -1.0000
G01 X 51.1973 Y 106.1407 Z -1.0000
G01 X 51.1973 Y 122.5660 Z -1.0000
G03 X 52.8090 Y 122.6590 Z -1.0000 I -0.0000 J 14.0231
G02 X 54.4147 Y 122.6385 Z -1.0000 I 0.7233 J -6.2516
G02 X 55.1916 Y 122.4239 Z -1.0000 I -0.4401 J -3.1078
G03 X 56.0233 Y 122.2561 Z -1.0000 I 0.8317 J 1.9772
G03 X 56.8371 Y 122.3638 Z -1.0000 I -0.0000 J 3.1305
G03 X 57.2419 Y 123.1550 Z -1.0000 I -0.1558 J 0.5789
G03 X 56.6433 Y 123.5761 Z -1.0000 I -0.6099 J -0.2308
G03 X 55.9387 Y 123.5820 Z -1.0000 I -0.6893 J -40.1848
G03 X 55.2327 Y 123.4551 Z -1.0000 I 0.0010 J -2.0326
G02 X 54.5764 Y 123.2666 Z -1.0000 I -1.5735 J 4.2419
G02 X 53.4457 Y 123.1561 Z -1.0000 I -1.0803 J 5.2126
G03 X 52.2980 Y 123.1588 Z -1.0000 I -0.7597 J -80.1711
G02 X 51.4466 Y 123.2787 Z -1.0000 I -0.0147 J 2.9777
G03 X 50.7045 Y 123.0292 Z -1.0000 I -0.1922 J -0.6566
G03 X 50.4964 Y 122.0711 Z -1.0000 I 0.9587 J -0.7099
G02 X 50.6047 Y 121.0420 Z -1.0000 I -4.8371 J -1.0291
G01 X 50.6047 Y 115.6234 Z -1.0000
G01 X 50.6047 Y 82.0107 Z -1.0000
G01 X 50.6047 Y 76.7613 Z -1.0000
G02 X 50.5176 Y 75.6468 Z -1.0000 I -7.1794 J -0.0000
G03 X 50.6558 Y 74.5726 Z -1.0000 I 1.9107 J -0.3003
G03 X 51.4036 Y 74.2391 Z -1.0000 I 0.5566 J 0.2430
G02 X 52.2121 Y 74.3540 Z -1.0000 I 0.7213 J -2.1741
G02 X 53.1021 Y 74.0027 Z -1.0000 I -0.0549 J -1.4422
G03 X 54.2913 Y 74.2250 Z -1.0000 I 0.5062 J 0.5845
G03 X 54.3133 Y 75.0523 Z -1.0000 I -0.8217 J 0.4357
G03 X 53.6527 Y 75.5564 Z -1.0000 I -0.8092 J -0.3756
G03 X 52.6382 Y 75.2281 Z -1.0000 I -0.1922 J -1.1377
G02 X 51.5410 Y 74.9259 Z -1.0000 I -0.8097 J 0.7970
G02 X 51.1842 Y 75.4098 Z -1.0000 I 0.1210 J 0.4626
G03 X 51.1973 Y 75.9994 Z -1.0000 I -13.2665 J 0.5896
G01 X 51.1973 Y 79.3860 Z -1.0000
M5
G4 P0.1

(Change tool to Cylindrical cutter)

M5
G4 P0.1
G00 X 53.1447 Y 74.3907

M3 S300
G01 X 53.1447 Y 74.9834 Z -1.0000 F 1000.0000
G02 X 53.6371 Y 74.6259 Z -1.0000 I 0.1392 J -0.3261
G02 X 53.1447 Y 74.3907 Z -1.0000 I -0.3158 J 0.0280
M5
G4 P0.1

(Change tool to Cylindrical cutter)

M5
G4 P0.1
G00 X 53.1447 Y 79.4707

M3 S300
G01 X 53.1447 Y 80.0633 Z -1.0000 F 1000.0000
G02 X 53.6371 Y 79.7059 Z -1.0000 I 0.1392 J -0.3261
G02 X 53.1447 Y 79.4707 Z -1.0000 I -0.3158 J 0.0280
M5
G4 P0.1

(Change tool to Cylindrical cutter)

M5
G4 P0.1
G00 X 53.1447 Y 84.5507

M3 S300
G01 X 53.1447 Y 85.1433 Z -1.0000 F 1000.0000
G02 X 53.6371 Y 84.7859 Z -1.0000 I 0.1392 J -0.3261
G02 X 53.1447 Y 84.5507 Z -1.0000 I -0.3158 J 0.0280
M5
G4 P0.1

(Change tool to Cylindrical cutter)

M5
G4 P0.1
G00 X 54.7375 Y 107.6647

M3 S300
G03 X 56.0303 Y 106.4007 Z -1.0000 I 1.3142 J 0.0511 F 1000.0000
G03 X 57.2771 Y 107.7491 Z -1.0000 I 0.0200 J 1.2321
G03 X 55.9807 Y 108.9422 Z -1.0000 I -1.3117 J -0.1244
G03 X 54.7375 Y 107.6647 Z -1.0000 I -0.0143 J -1.2298
M5
G4 P0.1

(Change tool to Cylindrical cutter)

M5
G4 P0.1
G00 X 54.7375 Y 110.2047

M3 S300
G03 X 56.0303 Y 108.9407 Z -1.0000 I 1.3142 J 0.0511 F 1000.0000
G03 X 57.2771 Y 110.2891 Z -1.0000 I 0.0200 J 1.2321
G03 X 55.9807 Y 111.4822 Z -1.0000 I -1.3117 J -0.1244
G03 X 54.7375 Y 110.2047 Z -1.0000 I -0.0143 J -1.2298
M5
G4 P0.1

(Change tool to Cylindrical cutter)

M5
G4 P0.1
G00 X 54.7375 Y 112.7447

M3 S300
G03 X 56.0303 Y 111.4807 Z -1.0000 I 1.3142 J 0.0511 F 1000.0000
G03 X 57.2771 Y 112.8291 Z -1.0000 I 0.0200 J 1.2321
G03 X 55.9807 Y 114.0222 Z -1.0000 I -1.3117 J -0.1244
G03 X 54.7375 Y 112.7447 Z -1.0000 I -0.0143 J -1.2298
M5
G4 P0.1

(Change tool to Cylindrical cutter)

M5
G4 P0.1
G00 X 54.7375 Y 115.2847

M3 S300
G03 X 56.0303 Y 114.0207 Z -1.0000 I 1.3142 J 0.0511 F 1000.0000
G03 X 57.2771 Y 115.3691 Z -1.0000 I 0.0200 J 1.2321
G03 X 55.9807 Y 116.5622 Z -1.0000 I -1.3117 J -0.1244
G03 X 54.7375 Y 115.2847 Z -1.0000 I -0.0143 J -1.2298
M5
G4 P0.1

(Change tool to Cylindrical cutter)

M5
G4 P0.1
G00 X 54.7375 Y 117.8247

M3 S300
G03 X 56.0303 Y 116.5607 Z -1.0000 I 1.3142 J 0.0511 F 1000.0000
G03 X 57.2771 Y 117.9091 Z -1.0000 I 0.0200 J 1.2321
G03 X 55.9807 Y 119.1022 Z -1.0000 I -1.3117 J -0.1244
G03 X 54.7375 Y 117.8247 Z -1.0000 I -0.0143 J -1.2298
M5
G4 P0.1

(Change tool to Cylindrical cutter)

M5
G4 P0.1
G00 X 54.7375 Y 120.3647

M3 S300
G03 X 56.0303 Y 119.1007 Z -1.0000 I 1.3142 J 0.0511 F 1000.0000
G03 X 57.2771 Y 120.4491 Z -1.0000 I 0.0200 J 1.2321
G03 X 55.9807 Y 121.6422 Z -1.0000 I -1.3117 J -0.1244
G03 X 54.7375 Y 120.3647 Z -1.0000 I -0.0143 J -1.2298
M5
G4 P0.1

(Change tool to Cylindrical cutter)

M5
G4 P0.1
G00 X 58.2247 Y 89.5460

M3 S300
G01 X 58.2247 Y 74.8987 Z -1.0000 F 1000.0000
G01 X 58.2247 Y 71.0040 Z -1.0000
G02 X 58.1581 Y 70.2361 Z -1.0000 I -4.4605 J 0.0000
G03 X 58.3117 Y 69.5069 Z -1.0000 I 0.9877 J -0.1726
G03 X 58.9144 Y 69.2510 Z -1.0000 I 0.4964 J 0.3312
G02 X 59.5793 Y 69.3107 Z -1.0000 I 0.6650 J -3.6728
G01 X 63.3047 Y 69.3107 Z -1.0000
G01 X 78.6293 Y 69.3107 Z -1.0000
G01 X 82.7780 Y 69.3107 Z -1.0000
G02 X 83.5348 Y 69.2306 Z -1.0000 I 0.0000 J -3.6185
G03 X 84.2150 Y 69.5069 Z -1.0000 I 0.1367 J 0.6389
G03 X 84.3316 Y 69.9925 Z -1.0000 I -0.6007 J 0.4010
G02 X 84.3020 Y 70.4960 Z -1.0000 I 4.2712 J 0.5035
G01 X 84.3020 Y 72.7820 Z -1.0000
G01 X 84.3020 Y 81.5874 Z -1.0000
G01 X 84.3020 Y 111.5593 Z -1.0000
G01 X 84.3020 Y 116.1314 Z -1.0000
G02 X 84.3787 Y 117.0682 Z -1.0000 I 5.7570 J 0.0000
G03 X 84.2392 Y 117.9671 Z -1.0000 I -1.4376 J 0.2371
G03 X 83.6727 Y 118.2282 Z -1.0000 I -0.4489 J -0.2289
G02 X 83.0320 Y 118.1667 Z -1.0000 I -0.5390 J 2.2465
G02 X 81.9175 Y 118.5567 Z -1.0000 I 0.0907 J 2.0466
G03 X 80.7341 Y 118.3290 Z -1.0000 I -0.4853 J -0.6670
G03 X 80.6838 Y 117.6085 Z -1.0000 I 0.6467 J -0.4071
G03 X 81.2543 Y 117.1670 Z -1.0000 I 0.6995 J 0.3145
G03 X 81.8574 Y 117.3264 Z -1.0000 I 0.1265 J 0.7417
G02 X 82.3623 Y 117.5970 Z -1.0000 I 0.9416 J -1.1506
G02 X 83.0211 Y 117.6344 Z -1.0000 I 0.4054 J -1.3193
G03 X 83.7093 Y 117.5707 Z -1.0000 I 0.6883 J 3.6845
G01 X 83.7093 Y 69.9033 Z -1.0000
G01 X 65.2520 Y 69.9033 Z -1.0000
G01 X 60.5953 Y 69.9033 Z -1.0000
G01 X 58.9531 Y 70.0391 Z -1.0000
G01 X 58.8173 Y 71.8507 Z -1.0000
G01 X 58.8173 Y 76.9307 Z -1.0000
G01 X 64.5747 Y 76.9307 Z -1.0000
G03 X 66.0173 Y 76.9825 Z -1.0000 I 0.0000 J 20.0969
G02 X 67.4500 Y 76.9182 Z -1.0000 I 0.4419 J -6.1404
G02 X 67.9554 Y 76.6161 Z -1.0000 I -0.1286 J -0.7892
G03 X 68.4697 Y 76.2868 Z -1.0000 I 0.7137 J 0.5483
G03 X 69.0757 Y 76.3424 Z -1.0000 I 0.2177 J 0.9582
G02 X 69.6547 Y 76.3816 Z -1.0000 I 0.3452 J -0.8023
G02 X 71.2066 Y 75.7982 Z -1.0000 I -2.5001 J -9.0072
G02 X 72.5924 Y 74.9015 Z -1.0000 I -2.8473 J -5.9192
G02 X 73.0014 Y 74.2778 Z -1.0000 I -0.8402 J -0.9970
G03 X 73.6341 Y 73.7318 Z -1.0000 I 0.7438 J 0.2222
G03 X 74.3452 Y 73.9681 Z -1.0000 I 0.1197 J 0.8278
G02 X 74.9128 Y 74.3399 Z -1.0000 I 1.1757 J -1.1757
G02 X 76.3419 Y 74.6164 Z -1.0000 I 1.4606 J -3.7173
G02 X 77.7671 Y 74.3396 Z -1.0000 I 0.0288 J -3.6591
G02 X 78.5362 Y 73.9075 Z -1.0000 I -1.4018 J -3.3948
G03 X 79.5901 Y 74.0125 Z -1.0000 I 0.4685 J 0.6394
G03 X 79.7909 Y 74.9800 Z -1.0000 I -0.7154 J 0.6530
G03 X 79.0527 Y 75.6260 Z -1.0000 I -0.9316 J -0.3198
G03 X 78.2457 Y 75.3523 Z -1.0000 I -0.1671 J -0.8342
G02 X 77.5283 Y 74.9883 Z -1.0000 I -0.8120 J 0.7113
G03 X 76.1991 Y 74.8606 Z -1.0000 I 7.3531 J -83.5232
G02 X 74.9116 Y 75.0344 Z -1.0000 I -0.2854 J 2.7414
G02 X 74.4646 Y 75.3447 Z -1.0000 I 0.4253 J 1.0899
G03 X 73.9727 Y 75.6260 Z -1.0000 I -0.6677 J -0.5968
G03 X 73.4180 Y 75.5547 Z -1.0000 I -0.1718 J -0.8566
G02 X 72.8720 Y 75.4974 Z -1.0000 I -0.3517 J 0.7214
G02 X 71.3194 Y 76.0761 Z -1.0000 I 1.7927 J 7.1814
G02 X 69.9276 Y 76.9771 Z -1.0000 I 3.5568 J 7.0200
G02 X 69.5143 Y 77.5967 Z -1.0000 I 0.7857 J 0.9716
G03 X 68.8927 Y 78.1660 Z -1.0000 I -0.7816 J -0.2295
G03 X 67.9766 Y 77.9020 Z -1.0000 I -0.2034 J -1.0155
G02 X 67.0300 Y 77.5234 Z -1.0000 I -0.9495 J 1.0012
G02 X 62.9660 Y 77.5211 Z -1.0000 I -2.7093 J 1223.4146
G03 X 58.9020 Y 77.5234 Z -1.0000 I -4.0640 J -3670.2431
G01 X 58.9020 Y 89.5460 Z -1.0000
G01 X 62.4580 Y 89.5460 Z -1.0000
G01 X 63.7726 Y 89.6818 Z -1.0000
G01 X 63.8977 Y 90.9854 Z -1.0000
G01 X 63.9820 Y 94.5414 Z -1.0000
G01 X 64.0088 Y 96.4854 Z -1.0000
G01 X 64.4847 Y 97.5047 Z -1.0000
G01 X 63.9945 Y 98.6900 Z -1.0000
G01 X 64.0717 Y 101.4828 Z -1.0000
G01 X 64.4847 Y 102.5847 Z -1.0000
G01 X 63.9945 Y 103.6887 Z -1.0000
G01 X 63.9820 Y 107.0720 Z -1.0000
G03 X 64.5713 Y 107.7234 Z -1.0000 I -0.0054 J 0.5971
G03 X 63.8973 Y 108.3419 Z -1.0000 I -0.6775 J -0.0618
G02 X 63.2230 Y 108.3698 Z -1.0000 I 0.0464 J 9.2827
G03 X 62.5782 Y 108.1719 Z -1.0000 I -0.0714 J -0.9168
G03 X 62.5818 Y 107.3253 Z -1.0000 I 0.3365 J -0.4219
G03 X 63.3047 Y 107.0720 Z -1.0000 I 0.7337 J 0.9359
G01 X 63.2934 Y 103.6040 Z -1.0000
G01 X 62.9154 Y 102.5847 Z -1.0000
G01 X 63.3031 Y 101.3994 Z -1.0000
G01 X 63.2934 Y 98.5240 Z -1.0000
G01 X 62.9153 Y 97.5047 Z -1.0000
G01 X 63.2997 Y 96.4040 Z -1.0000
G01 X 63.3046 Y 90.2234 Z -1.0000
G03 X 60.3380 Y 90.1608 Z -1.0000 I 0.0000 J -70.3376
G02 X 57.3783 Y 90.2284 Z -1.0000 I -0.9608 J 22.7612
G02 X 56.6609 Y 90.5924 Z -1.0000 I 0.0946 J 1.0752
G03 X 55.8539 Y 90.8660 Z -1.0000 I -0.6399 J -0.5606
G03 X 55.0856 Y 89.7946 Z -1.0000 I 0.1897 J -0.9473
G03 X 56.1079 Y 88.9638 Z -1.0000 I 0.9486 J 0.1229
G03 X 56.6618 Y 89.2452 Z -1.0000 I -0.0627 J 0.8090
G02 X 57.1328 Y 89.5799 Z -1.0000 I 0.9045 J -0.7741
G02 X 57.6805 Y 89.6248 Z -1.0000 I 0.3488 J -0.8918
G03 X 58.2246 Y 89.5460 Z -1.0000 I 0.8737 J 4.1142
M5
G4 P0.1

(Change tool to Cylindrical cutter)

M5
G4 P0.1
G00 X 61.3573 Y 109.9507

M3 S300
G02 X 62.6944 Y 109.7408 Z -1.0000 I -0.0000 J -4.3652 F 1000.0000
G03 X 64.0666 Y 109.5980 Z -1.0000 I 1.0250 J 3.1854
G03 X 64.6492 Y 109.8043 Z -1.0000 I -0.1368 J 1.3118
G03 X 64.8619 Y 110.4549 Z -1.0000 I -0.2976 J 0.4574
G03 X 63.3761 Y 110.9730 Z -1.0000 I -0.9599 J -0.3635
G02 X 62.0333 Y 110.5480 Z -1.0000 I -1.5731 J 2.6369
G02 X 61.3447 Y 110.5826 Z -1.0000 I -0.2075 J 2.7466
G03 X 60.7839 Y 110.1997 Z -1.0000 I -0.0848 J -0.4779
G03 X 60.6346 Y 107.3819 Z -1.0000 I 9.6365 J -1.9234
G02 X 60.7646 Y 104.5320 Z -1.0000 I -31.1776 J -2.8498
G01 X 60.7646 Y 92.7634 Z -1.0000
G03 X 59.0235 Y 92.7012 Z -1.0000 I -0.0000 J -24.4088
G02 X 57.2946 Y 92.7759 Z -1.0000 I -0.5400 J 7.5510
G02 X 56.6881 Y 93.1161 Z -1.0000 I 0.1579 J 0.9920
G03 X 56.0233 Y 93.4229 Z -1.0000 I -0.6648 J -0.5670
G03 X 55.2949 Y 93.0991 Z -1.0000 I 0.0000 J -0.9811
G03 X 55.0558 Y 92.3400 Z -1.0000 I 0.7103 J -0.6410
G03 X 55.5954 Y 91.5914 Z -1.0000 I 0.9535 J 0.1184
G03 X 56.5225 Y 91.6265 Z -1.0000 I 0.4300 J 0.9009
G03 X 56.8488 Y 91.9072 Z -1.0000 I -0.5694 J 0.9921
G02 X 57.2123 Y 92.1438 Z -1.0000 I 0.5357 J -0.4255
G02 X 58.3866 Y 92.2326 Z -1.0000 I 0.8321 J -3.1963
G03 X 59.5793 Y 92.1706 Z -1.0000 I 1.1927 J 11.4491
G02 X 60.5391 Y 92.0144 Z -1.0000 I 0.0000 J -3.0263
G03 X 61.3062 Y 92.3529 Z -1.0000 I 0.1976 J 0.5908
G03 X 61.4105 Y 93.0969 Z -1.0000 I -1.2535 J 0.5549
G02 X 61.3573 Y 93.8640 Z -1.0000 I 5.5054 J 0.7670
G01 X 61.3573 Y 97.4200 Z -1.0000
G01 X 61.3573 Y 109.9506 Z -1.0000
M5
G4 P0.1

(Change tool to Cylindrical cutter)

M5
G4 P0.1
G00 X 58.2246 Y 95.3033

M3 S300
G03 X 57.6724 Y 95.2780 Z -1.0000 I 0.0000 J -6.0350 F 1000.0000
G02 X 57.1316 Y 95.3543 Z -1.0000 I -0.1088 J 1.1838
G02 X 56.6845 Y 95.6645 Z -1.0000 I 0.4249 J 1.0895
G03 X 56.1926 Y 95.9459 Z -1.0000 I -0.6677 J -0.5968
G03 X 55.1568 Y 95.4548 Z -1.0000 I -0.1884 J -0.9405
G03 X 55.3095 Y 94.3206 Z -1.0000 I 0.8683 J -0.4605
G03 X 56.5185 Y 94.2978 Z -1.0000 I 0.6157 J 0.5795
G02 X 57.4627 Y 94.7090 Z -1.0000 I 1.0063 J -1.0213
G02 X 58.1679 Y 94.6055 Z -1.0000 I 0.0820 J -1.8961
G03 X 58.7828 Y 94.8323 Z -1.0000 I 0.1695 J 0.4875
G03 X 58.8873 Y 95.4718 Z -1.0000 I -0.7782 J 0.4554
G02 X 58.8173 Y 96.1499 Z -1.0000 I 3.2506 J 0.6781
G01 X 58.8173 Y 99.4519 Z -1.0000
G01 X 58.8173 Y 106.5639 Z -1.0000
G03 X 58.7414 Y 108.3094 Z -1.0000 I -20.1143 J 0.0000
G02 X 58.8503 Y 110.0353 Z -1.0000 I 5.7683 J 0.5024
G02 X 59.2654 Y 111.0769 Z -1.0000 I 3.3098 J -0.7155
G03 X 59.8124 Y 112.0673 Z -1.0000 I -11.8025 J 7.1643
G03 X 60.4107 Y 113.6634 Z -1.0000 I -7.2745 J 3.6372
G02 X 61.3753 Y 114.9436 Z -1.0000 I 2.0304 J -0.5264
G02 X 61.7416 Y 115.0447 Z -1.0000 I 0.3705 J -0.6280
G02 X 62.1193 Y 115.0050 Z -1.0000 I 0.0099 J -1.7228
G02 X 62.4199 Y 114.8871 Z -1.0000 I -0.2197 J -1.0021
G03 X 62.7119 Y 114.7531 Z -1.0000 I 0.8011 J 1.3614
G03 X 64.0177 Y 114.4562 Z -1.0000 I 2.0697 J 6.0820
G03 X 64.8619 Y 115.5349 Z -1.0000 I 0.0952 J 0.7951
G03 X 63.5945 Y 116.1392 Z -1.0000 I -0.9491 J -0.3593
G03 X 62.3492 Y 115.6922 Z -1.0000 I 8.0939 J -24.5083
G02 X 61.6058 Y 115.6558 Z -1.0000 I -0.4263 J 1.0988
G03 X 60.9032 Y 115.5362 Z -1.0000 I -0.2246 J -0.8043
G03 X 60.4734 Y 114.9550 Z -1.0000 I 0.6488 J -0.9294
G02 X 60.1929 Y 114.2686 Z -1.0000 I -4.6696 J 1.5076
G01 X 58.6689 Y 111.2206 Z -1.0000
G03 X 58.1482 Y 108.6881 Z -1.0000 I 4.4830 J -2.2415
G02 X 58.2246 Y 106.0559 Z -1.0000 I -45.2725 J -2.6322
G01 X 58.2246 Y 95.3033 Z -1.0000
M5
G4 P0.1

(Change tool to Cylindrical cutter)

M5
G4 P0.1
G00 X 56.3619 Y 90.3079

M3 S300
G01 X 56.3619 Y 89.5459 Z -1.0000 F 1000.0000
G02 X 55.8721 Y 89.9077 Z -1.0000 I -0.1051 J 0.3702
G02 X 56.3619 Y 90.3079 Z -1.0000 I 0.4012 J 0.0089
M5
G4 P0.1

(Change tool to Cylindrical cutter)

M5
G4 P0.1
G00 X 56.3619 Y 92.8479

M3 S300
G01 X 56.3619 Y 92.0859 Z -1.0000 F 1000.0000
G02 X 55.8721 Y 92.4477 Z -1.0000 I -0.1051 J 0.3702
G02 X 56.3619 Y 92.8479 Z -1.0000 I 0.4012 J 0.0089
M5
G4 P0.1

(Change tool to Cylindrical cutter)

M5
G4 P0.1
G00 X 56.3619 Y 95.3879

M3 S300
G01 X 56.3619 Y 94.6259 Z -1.0000 F 1000.0000
G02 X 55.8721 Y 94.9877 Z -1.0000 I -0.1051 J 0.3702
G02 X 56.3619 Y 95.3879 Z -1.0000 I 0.4012 J 0.0089
M5
G4 P0.1

(Change tool to Cylindrical cutter)

M5
G4 P0.1
G00 X 55.6637 Y 107.6680

M3 S300
G02 X 56.0129 Y 108.0274 Z -1.0000 I 0.3501 J 0.0092 F 1000.0000
G02 X 56.3733 Y 107.6680 Z -1.0000 I 0.0009 J -0.3594
G02 X 56.0205 Y 107.3178 Z -1.0000 I -0.3502 J 0.0000
G02 X 55.6637 Y 107.6680 Z -1.0000 I 0.0027 J 0.3596
M5
G4 P0.1

(Change tool to Cylindrical cutter)

M5
G4 P0.1
G00 X 55.6637 Y 110.2080

M3 S300
G02 X 56.0129 Y 110.5674 Z -1.0000 I 0.3501 J 0.0092 F 1000.0000
G02 X 56.3733 Y 110.2080 Z -1.0000 I 0.0009 J -0.3594
G02 X 56.0205 Y 109.8578 Z -1.0000 I -0.3502 J 0.0000
G02 X 55.6637 Y 110.2080 Z -1.0000 I 0.0027 J 0.3596
M5
G4 P0.1

(Change tool to Cylindrical cutter)

M5
G4 P0.1
G00 X 55.6637 Y 112.7480

M3 S300
G02 X 56.0129 Y 113.1074 Z -1.0000 I 0.3501 J 0.0092 F 1000.0000
G02 X 56.3733 Y 112.7480 Z -1.0000 I 0.0009 J -0.3594
G02 X 56.0205 Y 112.3978 Z -1.0000 I -0.3502 J 0.0000
G02 X 55.6637 Y 112.7480 Z -1.0000 I 0.0027 J 0.3596
M5
G4 P0.1

(Change tool to Cylindrical cutter)

M5
G4 P0.1
G00 X 55.6637 Y 115.2880

M3 S300
G02 X 56.0129 Y 115.6474 Z -1.0000 I 0.3501 J 0.0092 F 1000.0000
G02 X 56.3733 Y 115.2880 Z -1.0000 I 0.0009 J -0.3594
G02 X 56.0205 Y 114.9378 Z -1.0000 I -0.3502 J 0.0000
G02 X 55.6637 Y 115.2880 Z -1.0000 I 0.0027 J 0.3596
M5
G4 P0.1

(Change tool to Cylindrical cutter)

M5
G4 P0.1
G00 X 55.6637 Y 117.8280

M3 S300
G02 X 56.0129 Y 118.1874 Z -1.0000 I 0.3501 J 0.0092 F 1000.0000
G02 X 56.3733 Y 117.8280 Z -1.0000 I 0.0009 J -0.3594
G02 X 56.0205 Y 117.4778 Z -1.0000 I -0.3502 J 0.0000
G02 X 55.6637 Y 117.8280 Z -1.0000 I 0.0027 J 0.3596
M5
G4 P0.1

(Change tool to Cylindrical cutter)

M5
G4 P0.1
G00 X 55.6637 Y 120.3680

M3 S300
G02 X 56.0129 Y 120.7274 Z -1.0000 I 0.3501 J 0.0092 F 1000.0000
G02 X 56.3733 Y 120.3680 Z -1.0000 I 0.0009 J -0.3594
G02 X 56.0205 Y 120.0178 Z -1.0000 I -0.3502 J 0.0000
G02 X 55.6637 Y 120.3680 Z -1.0000 I 0.0027 J 0.3596
M5
G4 P0.1

(Change tool to Cylindrical cutter)

M5
G4 P0.1
G00 X 55.6847 Y 97.9280

M3 S300
G02 X 56.1859 Y 97.5455 Z -1.0000 I 0.1041 J -0.3833 F 1000.0000
G02 X 55.6847 Y 97.1660 Z -1.0000 I -0.3937 J -0.0008
G01 X 55.6847 Y 97.9280 Z -1.0000
M5
G4 P0.1

(Change tool to Cylindrical cutter)

M5
G4 P0.1
G00 X 55.6847 Y 100.4680

M3 S300
G02 X 56.1859 Y 100.0856 Z -1.0000 I 0.1041 J -0.3833 F 1000.0000
G02 X 55.6847 Y 99.7060 Z -1.0000 I -0.3937 J -0.0009
G01 X 55.6847 Y 100.4680 Z -1.0000
M5
G4 P0.1

(Change tool to Cylindrical cutter)

M5
G4 P0.1
G00 X 55.7693 Y 122.6507

M3 S300
G01 X 55.7693 Y 123.2433 Z -1.0000 F 1000.0000
G02 X 56.1692 Y 122.9066 Z -1.0000 I 0.0713 J -0.3211
G02 X 55.7693 Y 122.6507 Z -1.0000 I -0.2907 J 0.0139
M5
G4 P0.1

(Change tool to Cylindrical cutter)

M5
G4 P0.1
G00 X 62.3574 Y 112.7447

M3 S300
G03 X 62.9562 Y 112.1103 Z -1.0000 I 0.6627 J 0.0258 F 1000.0000
G03 X 63.8127 Y 112.1066 Z -1.0000 I 0.4484 J 4.6341
G03 X 64.5077 Y 112.2673 Z -1.0000 I -0.2244 J 2.5544
G02 X 65.1673 Y 112.4651 Z -1.0000 I 1.6393 J -4.2678
G02 X 66.1361 Y 112.5304 Z -1.0000 I 0.7027 J -3.2041
G03 X 67.1147 Y 112.4907 Z -1.0000 I 0.9785 J 12.0217
G03 X 67.7445 Y 112.5432 Z -1.0000 I -0.0000 J 3.7983
G02 X 68.3336 Y 112.3549 Z -1.0000 I 0.1119 J -0.6657
G02 X 68.6450 Y 111.1859 Z -1.0000 I -0.8535 J -0.8533
G03 X 68.4693 Y 109.8660 Z -1.0000 I 4.8708 J -1.3199
G03 X 68.5333 Y 108.0318 Z -1.0000 I 26.3312 J 0.0000
G02 X 68.3578 Y 106.2341 Z -1.0000 I -5.4196 J -0.3784
G02 X 68.0781 Y 105.7889 Z -1.0000 I -0.8683 J 0.2350
G03 X 67.8113 Y 105.2939 Z -1.0000 I 0.5178 J -0.5985
G03 X 68.0580 Y 104.5676 Z -1.0000 I 0.8591 J -0.1133
G02 X 68.3717 Y 103.9381 Z -1.0000 I -0.7819 J -0.7827
G02 X 68.1766 Y 103.2753 Z -1.0000 I -0.8293 J -0.1160
G03 X 67.9147 Y 102.6693 Z -1.0000 I 0.8363 J -0.7211
G03 X 68.5046 Y 101.8186 Z -1.0000 I 0.7892 J -0.0827
G03 X 69.4356 Y 102.2497 Z -1.0000 I 0.2031 J 0.7824
G03 X 69.2819 Y 103.1087 Z -1.0000 I -0.6702 J 0.3233
G02 X 68.9949 Y 103.8543 Z -1.0000 I 0.6560 J 0.6805
G02 X 69.3121 Y 104.4647 Z -1.0000 I 0.8597 J -0.0592
G03 X 69.6421 Y 105.1247 Z -1.0000 I -0.5617 J 0.6933
G03 X 69.3384 Y 105.7931 Z -1.0000 I -0.8201 J 0.0306
G02 X 68.9899 Y 106.3959 Z -1.0000 I 0.6120 J 0.7559
G02 X 68.9050 Y 108.3779 Z -1.0000 I 8.5199 J 1.3576
G03 X 68.9773 Y 110.3740 Z -1.0000 I -27.5066 J 1.9961
G03 X 68.9657 Y 111.3058 Z -1.0000 I -37.2754 J 0.0000
G02 X 68.9849 Y 112.2367 Z -1.0000 I 10.1934 J 0.2549
G02 X 69.0273 Y 112.6260 Z -1.0000 I 4.6388 J -0.3080
G03 X 68.8654 Y 112.9963 Z -1.0000 I -0.3744 J 0.0568
G03 X 68.0967 Y 113.1576 Z -1.0000 I -0.5811 J -0.8570
G02 X 67.2840 Y 113.0833 Z -1.0000 I -0.8127 J 4.4116
G03 X 66.2231 Y 113.0522 Z -1.0000 I 0.0000 J -18.1019
G02 X 65.1673 Y 113.0955 Z -1.0000 I -0.3113 J 5.3025
G02 X 64.3890 Y 113.2830 Z -1.0000 I 0.5876 J 4.1484
G03 X 63.5587 Y 113.4220 Z -1.0000 I -0.8293 J -2.4048
G03 X 62.8388 Y 113.3524 Z -1.0000 I 0.0013 J -3.7732
G03 X 62.3574 Y 112.7447 Z -1.0000 I 0.1139 J -0.5847
M5
G4 P0.1

(Change tool to Cylindrical cutter)

M5
G4 P0.1
G00 X 73.4647 Y 117.5707

M3 S300
G01 X 73.4647 Y 104.5320 Z -1.0000 F 1000.0000
G01 X 73.4647 Y 100.5527 Z -1.0000
G03 X 73.5153 Y 99.5758 Z -1.0000 I 9.4489 J -0.0000
G02 X 73.4378 Y 98.6141 Z -1.0000 I -2.6233 J -0.2727
G02 X 71.7754 Y 97.4963 Z -1.0000 I -1.4756 J 0.3994
G02 X 69.7393 Y 97.8702 Z -1.0000 I 2.1420 J 17.3967
G02 X 69.2822 Y 98.1127 Z -1.0000 I 0.2522 J 1.0275
G03 X 68.8080 Y 98.3283 Z -1.0000 I -0.5761 J -0.6376
G03 X 68.1087 Y 98.0635 Z -1.0000 I -0.0957 J -0.8031
G03 X 67.9353 Y 97.3357 Z -1.0000 I 0.5884 J -0.5247
G03 X 68.3053 Y 96.8621 Z -1.0000 I 0.7409 J 0.1975
G03 X 68.8923 Y 96.7623 Z -1.0000 I 0.4361 J 0.7890
G03 X 69.3269 Y 96.9868 Z -1.0000 I -0.1350 J 0.7942
G02 X 69.7426 Y 97.2238 Z -1.0000 I 0.6412 J -0.6415
G02 X 71.1304 Y 97.3740 Z -1.0000 I 1.2138 J -4.7286
G02 X 72.5321 Y 97.2381 Z -1.0000 I -0.4113 J -11.5384
G02 X 73.1091 Y 96.9142 Z -1.0000 I -0.1501 J -0.9435
G03 X 73.7187 Y 96.5951 Z -1.0000 I 0.7012 J 0.5975
G03 X 74.3173 Y 96.7531 Z -1.0000 I 0.0881 J 0.8790
G03 X 74.6793 Y 97.2510 Z -1.0000 I -0.5556 J 0.7846
G03 X 74.4478 Y 98.0858 Z -1.0000 I -0.7621 J 0.2382
G02 X 74.0699 Y 98.7759 Z -1.0000 I 0.7773 J 0.8742
G02 X 73.9934 Y 100.5471 Z -1.0000 I 7.6380 J 1.2171
G03 X 74.0573 Y 102.3307 Z -1.0000 I -24.8321 J 1.7835
G01 X 74.0573 Y 113.0833 Z -1.0000
G01 X 74.0573 Y 116.3853 Z -1.0000
G02 X 74.0984 Y 117.1475 Z -1.0000 I 7.0917 J 0.0000
G03 X 74.0304 Y 117.8968 Z -1.0000 I -1.8998 J 0.2054
G03 X 72.9604 Y 118.4272 Z -1.0000 I -0.7815 J -0.2321
G02 X 71.5173 Y 118.1633 Z -1.0000 I -1.4430 J 3.8133
G03 X 67.9117 Y 118.0942 Z -1.0000 I -0.0000 J -94.0604
G02 X 64.4053 Y 118.4657 Z -1.0000 I -0.4713 J 12.2852
G03 X 63.3111 Y 118.6562 Z -1.0000 I -1.7815 J -6.9927
G03 X 62.3935 Y 118.0698 Z -1.0000 I -0.0841 J -0.8795
G03 X 63.1894 Y 117.0694 Z -1.0000 I 0.7121 J -0.2502
G03 X 64.4053 Y 117.2510 Z -1.0000 I -1.8447 J 16.5206
G02 X 68.8815 Y 117.6189 Z -1.0000 I 4.0166 J -21.4505
G03 X 73.4647 Y 117.5707 Z -1.0000 I 4.5832 J 217.5828
M5
G4 P0.1

(Change tool to Cylindrical cutter)

M5
G4 P0.1
G00 X 62.3574 Y 122.9047

M3 S300
G03 X 62.8113 Y 122.3658 Z -1.0000 I 0.5733 J 0.0223 F 1000.0000
G03 X 63.4740 Y 122.2666 Z -1.0000 I 1.1438 J 5.3756
G03 X 64.3533 Y 122.3855 Z -1.0000 I 0.1765 J 2.0058
G02 X 65.1673 Y 122.6251 Z -1.0000 I 2.1077 J -5.6586
G02 X 66.0100 Y 122.6836 Z -1.0000 I 0.6193 J -2.8241
G03 X 66.8607 Y 122.6507 Z -1.0000 I 0.8506 J 10.9782
G03 X 70.9293 Y 122.7374 Z -1.0000 I -0.0000 J 95.4743
G02 X 74.9883 Y 122.6457 Z -1.0000 I 1.3273 J -31.1173
G02 X 75.6483 Y 122.3085 Z -1.0000 I -0.0865 J -0.9839
G03 X 76.3433 Y 121.9911 Z -1.0000 I 0.6950 J 0.6022
G03 X 77.2179 Y 122.3008 Z -1.0000 I -0.0000 J 1.3899
G02 X 78.2060 Y 122.6507 Z -1.0000 I 0.9882 J -1.2207
G03 X 79.3130 Y 122.7063 Z -1.0000 I -0.0014 J 11.0663
G02 X 80.4040 Y 122.6238 Z -1.0000 I 0.3133 J -3.1122
G02 X 80.8852 Y 122.3612 Z -1.0000 I -0.2775 J -1.0808
G03 X 81.4233 Y 122.1501 Z -1.0000 I 0.5381 J 0.5802
G03 X 81.9706 Y 122.3622 Z -1.0000 I -0.0000 J 0.8120
G03 X 82.2163 Y 122.9047 Z -1.0000 I -0.5082 J 0.5571
G03 X 81.9941 Y 123.4846 Z -1.0000 I -0.8279 J 0.0154
G03 X 81.4233 Y 123.7329 Z -1.0000 I -0.5708 J -0.5321
G03 X 80.8972 Y 123.5302 Z -1.0000 I -0.0002 J -0.7840
G02 X 80.4073 Y 123.2702 Z -1.0000 I -0.7596 J 0.8394
G02 X 79.3559 Y 123.1931 Z -1.0000 I -0.7537 J 3.0709
G03 X 78.2907 Y 123.2433 Z -1.0000 I -1.0652 J -11.2638
G03 X 77.8283 Y 123.2250 Z -1.0000 I -0.0000 J -5.8422
G02 X 77.3737 Y 123.2944 Z -1.0000 I -0.0796 J 1.0025
G02 X 76.8987 Y 123.6024 Z -1.0000 I 0.5489 J 1.3666
G03 X 76.3433 Y 123.8286 Z -1.0000 I -0.5593 J -0.5782
G03 X 75.6789 Y 123.5433 Z -1.0000 I -0.0044 J -0.9061
G02 X 75.0721 Y 123.2483 Z -1.0000 I -0.6912 J 0.6501
G02 X 70.9713 Y 123.1544 Z -1.0000 I -2.7592 J 30.8984
G03 X 66.8607 Y 123.2433 Z -1.0000 I -4.1106 J -94.9622
G02 X 65.1403 Y 123.4161 Z -1.0000 I 0.0000 J 8.6521
G03 X 63.4740 Y 123.5820 Z -1.0000 I -1.6523 J -8.1439
G03 X 62.7940 Y 123.4937 Z -1.0000 I 0.0044 J -2.6976
G03 X 62.3574 Y 122.9046 Z -1.0000 I 0.1486 J -0.5664
M5
G4 P0.1

(Change tool to Cylindrical cutter)

M5
G4 P0.1
G00 X 81.0847 Y 104.8707

M3 S300
G01 X 81.0847 Y 72.3587 Z -1.0000 F 1000.0000
G01 X 69.0620 Y 72.3587 Z -1.0000
G03 X 69.0273 Y 72.9935 Z -1.0000 I -5.8257 J -0.0000
G02 X 69.1128 Y 73.6131 Z -1.0000 I 1.2746 J 0.1397
G02 X 69.5047 Y 74.3425 Z -1.0000 I 3.5070 J -1.4143
G03 X 69.4489 Y 75.3039 Z -1.0000 I -0.6463 J 0.4448
G03 X 68.3205 Y 75.3915 Z -1.0000 I -0.6090 J -0.5326
G02 X 67.4521 Y 74.9959 Z -1.0000 I -1.1496 J 1.3726
G02 X 66.0415 Y 74.8268 Z -1.0000 I -2.9014 J 18.2429
G02 X 64.6737 Y 75.0344 Z -1.0000 I -0.2434 J 3.0064
G02 X 64.3314 Y 75.2733 Z -1.0000 I 0.3450 J 0.8590
G03 X 63.9817 Y 75.5132 Z -1.0000 I -0.6746 J -0.6086
G03 X 63.3865 Y 75.5508 Z -1.0000 I -0.3578 J -0.9346
G03 X 62.8939 Y 75.2193 Z -1.0000 I 0.2038 J -0.8347
G03 X 62.8127 Y 74.2473 Z -1.0000 I 0.7661 J -0.5534
G03 X 63.6433 Y 73.7311 Z -1.0000 I 0.8307 J 0.4104
G03 X 64.2383 Y 73.9936 Z -1.0000 I -0.0000 J 0.8056
G02 X 64.7473 Y 74.3397 Z -1.0000 I 0.9809 J -0.8953
G02 X 66.2396 Y 74.6529 Z -1.0000 I 1.7397 J -4.5771
G02 X 67.6798 Y 74.3040 Z -1.0000 I 0.1317 J -2.6032
G02 X 68.2367 Y 73.8051 Z -1.0000 I -0.9234 J -1.5910
G02 X 68.4689 Y 73.1207 Z -1.0000 I -0.9577 J -0.7066
G02 X 68.3862 Y 72.4333 Z -1.0000 I -2.5057 J -0.0471
G03 X 68.6626 Y 71.8288 Z -1.0000 I 0.5065 J -0.1339
G03 X 70.0554 Y 71.6352 Z -1.0000 I 0.9919 J 2.0285
G02 X 71.5173 Y 71.7660 Z -1.0000 I 1.4620 J -8.1023
G01 X 78.5447 Y 71.7660 Z -1.0000
G01 X 80.6613 Y 71.7660 Z -1.0000
G02 X 81.1142 Y 71.7463 Z -1.0000 I 0.0002 J -5.1883
G03 X 81.5416 Y 71.9018 Z -1.0000 I 0.0470 J 0.5361
G03 X 81.8037 Y 72.8419 Z -1.0000 I -0.7025 J 0.7024
G02 X 81.6773 Y 73.8827 Z -1.0000 I 4.2230 J 1.0407
G01 X 81.6773 Y 79.5554 Z -1.0000
G01 X 81.6773 Y 98.0127 Z -1.0000
G01 X 81.6773 Y 103.1774 Z -1.0000
G02 X 81.7739 Y 104.2429 Z -1.0000 I 5.9285 J 0.0000
G03 X 81.6263 Y 105.2573 Z -1.0000 I -1.5781 J 0.2883
G03 X 81.0530 Y 105.5301 Z -1.0000 I -0.4636 J -0.2353
G02 X 80.4074 Y 105.4634 Z -1.0000 I -0.6247 J 2.8900
G02 X 79.3763 Y 105.8491 Z -1.0000 I 0.0107 J 1.6001
G03 X 78.1767 Y 105.7687 Z -1.0000 I -0.5588 J -0.6514
G03 X 78.0820 Y 104.6438 Z -1.0000 I 0.7019 J -0.6255
G03 X 79.1371 Y 104.2490 Z -1.0000 I 0.7857 J 0.4926
G03 X 79.5394 Y 104.5019 Z -1.0000 I -0.2617 J 0.8628
G02 X 79.9070 Y 104.7840 Z -1.0000 I 0.9894 J -0.9087
G02 X 80.4869 Y 104.8983 Z -1.0000 I 0.4837 J -0.9264
G03 X 81.0847 Y 104.8707 Z -1.0000 I 0.5978 J 6.4684
M5
G4 P0.1

(Change tool to Cylindrical cutter)

M5
G4 P0.1
G00 X 69.0620 Y 87.0060

M3 S300
G03 X 71.3330 Y 87.2932 Z -1.0000 I -0.0013 J 9.1332 F 1000.0000
G02 X 73.3780 Y 86.3990 Z -1.0000 I 0.4507 J -1.7547
G02 X 73.5565 Y 85.3312 Z -1.0000 I -1.4730 J -0.7951
G03 X 73.4647 Y 84.2120 Z -1.0000 I 6.7764 J -1.1191
G03 X 73.4774 Y 81.4602 Z -1.0000 I 296.9526 J 0.0000
G02 X 73.4643 Y 78.7087 Z -1.0000 I -97.8851 J -0.9071
G02 X 73.0842 Y 77.6122 Z -1.0000 I -1.8730 J 0.0352
G03 X 73.6341 Y 76.2718 Z -1.0000 I 0.6702 J -0.5080
G03 X 74.4570 Y 76.5331 Z -1.0000 I 0.1418 J 0.9800
G03 X 74.7467 Y 77.3540 Z -1.0000 I -0.6573 J 0.6935
G03 X 74.4066 Y 77.9575 Z -1.0000 I -0.9269 J -0.1248
G02 X 74.0699 Y 78.5397 Z -1.0000 I 0.5861 J 0.7274
G02 X 73.9298 Y 81.9560 Z -1.0000 I 14.7055 J 2.3141
G03 X 74.0573 Y 85.3974 Z -1.0000 I -46.3527 J 3.4414
G03 X 74.0445 Y 85.8220 Z -1.0000 I -7.0177 J -0.0000
G02 X 74.1084 Y 86.2407 Z -1.0000 I 1.0048 J 0.0609
G02 X 74.5288 Y 87.0323 Z -1.0000 I 3.3596 J -1.2768
G03 X 74.3868 Y 88.0700 Z -1.0000 I -0.6287 J 0.4425
G03 X 73.3149 Y 88.0420 Z -1.0000 I -0.5197 J -0.6354
G02 X 72.4483 Y 87.6850 Z -1.0000 I -0.9268 J 1.0196
G02 X 71.0497 Y 87.6352 Z -1.0000 I -3.7791 J 86.4533
G02 X 69.6547 Y 87.6000 Z -1.0000 I -8.3740 J 304.2973
G02 X 69.1080 Y 87.6634 Z -1.0000 I -0.0476 J 1.9781
G03 X 68.5941 Y 87.5443 Z -1.0000 I -0.1433 J -0.5499
G03 X 68.3595 Y 86.4331 Z -1.0000 I 0.6103 J -0.7091
G02 X 68.4183 Y 85.1434 Z -1.0000 I -1.5016 J -0.7146
G02 X 67.4471 Y 83.8557 Z -1.0000 I -2.6205 J 0.9664
G03 X 66.1833 Y 82.7727 Z -1.0000 I 6.3994 J -8.7461
G03 X 65.2114 Y 81.7343 Z -1.0000 I 15.2214 J -15.2215
G02 X 64.1657 Y 80.7820 Z -1.0000 I -4.7269 J 4.1401
G02 X 63.3545 Y 80.4388 Z -1.0000 I -1.1530 J 1.5947
G03 X 62.7317 Y 79.5555 Z -1.0000 I 0.1332 J -0.7552
G03 X 63.4127 Y 78.8307 Z -1.0000 I 0.8860 J 0.1502
G03 X 64.3501 Y 79.1502 Z -1.0000 I 0.2131 J 0.9097
G03 X 64.5855 Y 79.8128 Z -1.0000 I -0.8113 J 0.6614
G02 X 64.8370 Y 80.4867 Z -1.0000 I 1.0255 J 0.0012
G02 X 66.2877 Y 81.9932 Z -1.0000 I 15.4804 J -13.4546
G03 X 67.7920 Y 83.4501 Z -1.0000 I -44.5951 J 47.5560
G02 X 68.4789 Y 84.0658 Z -1.0000 I 5.9738 J -5.9738
G03 X 69.0110 Y 84.8047 Z -1.0000 I -1.0657 J 1.3282
G03 X 69.1336 Y 85.8904 Z -1.0000 I -2.1506 J 0.7927
G02 X 69.0620 Y 87.0061 Z -1.0000 I 8.6561 J 1.1156
M5
G4 P0.1

(Change tool to Cylindrical cutter)

M5
G4 P0.1
G00 X 69.0620 Y 94.6261

M3 S300
G01 X 78.5447 Y 94.6261 Z -1.0000 F 1000.0000
G01 X 78.5447 Y 83.7040 Z -1.0000
G03 X 78.6419 Y 81.0705 Z -1.0000 I 35.7103 J -0.0000
G02 X 78.5322 Y 78.4560 Z -1.0000 I -11.2967 J -0.8354
G02 X 78.2318 Y 77.9121 Z -1.0000 I -0.9021 J 0.1434
G03 X 77.9201 Y 77.3541 Z -1.0000 I 0.6270 J -0.7162
G03 X 78.3465 Y 76.4042 Z -1.0000 I 0.9246 J -0.1556
G03 X 79.3825 Y 76.3866 Z -1.0000 I 0.5326 J 0.8491
G03 X 79.5758 Y 77.7213 Z -1.0000 I -0.4320 J 0.7439
G02 X 79.1378 Y 78.7934 Z -1.0000 I 1.1665 J 1.1021
G02 X 79.1195 Y 82.6455 Z -1.0000 I 136.9707 J 2.5780
G03 X 79.1374 Y 86.4981 Z -1.0000 I -414.2272 J 3.8525
G01 X 79.1374 Y 92.7634 Z -1.0000
G02 X 79.2741 Y 93.9770 Z -1.0000 I 5.4560 J -0.0000
G03 X 79.0504 Y 95.0961 Z -1.0000 I -1.3595 J 0.3102
G03 X 77.8590 Y 95.2252 Z -1.0000 I -0.6531 J -0.4652
G02 X 76.6485 Y 95.4852 Z -1.0000 I -0.5118 J 0.5651
G02 X 76.4537 Y 97.0942 Z -1.0000 I 2.5876 J 1.1296
G03 X 76.5974 Y 98.7747 Z -1.0000 I -9.7543 J 1.6805
G01 X 76.5974 Y 106.5640 Z -1.0000
G03 X 76.5080 Y 109.0279 Z -1.0000 I -34.0155 J -0.0000
G02 X 76.6099 Y 111.4744 Z -1.0000 I 10.7253 J 0.7789
G02 X 76.9471 Y 112.0850 Z -1.0000 I 1.0081 J -0.1583
G03 X 77.2621 Y 112.7447 Z -1.0000 I -0.6054 J 0.6940
G03 X 76.9966 Y 113.4032 Z -1.0000 I -0.8691 J 0.0324
G03 X 76.3433 Y 113.6687 Z -1.0000 I -0.6579 J -0.6823
G03 X 75.6099 Y 113.3030 Z -1.0000 I -0.0043 J -0.9098
G03 X 75.4605 Y 112.4911 Z -1.0000 I 0.7464 J -0.5571
G03 X 75.7240 Y 112.0634 Z -1.0000 I 0.8900 J 0.2533
G02 X 75.9777 Y 111.6407 Z -1.0000 I -0.5910 J -0.6423
G02 X 76.0773 Y 110.2986 Z -1.0000 I -3.6288 J -0.9439
G03 X 76.0047 Y 108.9347 Z -1.0000 I 12.7702 J -1.3639
G01 X 76.0047 Y 103.1774 Z -1.0000
G01 X 76.0047 Y 95.3034 Z -1.0000
G01 X 70.5013 Y 95.3034 Z -1.0000
G02 X 69.4709 Y 95.4230 Z -1.0000 I -0.0000 J 4.4993
G03 X 68.5322 Y 95.1559 Z -1.0000 I -0.2297 J -0.9762
G03 X 68.2785 Y 93.9404 Z -1.0000 I 0.8015 J -0.8015
G02 X 68.3415 Y 92.5940 Z -1.0000 I -1.9527 J -0.7661
G02 X 67.2430 Y 90.5709 Z -1.0000 I -5.1354 J 1.4787
G03 X 65.8165 Y 88.6994 Z -1.0000 I 14.0563 J -12.1930
G03 X 64.9486 Y 87.2559 Z -1.0000 I 15.0033 J -10.0032
G02 X 63.9381 Y 85.9323 Z -1.0000 I -4.6744 J 2.5210
G02 X 63.4387 Y 85.7037 Z -1.0000 I -0.5810 J 0.6096
G03 X 62.9366 Y 85.4487 Z -1.0000 I 0.0749 J -0.7694
G03 X 62.7007 Y 84.8905 Z -1.0000 I 0.7017 J -0.6254
G03 X 62.8595 Y 84.3056 Z -1.0000 I 0.9151 J -0.0656
G03 X 63.7252 Y 83.9021 Z -1.0000 I 0.7748 J 0.5319
G03 X 64.4892 Y 84.4673 Z -1.0000 I -0.0895 J 0.9199
G03 X 64.5428 Y 85.0628 Z -1.0000 I -0.9220 J 0.3831
G02 X 64.6163 Y 85.6514 Z -1.0000 I 0.8725 J 0.1899
G02 X 66.1391 Y 88.1092 Z -1.0000 I 14.0921 J -7.0305
G03 X 67.8202 Y 90.4774 Z -1.0000 I -39.5500 J 29.8556
G02 X 68.4764 Y 91.3739 Z -1.0000 I 10.5611 J -7.0413
G03 X 69.0026 Y 92.3401 Z -1.0000 I -2.4393 J 1.9549
G03 X 69.1241 Y 93.4711 Z -1.0000 I -2.5341 J 0.8445
G02 X 69.0620 Y 94.6261 Z -1.0000 I 10.7005 J 1.1549
M5
G4 P0.1

(Change tool to Cylindrical cutter)

M5
G4 P0.1
G00 X 63.9820 Y 74.9834

M3 S300
G01 X 63.9820 Y 74.3061 Z -1.0000 F 1000.0000
G02 X 63.5252 Y 74.7092 Z -1.0000 I -0.0793 J 0.3705
G02 X 63.9820 Y 74.9834 Z -1.0000 I 0.3277 J -0.0283
M5
G4 P0.1

(Change tool to Cylindrical cutter)

M5
G4 P0.1
G00 X 63.6433 Y 80.2327

M3 S300
G01 X 64.0667 Y 79.8094 Z -1.0000 F 1000.0000
G02 X 63.5947 Y 79.6411 Z -1.0000 I -0.2879 J 0.0615
G02 X 63.6433 Y 80.2327 Z -1.0000 I 0.2238 J 0.2794
M5
G4 P0.1

(Change tool to Cylindrical cutter)

M5
G4 P0.1
G00 X 63.5587 Y 85.2280

M3 S300
G01 X 64.0667 Y 84.8894 Z -1.0000 F 1000.0000
G02 X 63.5227 Y 84.6832 Z -1.0000 I -0.3384 J 0.0723
G02 X 63.5587 Y 85.2280 Z -1.0000 I 0.1926 J 0.2609
M5
G4 P0.1

(Change tool to Cylindrical cutter)

M5
G4 P0.1
G00 X 63.9820 Y 107.4107

M3 S300
G01 X 63.3047 Y 107.4107 Z -1.0000 F 1000.0000
G02 X 63.6359 Y 107.8020 Z -1.0000 I 0.3326 J 0.0543
G02 X 63.9820 Y 107.4107 Z -1.0000 I 0.0015 J -0.3475
M5
G4 P0.1

(Change tool to Cylindrical cutter)

M5
G4 P0.1
G00 X 63.8973 Y 113.0834

M3 S300
G01 X 63.8973 Y 112.4061 Z -1.0000 F 1000.0000
G02 X 63.5300 Y 112.7975 Z -1.0000 I 0.0124 J 0.3798
G02 X 63.8973 Y 113.0834 Z -1.0000 I 0.3022 J -0.0093
M5
G4 P0.1

(Change tool to Cylindrical cutter)

M5
G4 P0.1
G00 X 63.8973 Y 118.1634

M3 S300
G01 X 63.8973 Y 117.4861 Z -1.0000 F 1000.0000
G02 X 63.5300 Y 117.8775 Z -1.0000 I 0.0124 J 0.3798
G02 X 63.8973 Y 118.1634 Z -1.0000 I 0.3022 J -0.0093
M5
G4 P0.1

(Change tool to Cylindrical cutter)

M5
G4 P0.1
G00 X 63.2200 Y 120.3647

M3 S300
G01 X 63.6433 Y 120.7881 Z -1.0000 F 1000.0000
G02 X 63.7142 Y 120.3037 Z -1.0000 I -0.1411 J -0.2680
G02 X 63.2200 Y 120.3647 Z -1.0000 I -0.2228 J 0.2274
M5
G4 P0.1

(Change tool to Cylindrical cutter)

M5
G4 P0.1
G00 X 63.8973 Y 123.2434

M3 S300
G01 X 63.8973 Y 122.5661 Z -1.0000 F 1000.0000
G02 X 63.5300 Y 122.9575 Z -1.0000 I 0.0124 J 0.3798
G02 X 63.8973 Y 123.2434 Z -1.0000 I 0.3022 J -0.0093
M5
G4 P0.1

(Change tool to Cylindrical cutter)

M5
G4 P0.1
G00 X 63.3893 Y 109.9507

M3 S300
G01 X 63.3893 Y 110.5434 Z -1.0000 F 1000.0000
G02 X 63.7892 Y 110.2066 Z -1.0000 I 0.0713 J -0.3211
G02 X 63.3893 Y 109.9507 Z -1.0000 I -0.2907 J 0.0139
M5
G4 P0.1

(Change tool to Cylindrical cutter)

M5
G4 P0.1
G00 X 63.3893 Y 115.0307

M3 S300
G01 X 63.3893 Y 115.6233 Z -1.0000 F 1000.0000
G02 X 63.7892 Y 115.2866 Z -1.0000 I 0.0713 J -0.3211
G02 X 63.3893 Y 115.0307 Z -1.0000 I -0.2907 J 0.0139
M5
G4 P0.1

(Change tool to Cylindrical cutter)

M5
G4 P0.1
G00 X 63.8973 Y 102.7540

M3 S300
G01 X 64.0667 Y 102.4153 Z -1.0000 F 1000.0000
G01 X 63.8973 Y 102.7540 Z -1.0000
M5
G4 P0.1

(Change tool to Cylindrical cutter)

M5
G4 P0.1
G00 X 63.9820 Y 97.6740

M3 S300
G01 X 64.0667 Y 97.6740 Z -1.0000 F 1000.0000
G01 X 64.0667 Y 97.3353 Z -1.0000
G01 X 63.9820 Y 97.6740 Z -1.0000
M5
G4 P0.1

(Change tool to Cylindrical cutter)

M5
G4 P0.1
G00 X 68.3847 Y 105.4633

M3 S300
G01 X 69.0620 Y 105.4633 Z -1.0000 F 1000.0000
G01 X 69.0620 Y 104.7860 Z -1.0000
G01 X 68.3847 Y 104.7860 Z -1.0000
G01 X 68.3847 Y 105.4633 Z -1.0000
M5
G4 P0.1

(Change tool to Cylindrical cutter)

M5
G4 P0.1
G00 X 68.3847 Y 74.3907

M3 S300
G01 X 68.3847 Y 75.0680 Z -1.0000 F 1000.0000
G02 X 68.9578 Y 74.8964 Z -1.0000 I 0.1302 J -0.6083
G02 X 69.0620 Y 74.3060 Z -1.0000 I -0.3761 J -0.3707
G01 X 68.3847 Y 74.3907 Z -1.0000
M5
G4 P0.1

(Change tool to Cylindrical cutter)

M5
G4 P0.1
G00 X 68.3847 Y 77.6080

M3 S300
G02 X 68.8331 Y 77.5851 Z -1.0000 I 0.1815 J -0.8477 F 1000.0000
G02 X 69.1467 Y 77.2694 Z -1.0000 I -0.1495 J -0.4620
G01 X 68.8927 Y 76.7614 Z -1.0000
G01 X 68.3847 Y 76.8461 Z -1.0000
G01 X 68.3847 Y 77.6081 Z -1.0000
M5
G4 P0.1

(Change tool to Cylindrical cutter)

M5
G4 P0.1
G00 X 68.8927 Y 97.8434

M3 S300
G01 X 68.8927 Y 97.1661 Z -1.0000 F 1000.0000
G02 X 68.5918 Y 97.5088 Z -1.0000 I 0.0562 J 0.3528
G02 X 68.8927 Y 97.8434 Z -1.0000 I 0.3262 J 0.0092
M5
G4 P0.1

(Change tool to Cylindrical cutter)

M5
G4 P0.1
G00 X 68.3847 Y 102.8387

M3 S300
G01 X 69.0620 Y 102.7540 Z -1.0000 F 1000.0000
G02 X 68.6939 Y 102.4943 Z -1.0000 I -0.3106 J 0.0495
G02 X 68.3847 Y 102.8387 Z -1.0000 I 0.0694 J 0.3733
M5
G4 P0.1

(Change tool to Cylindrical cutter)

M5
G4 P0.1
G00 X 73.2953 Y 74.5601

M3 S300
G01 X 73.6340 Y 75.1527 Z -1.0000 F 1000.0000
G01 X 74.1420 Y 75.0680 Z -1.0000
G01 X 74.1420 Y 74.3060 Z -1.0000
G02 X 73.6808 Y 74.3076 Z -1.0000 I -0.2279 J 0.8028
G02 X 73.2953 Y 74.5600 Z -1.0000 I 0.2205 J 0.7574
M5
G4 P0.1

(Change tool to Cylindrical cutter)

M5
G4 P0.1
G00 X 73.4647 Y 77.6080

M3 S300
G01 X 74.1420 Y 77.6080 Z -1.0000 F 1000.0000
G02 X 73.8020 Y 77.0779 Z -1.0000 I -0.3406 J -0.1557
G02 X 73.4647 Y 77.6080 Z -1.0000 I -0.0006 J 0.3720
M5
G4 P0.1

(Change tool to Cylindrical cutter)

M5
G4 P0.1
G00 X 73.4647 Y 87.0907

M3 S300
G01 X 73.5493 Y 87.0060 Z -1.0000 F 1000.0000
G01 X 73.4647 Y 87.0907 Z -1.0000
M5
G4 P0.1

(Change tool to Cylindrical cutter)

M5
G4 P0.1
G00 X 73.4647 Y 87.6834

M3 S300
G02 X 74.0123 Y 87.5503 Z -1.0000 I 0.1848 J -0.4329 F 1000.0000
G02 X 74.1420 Y 87.0060 Z -1.0000 I -0.4891 J -0.4041
G01 X 73.6340 Y 87.1754 Z -1.0000
G01 X 73.4647 Y 87.6834 Z -1.0000
M5
G4 P0.1

(Change tool to Cylindrical cutter)

M5
G4 P0.1
G00 X 73.4647 Y 97.2507

M3 S300
G01 X 73.4647 Y 97.8434 Z -1.0000 F 1000.0000
G01 X 74.1420 Y 97.8434 Z -1.0000
G02 X 74.0125 Y 97.3149 Z -1.0000 I -0.5415 J -0.1474
G02 X 73.4647 Y 97.2507 Z -1.0000 I -0.3115 J 0.2881
M5
G4 P0.1

(Change tool to Cylindrical cutter)

M5
G4 P0.1
G00 X 76.6820 Y 112.4060

M3 S300
G01 X 76.0047 Y 112.4060 Z -1.0000 F 1000.0000
G02 X 76.3238 Y 112.8413 Z -1.0000 I 0.3290 J 0.0934
G02 X 76.6820 Y 112.4060 Z -1.0000 I 0.0103 J -0.3566
M5
G4 P0.1

(Change tool to Cylindrical cutter)

M5
G4 P0.1
G00 X 76.0047 Y 122.6507

M3 S300
G01 X 76.0047 Y 123.2433 Z -1.0000 F 1000.0000
G01 X 76.6820 Y 123.2433 Z -1.0000
G01 X 76.6820 Y 122.5660 Z -1.0000
G01 X 76.0047 Y 122.6507 Z -1.0000
M5
G4 P0.1

(Change tool to Cylindrical cutter)

M5
G4 P0.1
G00 X 78.5447 Y 77.6080

M3 S300
G01 X 79.2220 Y 77.6080 Z -1.0000 F 1000.0000
G02 X 78.8820 Y 77.0778 Z -1.0000 I -0.3406 J -0.1557
G02 X 78.5447 Y 77.6080 Z -1.0000 I -0.0006 J 0.3720
M5
G4 P0.1

(Change tool to Cylindrical cutter)

M5
G4 P0.1
G00 X 79.2220 Y 105.4633

M3 S300
G01 X 79.2220 Y 104.7860 Z -1.0000 F 1000.0000
G02 X 78.7652 Y 105.1892 Z -1.0000 I -0.0793 J 0.3705
G02 X 79.2220 Y 105.4633 Z -1.0000 I 0.3277 J -0.0283
M5
G4 P0.1

(Change tool to Cylindrical cutter)

M5
G4 P0.1
G00 X 78.5447 Y 75.0680

M3 S300
G02 X 79.0313 Y 74.6636 Z -1.0000 I 0.0843 J -0.3936 F 1000.0000
G02 X 78.5447 Y 74.3060 Z -1.0000 I -0.3822 J 0.0103
G01 X 78.5447 Y 75.0680 Z -1.0000
M5
G4 P0.1

(Change tool to Cylindrical cutter)

M5
G4 P0.1
G00 X 81.5927 Y 118.2480

M3 S300
G01 X 81.5927 Y 117.5707 Z -1.0000 F 1000.0000
G02 X 81.2918 Y 117.9134 Z -1.0000 I 0.0563 J 0.3528
G02 X 81.5927 Y 118.2480 Z -1.0000 I 0.3262 J 0.0092
M5
G4 P0.1

(Change tool to Cylindrical cutter)

M5
G4 P0.1
G00 X 81.2540 Y 123.2433

M3 S300
G02 X 81.5549 Y 122.9088 Z -1.0000 I -0.0253 J -0.3254 F 1000.0000
G02 X 81.2540 Y 122.5660 Z -1.0000 I -0.3571 J 0.0101
G01 X 81.2540 Y 123.2433 Z -1.0000
M5
G4 P0.1

(End cutting path id: path916-2-3-9)

(Start cutting path id: path916-2-3)
(Change tool to Cylindrical cutter)

M5
G4 P0.1
G00 X 5.8160 Y 66.8553

M3 S300
G01 X 46.4560 Y 66.8553 Z -1.0000 F 1000.0000
G01 X 46.4560 Y 128.6620 Z -1.0000
G01 X 5.8160 Y 128.6620 Z -1.0000
G01 X 5.8160 Y 66.8553 Z -1.0000
M5
G4 P0.1

(Change tool to Cylindrical cutter)

M5
G4 P0.1
G00 X 5.9853 Y 128.4927

M3 S300
G01 X 46.2867 Y 128.4927 Z -1.0000 F 1000.0000
G01 X 46.2867 Y 67.0247 Z -1.0000
G01 X 5.9853 Y 67.0247 Z -1.0000
G01 X 5.9853 Y 128.4927 Z -1.0000
M5
G4 P0.1

(Change tool to Cylindrical cutter)

M5
G4 P0.1
G00 X 13.0973 Y 87.6833

M3 S300
G01 X 13.0973 Y 97.2507 Z -1.0000 F 1000.0000
G03 X 13.6893 Y 97.2824 Z -1.0000 I -0.0000 J 5.5374
G02 X 14.2671 Y 97.1996 Z -1.0000 I 0.1263 J -1.1750
G02 X 14.7380 Y 96.8618 Z -1.0000 I -0.4837 J -1.1717
G03 X 15.2987 Y 96.5834 Z -1.0000 I 0.6170 J 0.5390
G03 X 16.2474 Y 97.1384 Z -1.0000 I 0.0671 J 0.9736
G03 X 16.0414 Y 98.2332 Z -1.0000 I -0.8549 J 0.4059
G03 X 14.9551 Y 98.2520 Z -1.0000 I -0.5534 J -0.5876
G02 X 14.1121 Y 97.8558 Z -1.0000 I -1.1064 J 1.2592
G02 X 13.3520 Y 97.8968 Z -1.0000 I -0.2845 J 1.7906
G03 X 12.6404 Y 97.7076 Z -1.0000 I -0.1925 J -0.7083
G03 X 12.3619 Y 96.6908 Z -1.0000 I 0.7528 J -0.7528
G02 X 12.5047 Y 95.5573 Z -1.0000 I -4.4281 J -1.1335
G01 X 12.5047 Y 89.5460 Z -1.0000
G02 X 12.3454 Y 88.3193 Z -1.0000 I -4.8043 J 0.0000
G03 X 12.6404 Y 87.2263 Z -1.0000 I 1.0981 J -0.2900
G03 X 13.8074 Y 86.9151 Z -1.0000 I 0.8524 J 0.8525
G02 X 15.1293 Y 87.0906 Z -1.0000 I 1.3219 J -4.8902
G01 X 15.1293 Y 72.4433 Z -1.0000
G01 X 8.1020 Y 72.4433 Z -1.0000
G01 X 8.1020 Y 125.1907 Z -1.0000
G01 X 14.7060 Y 125.1907 Z -1.0000
G01 X 17.6693 Y 125.1396 Z -1.0000
G01 X 19.0240 Y 123.9207 Z -1.0000
G01 X 21.9873 Y 120.8727 Z -1.0000
G03 X 21.7186 Y 120.3880 Z -1.0000 I 0.3522 J -0.5122
G03 X 21.9995 Y 119.8718 Z -1.0000 I 0.5684 J -0.0252
G03 X 23.1360 Y 119.5150 Z -1.0000 I 1.3463 J 2.3000
G03 X 24.1735 Y 120.0453 Z -1.0000 I 0.0876 J 1.1088
G03 X 24.2551 Y 120.5049 Z -1.0000 I -0.5492 J 0.3345
G03 X 24.0068 Y 120.8945 Z -1.0000 I -0.6241 J -0.1238
G03 X 23.4213 Y 121.0372 Z -1.0000 I -0.4650 J -0.6356
G02 X 22.8340 Y 121.1290 Z -1.0000 I -0.1496 J 0.9670
G02 X 21.8836 Y 121.8965 Z -1.0000 I 1.2767 J 2.5534
G03 X 21.0560 Y 122.8200 Z -1.0000 I -8.8400 J -7.0889
G02 X 19.6736 Y 124.3938 Z -1.0000 I 11.4664 J 11.4664
G03 X 18.0927 Y 125.6963 Z -1.0000 I -3.6293 J -2.7943
G03 X 17.0960 Y 125.8575 Z -1.0000 I -0.7558 J -1.5114
G02 X 16.0607 Y 125.7833 Z -1.0000 I -1.0353 J 7.1902
G01 X 11.1500 Y 125.7833 Z -1.0000
G01 X 8.5253 Y 125.7833 Z -1.0000
G02 X 8.0432 Y 125.8216 Z -1.0000 I -0.0000 J 3.0568
G03 X 7.5964 Y 125.6476 Z -1.0000 I -0.0748 J -0.4686
G03 X 7.3166 Y 124.3110 Z -1.0000 I 1.1972 J -0.9482
G02 X 7.5093 Y 122.8200 Z -1.0000 I -5.6700 J -1.4910
G01 X 7.5093 Y 114.8613 Z -1.0000
G01 X 7.5093 Y 83.9580 Z -1.0000
G01 X 7.5093 Y 74.7293 Z -1.0000
G01 X 7.5093 Y 72.6127 Z -1.0000
G03 X 7.5192 Y 72.2054 Z -1.0000 I 9.2026 J 0.0188
G03 X 7.7759 Y 71.8776 Z -1.0000 I 0.3590 J 0.0166
G03 X 8.7341 Y 71.7943 Z -1.0000 I 0.6824 J 2.2987
G02 X 9.7107 Y 71.8507 Z -1.0000 I 0.9766 J -8.4338
G01 X 13.7747 Y 71.8507 Z -1.0000
G02 X 14.7614 Y 71.7109 Z -1.0000 I 0.0000 J -3.5535
G03 X 15.6222 Y 71.9865 Z -1.0000 I 0.2251 J 0.7789
G03 X 15.7534 Y 72.4583 Z -1.0000 I -0.4948 J 0.3918
G02 X 15.7220 Y 72.9514 Z -1.0000 I 3.8529 J 0.4930
G01 X 15.7220 Y 75.4914 Z -1.0000
G01 X 15.7220 Y 84.2120 Z -1.0000
G01 X 15.7220 Y 86.4980 Z -1.0000
G02 X 15.7516 Y 87.0015 Z -1.0000 I 4.3025 J -0.0000
G03 X 15.6350 Y 87.4871 Z -1.0000 I -0.7173 J 0.0845
G03 X 14.4791 Y 87.8950 Z -1.0000 I -0.8500 J -0.5671
G02 X 13.0973 Y 87.6834 Z -1.0000 I -1.3817 J 4.4048
M5
G4 P0.1

(Change tool to Cylindrical cutter)

M5
G4 P0.1
G00 X 10.5573 Y 79.3860

M3 S300
G03 X 11.1924 Y 79.4193 Z -1.0000 I -0.0000 J 6.0704 F 1000.0000
G02 X 11.8130 Y 79.3352 Z -1.0000 I 0.1381 J -1.3125
G02 X 12.3890 Y 78.9933 Z -1.0000 I -0.7599 J -1.9363
G03 X 13.0970 Y 78.8490 Z -1.0000 I 0.4873 J 0.5816
G03 X 13.7557 Y 79.8166 Z -1.0000 I -0.2715 J 0.8928
G03 X 12.9280 Y 80.6455 Z -1.0000 I -0.9016 J -0.0725
G03 X 12.3114 Y 80.4338 Z -1.0000 I -0.0664 J -0.8103
G02 X 11.8096 Y 80.1142 Z -1.0000 I -1.1495 J 1.2507
G02 X 11.1915 Y 80.0275 Z -1.0000 I -0.4772 J 1.1568
G03 X 10.5573 Y 80.0634 Z -1.0000 I -0.6342 J -5.5976
G01 X 10.5573 Y 84.4660 Z -1.0000
G03 X 11.1924 Y 84.4993 Z -1.0000 I -0.0000 J 6.0704
G02 X 11.8130 Y 84.4152 Z -1.0000 I 0.1381 J -1.3125
G02 X 12.3890 Y 84.0733 Z -1.0000 I -0.7599 J -1.9363
G03 X 13.0970 Y 83.9290 Z -1.0000 I 0.4873 J 0.5816
G03 X 13.7557 Y 84.8966 Z -1.0000 I -0.2715 J 0.8928
G03 X 12.9280 Y 85.7255 Z -1.0000 I -0.9016 J -0.0725
G03 X 12.3114 Y 85.5138 Z -1.0000 I -0.0664 J -0.8103
G02 X 11.8096 Y 85.1942 Z -1.0000 I -1.1495 J 1.2507
G02 X 11.1915 Y 85.1075 Z -1.0000 I -0.4772 J 1.1569
G03 X 10.5573 Y 85.1434 Z -1.0000 I -0.6342 J -5.5977
G01 X 10.5573 Y 99.7907 Z -1.0000
G01 X 14.3673 Y 99.7907 Z -1.0000
G01 X 14.3673 Y 99.1134 Z -1.0000
G01 X 16.3993 Y 99.1134 Z -1.0000
G01 X 16.3993 Y 101.0607 Z -1.0000
G01 X 14.3673 Y 101.0607 Z -1.0000
G01 X 14.3673 Y 100.3834 Z -1.0000
G01 X 11.7427 Y 100.3834 Z -1.0000
G01 X 10.6931 Y 100.5191 Z -1.0000
G01 X 10.5573 Y 101.9920 Z -1.0000
G01 X 10.5573 Y 106.1407 Z -1.0000
G01 X 10.5573 Y 122.5660 Z -1.0000
G03 X 12.1690 Y 122.6590 Z -1.0000 I -0.0000 J 14.0231
G02 X 13.7747 Y 122.6385 Z -1.0000 I 0.7233 J -6.2516
G02 X 14.5516 Y 122.4239 Z -1.0000 I -0.4401 J -3.1078
G03 X 15.3833 Y 122.2561 Z -1.0000 I 0.8317 J 1.9772
G03 X 16.1971 Y 122.3638 Z -1.0000 I 0.0000 J 3.1305
G03 X 16.6019 Y 123.1550 Z -1.0000 I -0.1558 J 0.5789
G03 X 16.0033 Y 123.5761 Z -1.0000 I -0.6099 J -0.2308
G03 X 15.2987 Y 123.5820 Z -1.0000 I -0.6893 J -40.1848
G03 X 14.5927 Y 123.4551 Z -1.0000 I 0.0010 J -2.0326
G02 X 13.9364 Y 123.2666 Z -1.0000 I -1.5735 J 4.2419
G02 X 12.8057 Y 123.1561 Z -1.0000 I -1.0803 J 5.2126
G03 X 11.6580 Y 123.1588 Z -1.0000 I -0.7597 J -80.1711
G02 X 10.8066 Y 123.2787 Z -1.0000 I -0.0147 J 2.9777
G03 X 10.0645 Y 123.0292 Z -1.0000 I -0.1922 J -0.6566
G03 X 9.8564 Y 122.0711 Z -1.0000 I 0.9587 J -0.7099
G02 X 9.9647 Y 121.0420 Z -1.0000 I -4.8371 J -1.0291
G01 X 9.9647 Y 115.6234 Z -1.0000
G01 X 9.9647 Y 82.0107 Z -1.0000
G01 X 9.9647 Y 76.7613 Z -1.0000
G02 X 9.8776 Y 75.6468 Z -1.0000 I -7.1794 J -0.0000
G03 X 10.0158 Y 74.5726 Z -1.0000 I 1.9107 J -0.3003
G03 X 10.7636 Y 74.2391 Z -1.0000 I 0.5566 J 0.2430
G02 X 11.5721 Y 74.3540 Z -1.0000 I 0.7213 J -2.1741
G02 X 12.4621 Y 74.0027 Z -1.0000 I -0.0549 J -1.4422
G03 X 13.6513 Y 74.2250 Z -1.0000 I 0.5062 J 0.5845
G03 X 13.6733 Y 75.0523 Z -1.0000 I -0.8217 J 0.4357
G03 X 13.0127 Y 75.5564 Z -1.0000 I -0.8092 J -0.3756
G03 X 11.9982 Y 75.2281 Z -1.0000 I -0.1922 J -1.1377
G02 X 10.9010 Y 74.9259 Z -1.0000 I -0.8097 J 0.7970
G02 X 10.5442 Y 75.4098 Z -1.0000 I 0.1210 J 0.4626
G03 X 10.5573 Y 75.9994 Z -1.0000 I -13.2665 J 0.5896
G01 X 10.5573 Y 79.3860 Z -1.0000
M5
G4 P0.1

(Change tool to Cylindrical cutter)

M5
G4 P0.1
G00 X 12.5047 Y 74.3907

M3 S300
G01 X 12.5047 Y 74.9834 Z -1.0000 F 1000.0000
G02 X 12.9970 Y 74.6259 Z -1.0000 I 0.1392 J -0.3261
G02 X 12.5047 Y 74.3907 Z -1.0000 I -0.3158 J 0.0280
M5
G4 P0.1

(Change tool to Cylindrical cutter)

M5
G4 P0.1
G00 X 12.5047 Y 79.4707

M3 S300
G01 X 12.5047 Y 80.0633 Z -1.0000 F 1000.0000
G02 X 12.9971 Y 79.7059 Z -1.0000 I 0.1392 J -0.3261
G02 X 12.5047 Y 79.4707 Z -1.0000 I -0.3158 J 0.0280
M5
G4 P0.1

(Change tool to Cylindrical cutter)

M5
G4 P0.1
G00 X 12.5047 Y 84.5507

M3 S300
G01 X 12.5047 Y 85.1433 Z -1.0000 F 1000.0000
G02 X 12.9971 Y 84.7859 Z -1.0000 I 0.1392 J -0.3261
G02 X 12.5047 Y 84.5507 Z -1.0000 I -0.3158 J 0.0280
M5
G4 P0.1

(Change tool to Cylindrical cutter)

M5
G4 P0.1
G00 X 14.0975 Y 107.6647

M3 S300
G03 X 15.3903 Y 106.4007 Z -1.0000 I 1.3142 J 0.0511 F 1000.0000
G03 X 16.6371 Y 107.7491 Z -1.0000 I 0.0200 J 1.2321
G03 X 15.3407 Y 108.9422 Z -1.0000 I -1.3117 J -0.1244
G03 X 14.0975 Y 107.6647 Z -1.0000 I -0.0143 J -1.2298
M5
G4 P0.1

(Change tool to Cylindrical cutter)

M5
G4 P0.1
G00 X 14.0975 Y 110.2047

M3 S300
G03 X 15.3903 Y 108.9407 Z -1.0000 I 1.3142 J 0.0511 F 1000.0000
G03 X 16.6371 Y 110.2891 Z -1.0000 I 0.0200 J 1.2321
G03 X 15.3407 Y 111.4822 Z -1.0000 I -1.3117 J -0.1244
G03 X 14.0975 Y 110.2047 Z -1.0000 I -0.0143 J -1.2298
M5
G4 P0.1

(Change tool to Cylindrical cutter)

M5
G4 P0.1
G00 X 14.0975 Y 112.7447

M3 S300
G03 X 15.3903 Y 111.4807 Z -1.0000 I 1.3142 J 0.0511 F 1000.0000
G03 X 16.6371 Y 112.8291 Z -1.0000 I 0.0200 J 1.2321
G03 X 15.3407 Y 114.0222 Z -1.0000 I -1.3117 J -0.1244
G03 X 14.0975 Y 112.7447 Z -1.0000 I -0.0143 J -1.2298
M5
G4 P0.1

(Change tool to Cylindrical cutter)

M5
G4 P0.1
G00 X 14.0975 Y 115.2847

M3 S300
G03 X 15.3903 Y 114.0207 Z -1.0000 I 1.3142 J 0.0511 F 1000.0000
G03 X 16.6371 Y 115.3691 Z -1.0000 I 0.0200 J 1.2321
G03 X 15.3407 Y 116.5622 Z -1.0000 I -1.3117 J -0.1244
G03 X 14.0975 Y 115.2847 Z -1.0000 I -0.0143 J -1.2298
M5
G4 P0.1

(Change tool to Cylindrical cutter)

M5
G4 P0.1
G00 X 14.0975 Y 117.8247

M3 S300
G03 X 15.3903 Y 116.5607 Z -1.0000 I 1.3142 J 0.0511 F 1000.0000
G03 X 16.6371 Y 117.9091 Z -1.0000 I 0.0200 J 1.2321
G03 X 15.3407 Y 119.1022 Z -1.0000 I -1.3117 J -0.1244
G03 X 14.0975 Y 117.8247 Z -1.0000 I -0.0143 J -1.2298
M5
G4 P0.1

(Change tool to Cylindrical cutter)

M5
G4 P0.1
G00 X 14.0975 Y 120.3647

M3 S300
G03 X 15.3903 Y 119.1007 Z -1.0000 I 1.3142 J 0.0511 F 1000.0000
G03 X 16.6371 Y 120.4491 Z -1.0000 I 0.0200 J 1.2321
G03 X 15.3407 Y 121.6422 Z -1.0000 I -1.3117 J -0.1244
G03 X 14.0975 Y 120.3647 Z -1.0000 I -0.0143 J -1.2298
M5
G4 P0.1

(Change tool to Cylindrical cutter)

M5
G4 P0.1
G00 X 17.5847 Y 89.5460

M3 S300
G01 X 17.5847 Y 74.8987 Z -1.0000 F 1000.0000
G01 X 17.5847 Y 71.0040 Z -1.0000
G02 X 17.5181 Y 70.2361 Z -1.0000 I -4.4605 J 0.0000
G03 X 17.6717 Y 69.5069 Z -1.0000 I 0.9877 J -0.1726
G03 X 18.2744 Y 69.2510 Z -1.0000 I 0.4964 J 0.3312
G02 X 18.9393 Y 69.3107 Z -1.0000 I 0.6650 J -3.6728
G01 X 22.6647 Y 69.3107 Z -1.0000
G01 X 37.9893 Y 69.3107 Z -1.0000
G01 X 42.1380 Y 69.3107 Z -1.0000
G02 X 42.8948 Y 69.2306 Z -1.0000 I -0.0000 J -3.6185
G03 X 43.5750 Y 69.5069 Z -1.0000 I 0.1367 J 0.6389
G03 X 43.6915 Y 69.9925 Z -1.0000 I -0.6007 J 0.4010
G02 X 43.6620 Y 70.4960 Z -1.0000 I 4.2712 J 0.5035
G01 X 43.6620 Y 72.7820 Z -1.0000
G01 X 43.6620 Y 81.5874 Z -1.0000
G01 X 43.6620 Y 111.5593 Z -1.0000
G01 X 43.6620 Y 116.1314 Z -1.0000
G02 X 43.7387 Y 117.0682 Z -1.0000 I 5.7570 J -0.0000
G03 X 43.5992 Y 117.9671 Z -1.0000 I -1.4376 J 0.2371
G03 X 43.0327 Y 118.2282 Z -1.0000 I -0.4489 J -0.2289
G02 X 42.3920 Y 118.1667 Z -1.0000 I -0.5390 J 2.2465
G02 X 41.2775 Y 118.5567 Z -1.0000 I 0.0907 J 2.0466
G03 X 40.0941 Y 118.3290 Z -1.0000 I -0.4853 J -0.6670
G03 X 40.0438 Y 117.6085 Z -1.0000 I 0.6467 J -0.4071
G03 X 40.6143 Y 117.1670 Z -1.0000 I 0.6995 J 0.3145
G03 X 41.2173 Y 117.3264 Z -1.0000 I 0.1265 J 0.7417
G02 X 41.7223 Y 117.5970 Z -1.0000 I 0.9416 J -1.1506
G02 X 42.3811 Y 117.6344 Z -1.0000 I 0.4054 J -1.3193
G03 X 43.0693 Y 117.5707 Z -1.0000 I 0.6883 J 3.6845
G01 X 43.0693 Y 69.9033 Z -1.0000
G01 X 24.6120 Y 69.9033 Z -1.0000
G01 X 19.9553 Y 69.9033 Z -1.0000
G01 X 18.3131 Y 70.0391 Z -1.0000
G01 X 18.1773 Y 71.8507 Z -1.0000
G01 X 18.1773 Y 76.9307 Z -1.0000
G01 X 23.9347 Y 76.9307 Z -1.0000
G03 X 25.3773 Y 76.9825 Z -1.0000 I 0.0000 J 20.0969
G02 X 26.8100 Y 76.9182 Z -1.0000 I 0.4419 J -6.1404
G02 X 27.3154 Y 76.6161 Z -1.0000 I -0.1286 J -0.7892
G03 X 27.8297 Y 76.2868 Z -1.0000 I 0.7137 J 0.5483
G03 X 28.4357 Y 76.3424 Z -1.0000 I 0.2177 J 0.9582
G02 X 29.0147 Y 76.3816 Z -1.0000 I 0.3452 J -0.8023
G02 X 30.5666 Y 75.7982 Z -1.0000 I -2.5001 J -9.0072
G02 X 31.9524 Y 74.9015 Z -1.0000 I -2.8473 J -5.9192
G02 X 32.3614 Y 74.2778 Z -1.0000 I -0.8402 J -0.9970
G03 X 32.9941 Y 73.7318 Z -1.0000 I 0.7438 J 0.2222
G03 X 33.7052 Y 73.9681 Z -1.0000 I 0.1197 J 0.8278
G02 X 34.2728 Y 74.3399 Z -1.0000 I 1.1757 J -1.1757
G02 X 35.7019 Y 74.6164 Z -1.0000 I 1.4606 J -3.7173
G02 X 37.1271 Y 74.3396 Z -1.0000 I 0.0288 J -3.6591
G02 X 37.8961 Y 73.9075 Z -1.0000 I -1.4018 J -3.3948
G03 X 38.9501 Y 74.0125 Z -1.0000 I 0.4685 J 0.6394
G03 X 39.1508 Y 74.9800 Z -1.0000 I -0.7154 J 0.6530
G03 X 38.4127 Y 75.6260 Z -1.0000 I -0.9316 J -0.3198
G03 X 37.6057 Y 75.3523 Z -1.0000 I -0.1671 J -0.8342
G02 X 36.8883 Y 74.9883 Z -1.0000 I -0.8120 J 0.7113
G03 X 35.5591 Y 74.8606 Z -1.0000 I 7.3531 J -83.5232
G02 X 34.2716 Y 75.0344 Z -1.0000 I -0.2854 J 2.7414
G02 X 33.8246 Y 75.3447 Z -1.0000 I 0.4253 J 1.0899
G03 X 33.3327 Y 75.6260 Z -1.0000 I -0.6677 J -0.5968
G03 X 32.7780 Y 75.5547 Z -1.0000 I -0.1718 J -0.8566
G02 X 32.2320 Y 75.4974 Z -1.0000 I -0.3517 J 0.7214
G02 X 30.6794 Y 76.0761 Z -1.0000 I 1.7927 J 7.1814
G02 X 29.2876 Y 76.9771 Z -1.0000 I 3.5568 J 7.0200
G02 X 28.8743 Y 77.5967 Z -1.0000 I 0.7857 J 0.9716
G03 X 28.2527 Y 78.1660 Z -1.0000 I -0.7816 J -0.2295
G03 X 27.3366 Y 77.9020 Z -1.0000 I -0.2034 J -1.0155
G02 X 26.3900 Y 77.5234 Z -1.0000 I -0.9495 J 1.0012
G02 X 22.3260 Y 77.5211 Z -1.0000 I -2.7093 J 1223.4146
G03 X 18.2620 Y 77.5234 Z -1.0000 I -4.0640 J -3670.2431
G01 X 18.2620 Y 89.5460 Z -1.0000
G01 X 21.8180 Y 89.5460 Z -1.0000
G01 X 23.1326 Y 89.6818 Z -1.0000
G01 X 23.2577 Y 90.9854 Z -1.0000
G01 X 23.3420 Y 94.5414 Z -1.0000
G01 X 23.3688 Y 96.4854 Z -1.0000
G01 X 23.8447 Y 97.5047 Z -1.0000
G01 X 23.3545 Y 98.6900 Z -1.0000
G01 X 23.4317 Y 101.4828 Z -1.0000
G01 X 23.8447 Y 102.5847 Z -1.0000
G01 X 23.3545 Y 103.6887 Z -1.0000
G01 X 23.3420 Y 107.0720 Z -1.0000
G03 X 23.9313 Y 107.7234 Z -1.0000 I -0.0054 J 0.5971
G03 X 23.2573 Y 108.3419 Z -1.0000 I -0.6775 J -0.0618
G02 X 22.5830 Y 108.3698 Z -1.0000 I 0.0464 J 9.2827
G03 X 21.9382 Y 108.1719 Z -1.0000 I -0.0714 J -0.9168
G03 X 21.9418 Y 107.3253 Z -1.0000 I 0.3365 J -0.4219
G03 X 22.6647 Y 107.0720 Z -1.0000 I 0.7337 J 0.9359
G01 X 22.6534 Y 103.6040 Z -1.0000
G01 X 22.2754 Y 102.5847 Z -1.0000
G01 X 22.6631 Y 101.3994 Z -1.0000
G01 X 22.6534 Y 98.5240 Z -1.0000
G01 X 22.2753 Y 97.5047 Z -1.0000
G01 X 22.6597 Y 96.4040 Z -1.0000
G01 X 22.6646 Y 90.2234 Z -1.0000
G03 X 19.6980 Y 90.1608 Z -1.0000 I 0.0000 J -70.3376
G02 X 16.7383 Y 90.2284 Z -1.0000 I -0.9608 J 22.7612
G02 X 16.0209 Y 90.5924 Z -1.0000 I 0.0946 J 1.0752
G03 X 15.2139 Y 90.8660 Z -1.0000 I -0.6399 J -0.5606
G03 X 14.4456 Y 89.7946 Z -1.0000 I 0.1897 J -0.9473
G03 X 15.4679 Y 88.9638 Z -1.0000 I 0.9486 J 0.1229
G03 X 16.0218 Y 89.2452 Z -1.0000 I -0.0627 J 0.8090
G02 X 16.4928 Y 89.5799 Z -1.0000 I 0.9045 J -0.7741
G02 X 17.0405 Y 89.6248 Z -1.0000 I 0.3488 J -0.8918
G03 X 17.5846 Y 89.5460 Z -1.0000 I 0.8737 J 4.1142
M5
G4 P0.1

(Change tool to Cylindrical cutter)

M5
G4 P0.1
G00 X 20.7173 Y 109.9507

M3 S300
G02 X 22.0544 Y 109.7408 Z -1.0000 I -0.0000 J -4.3652 F 1000.0000
G03 X 23.4266 Y 109.5980 Z -1.0000 I 1.0250 J 3.1854
G03 X 24.0092 Y 109.8043 Z -1.0000 I -0.1368 J 1.3118
G03 X 24.2219 Y 110.4549 Z -1.0000 I -0.2976 J 0.4574
G03 X 22.7361 Y 110.9730 Z -1.0000 I -0.9599 J -0.3635
G02 X 21.3933 Y 110.5480 Z -1.0000 I -1.5731 J 2.6369
G02 X 20.7047 Y 110.5826 Z -1.0000 I -0.2075 J 2.7466
G03 X 20.1439 Y 110.1997 Z -1.0000 I -0.0848 J -0.4779
G03 X 19.9946 Y 107.3819 Z -1.0000 I 9.6365 J -1.9234
G02 X 20.1246 Y 104.5320 Z -1.0000 I -31.1776 J -2.8498
G01 X 20.1246 Y 92.7634 Z -1.0000
G03 X 18.3835 Y 92.7012 Z -1.0000 I 0.0000 J -24.4088
G02 X 16.6546 Y 92.7759 Z -1.0000 I -0.5400 J 7.5510
G02 X 16.0481 Y 93.1161 Z -1.0000 I 0.1579 J 0.9920
G03 X 15.3833 Y 93.4229 Z -1.0000 I -0.6648 J -0.5670
G03 X 14.6549 Y 93.0991 Z -1.0000 I 0.0000 J -0.9811
G03 X 14.4158 Y 92.3400 Z -1.0000 I 0.7103 J -0.6410
G03 X 14.9554 Y 91.5914 Z -1.0000 I 0.9535 J 0.1184
G03 X 15.8825 Y 91.6265 Z -1.0000 I 0.4300 J 0.9009
G03 X 16.2088 Y 91.9072 Z -1.0000 I -0.5694 J 0.9921
G02 X 16.5723 Y 92.1438 Z -1.0000 I 0.5357 J -0.4255
G02 X 17.7466 Y 92.2326 Z -1.0000 I 0.8321 J -3.1963
G03 X 18.9393 Y 92.1706 Z -1.0000 I 1.1927 J 11.4491
G02 X 19.8991 Y 92.0144 Z -1.0000 I 0.0000 J -3.0263
G03 X 20.6662 Y 92.3529 Z -1.0000 I 0.1976 J 0.5908
G03 X 20.7705 Y 93.0969 Z -1.0000 I -1.2535 J 0.5549
G02 X 20.7173 Y 93.8640 Z -1.0000 I 5.5054 J 0.7670
G01 X 20.7173 Y 97.4200 Z -1.0000
G01 X 20.7173 Y 109.9506 Z -1.0000
M5
G4 P0.1

(Change tool to Cylindrical cutter)

M5
G4 P0.1
G00 X 17.5846 Y 95.3033

M3 S300
G03 X 17.0324 Y 95.2780 Z -1.0000 I 0.0000 J -6.0350 F 1000.0000
G02 X 16.4916 Y 95.3543 Z -1.0000 I -0.1088 J 1.1838
G02 X 16.0445 Y 95.6645 Z -1.0000 I 0.4249 J 1.0895
G03 X 15.5526 Y 95.9459 Z -1.0000 I -0.6677 J -0.5968
G03 X 14.5168 Y 95.4548 Z -1.0000 I -0.1884 J -0.9405
G03 X 14.6695 Y 94.3206 Z -1.0000 I 0.8683 J -0.4605
G03 X 15.8785 Y 94.2978 Z -1.0000 I 0.6157 J 0.5795
G02 X 16.8227 Y 94.7090 Z -1.0000 I 1.0063 J -1.0213
G02 X 17.5279 Y 94.6055 Z -1.0000 I 0.0820 J -1.8961
G03 X 18.1428 Y 94.8323 Z -1.0000 I 0.1695 J 0.4875
G03 X 18.2473 Y 95.4718 Z -1.0000 I -0.7782 J 0.4554
G02 X 18.1773 Y 96.1499 Z -1.0000 I 3.2506 J 0.6781
G01 X 18.1773 Y 99.4519 Z -1.0000
G01 X 18.1773 Y 106.5639 Z -1.0000
G03 X 18.1014 Y 108.3094 Z -1.0000 I -20.1143 J -0.0000
G02 X 18.2103 Y 110.0353 Z -1.0000 I 5.7683 J 0.5024
G02 X 18.6254 Y 111.0769 Z -1.0000 I 3.3098 J -0.7155
G03 X 19.1724 Y 112.0673 Z -1.0000 I -11.8025 J 7.1643
G03 X 19.7707 Y 113.6634 Z -1.0000 I -7.2745 J 3.6372
G02 X 20.7353 Y 114.9436 Z -1.0000 I 2.0304 J -0.5264
G02 X 21.1016 Y 115.0447 Z -1.0000 I 0.3705 J -0.6280
G02 X 21.4793 Y 115.0050 Z -1.0000 I 0.0099 J -1.7228
G02 X 21.7799 Y 114.8871 Z -1.0000 I -0.2197 J -1.0021
G03 X 22.0719 Y 114.7531 Z -1.0000 I 0.8011 J 1.3614
G03 X 23.3777 Y 114.4562 Z -1.0000 I 2.0697 J 6.0820
G03 X 24.2219 Y 115.5349 Z -1.0000 I 0.0952 J 0.7951
G03 X 22.9545 Y 116.1392 Z -1.0000 I -0.9491 J -0.3593
G03 X 21.7091 Y 115.6922 Z -1.0000 I 8.0939 J -24.5083
G02 X 20.9658 Y 115.6558 Z -1.0000 I -0.4263 J 1.0988
G03 X 20.2632 Y 115.5362 Z -1.0000 I -0.2246 J -0.8043
G03 X 19.8334 Y 114.9550 Z -1.0000 I 0.6488 J -0.9294
G02 X 19.5529 Y 114.2686 Z -1.0000 I -4.6696 J 1.5076
G01 X 18.0289 Y 111.2206 Z -1.0000
G03 X 17.5082 Y 108.6881 Z -1.0000 I 4.4830 J -2.2415
G02 X 17.5846 Y 106.0559 Z -1.0000 I -45.2725 J -2.6322
G01 X 17.5846 Y 95.3033 Z -1.0000
M5
G4 P0.1

(Change tool to Cylindrical cutter)

M5
G4 P0.1
G00 X 15.7219 Y 90.3079

M3 S300
G01 X 15.7219 Y 89.5459 Z -1.0000 F 1000.0000
G02 X 15.2321 Y 89.9077 Z -1.0000 I -0.1051 J 0.3702
G02 X 15.7219 Y 90.3079 Z -1.0000 I 0.4012 J 0.0089
M5
G4 P0.1

(Change tool to Cylindrical cutter)

M5
G4 P0.1
G00 X 15.7219 Y 92.8479

M3 S300
G01 X 15.7219 Y 92.0859 Z -1.0000 F 1000.0000
G02 X 15.2321 Y 92.4477 Z -1.0000 I -0.1051 J 0.3702
G02 X 15.7219 Y 92.8479 Z -1.0000 I 0.4012 J 0.0089
M5
G4 P0.1

(Change tool to Cylindrical cutter)

M5
G4 P0.1
G00 X 15.7219 Y 95.3879

M3 S300
G01 X 15.7219 Y 94.6259 Z -1.0000 F 1000.0000
G02 X 15.2321 Y 94.9877 Z -1.0000 I -0.1051 J 0.3702
G02 X 15.7219 Y 95.3879 Z -1.0000 I 0.4012 J 0.0089
M5
G4 P0.1

(Change tool to Cylindrical cutter)

M5
G4 P0.1
G00 X 15.0237 Y 107.6680

M3 S300
G02 X 15.3729 Y 108.0274 Z -1.0000 I 0.3501 J 0.0092 F 1000.0000
G02 X 15.7333 Y 107.6680 Z -1.0000 I 0.0009 J -0.3594
G02 X 15.3805 Y 107.3178 Z -1.0000 I -0.3502 J 0.0000
G02 X 15.0237 Y 107.6680 Z -1.0000 I 0.0027 J 0.3596
M5
G4 P0.1

(Change tool to Cylindrical cutter)

M5
G4 P0.1
G00 X 15.0237 Y 110.2080

M3 S300
G02 X 15.3729 Y 110.5674 Z -1.0000 I 0.3501 J 0.0092 F 1000.0000
G02 X 15.7333 Y 110.2080 Z -1.0000 I 0.0009 J -0.3594
G02 X 15.3805 Y 109.8578 Z -1.0000 I -0.3502 J 0.0000
G02 X 15.0237 Y 110.2080 Z -1.0000 I 0.0027 J 0.3596
M5
G4 P0.1

(Change tool to Cylindrical cutter)

M5
G4 P0.1
G00 X 15.0237 Y 112.7480

M3 S300
G02 X 15.3729 Y 113.1074 Z -1.0000 I 0.3501 J 0.0092 F 1000.0000
G02 X 15.7333 Y 112.7480 Z -1.0000 I 0.0009 J -0.3594
G02 X 15.3804 Y 112.3978 Z -1.0000 I -0.3502 J 0.0000
G02 X 15.0237 Y 112.7480 Z -1.0000 I 0.0027 J 0.3596
M5
G4 P0.1

(Change tool to Cylindrical cutter)

M5
G4 P0.1
G00 X 15.0237 Y 115.2880

M3 S300
G02 X 15.3729 Y 115.6474 Z -1.0000 I 0.3501 J 0.0092 F 1000.0000
G02 X 15.7333 Y 115.2880 Z -1.0000 I 0.0009 J -0.3594
G02 X 15.3804 Y 114.9378 Z -1.0000 I -0.3502 J 0.0000
G02 X 15.0237 Y 115.2880 Z -1.0000 I 0.0027 J 0.3596
M5
G4 P0.1

(Change tool to Cylindrical cutter)

M5
G4 P0.1
G00 X 15.0237 Y 117.8280

M3 S300
G02 X 15.3729 Y 118.1874 Z -1.0000 I 0.3501 J 0.0092 F 1000.0000
G02 X 15.7333 Y 117.8280 Z -1.0000 I 0.0009 J -0.3594
G02 X 15.3804 Y 117.4778 Z -1.0000 I -0.3502 J 0.0000
G02 X 15.0237 Y 117.8280 Z -1.0000 I 0.0027 J 0.3596
M5
G4 P0.1

(Change tool to Cylindrical cutter)

M5
G4 P0.1
G00 X 15.0237 Y 120.3680

M3 S300
G02 X 15.3729 Y 120.7274 Z -1.0000 I 0.3501 J 0.0092 F 1000.0000
G02 X 15.7333 Y 120.3680 Z -1.0000 I 0.0009 J -0.3594
G02 X 15.3804 Y 120.0178 Z -1.0000 I -0.3502 J 0.0000
G02 X 15.0237 Y 120.3680 Z -1.0000 I 0.0027 J 0.3596
M5
G4 P0.1

(Change tool to Cylindrical cutter)

M5
G4 P0.1
G00 X 15.0447 Y 97.9280

M3 S300
G02 X 15.5459 Y 97.5455 Z -1.0000 I 0.1041 J -0.3833 F 1000.0000
G02 X 15.0447 Y 97.1660 Z -1.0000 I -0.3937 J -0.0008
G01 X 15.0447 Y 97.9280 Z -1.0000
M5
G4 P0.1

(Change tool to Cylindrical cutter)

M5
G4 P0.1
G00 X 15.0447 Y 100.4680

M3 S300
G02 X 15.5459 Y 100.0856 Z -1.0000 I 0.1041 J -0.3833 F 1000.0000
G02 X 15.0447 Y 99.7060 Z -1.0000 I -0.3937 J -0.0009
G01 X 15.0447 Y 100.4680 Z -1.0000
M5
G4 P0.1

(Change tool to Cylindrical cutter)

M5
G4 P0.1
G00 X 15.1293 Y 122.6507

M3 S300
G01 X 15.1293 Y 123.2433 Z -1.0000 F 1000.0000
G02 X 15.5292 Y 122.9066 Z -1.0000 I 0.0713 J -0.3211
G02 X 15.1293 Y 122.6507 Z -1.0000 I -0.2907 J 0.0139
M5
G4 P0.1

(Change tool to Cylindrical cutter)

M5
G4 P0.1
G00 X 21.7174 Y 112.7447

M3 S300
G03 X 22.3162 Y 112.1103 Z -1.0000 I 0.6627 J 0.0258 F 1000.0000
G03 X 23.1727 Y 112.1066 Z -1.0000 I 0.4484 J 4.6341
G03 X 23.8677 Y 112.2673 Z -1.0000 I -0.2244 J 2.5544
G02 X 24.5273 Y 112.4651 Z -1.0000 I 1.6393 J -4.2678
G02 X 25.4961 Y 112.5304 Z -1.0000 I 0.7027 J -3.2041
G03 X 26.4747 Y 112.4907 Z -1.0000 I 0.9785 J 12.0217
G03 X 27.1044 Y 112.5432 Z -1.0000 I -0.0000 J 3.7983
G02 X 27.6936 Y 112.3549 Z -1.0000 I 0.1119 J -0.6657
G02 X 28.0050 Y 111.1859 Z -1.0000 I -0.8535 J -0.8533
G03 X 27.8293 Y 109.8660 Z -1.0000 I 4.8708 J -1.3199
G03 X 27.8933 Y 108.0318 Z -1.0000 I 26.3312 J -0.0000
G02 X 27.7178 Y 106.2341 Z -1.0000 I -5.4196 J -0.3784
G02 X 27.4381 Y 105.7889 Z -1.0000 I -0.8683 J 0.2350
G03 X 27.1713 Y 105.2939 Z -1.0000 I 0.5178 J -0.5985
G03 X 27.4180 Y 104.5676 Z -1.0000 I 0.8591 J -0.1133
G02 X 27.7317 Y 103.9381 Z -1.0000 I -0.7819 J -0.7827
G02 X 27.5366 Y 103.2753 Z -1.0000 I -0.8293 J -0.1160
G03 X 27.2747 Y 102.6693 Z -1.0000 I 0.8363 J -0.7211
G03 X 27.8646 Y 101.8186 Z -1.0000 I 0.7892 J -0.0827
G03 X 28.7956 Y 102.2497 Z -1.0000 I 0.2031 J 0.7824
G03 X 28.6419 Y 103.1087 Z -1.0000 I -0.6702 J 0.3233
G02 X 28.3549 Y 103.8543 Z -1.0000 I 0.6560 J 0.6805
G02 X 28.6721 Y 104.4647 Z -1.0000 I 0.8597 J -0.0592
G03 X 29.0021 Y 105.1247 Z -1.0000 I -0.5617 J 0.6933
G03 X 28.6984 Y 105.7931 Z -1.0000 I -0.8201 J 0.0306
G02 X 28.3499 Y 106.3959 Z -1.0000 I 0.6120 J 0.7559
G02 X 28.2650 Y 108.3779 Z -1.0000 I 8.5199 J 1.3576
G03 X 28.3373 Y 110.3740 Z -1.0000 I -27.5066 J 1.9961
G03 X 28.3257 Y 111.3058 Z -1.0000 I -37.2754 J 0.0000
G02 X 28.3449 Y 112.2367 Z -1.0000 I 10.1934 J 0.2549
G02 X 28.3873 Y 112.6260 Z -1.0000 I 4.6388 J -0.3080
G03 X 28.2254 Y 112.9963 Z -1.0000 I -0.3744 J 0.0568
G03 X 27.4567 Y 113.1576 Z -1.0000 I -0.5811 J -0.8570
G02 X 26.6440 Y 113.0833 Z -1.0000 I -0.8127 J 4.4116
G03 X 25.5831 Y 113.0522 Z -1.0000 I 0.0000 J -18.1019
G02 X 24.5273 Y 113.0955 Z -1.0000 I -0.3113 J 5.3025
G02 X 23.7490 Y 113.2830 Z -1.0000 I 0.5876 J 4.1484
G03 X 22.9187 Y 113.4220 Z -1.0000 I -0.8293 J -2.4048
G03 X 22.1988 Y 113.3524 Z -1.0000 I 0.0013 J -3.7732
G03 X 21.7174 Y 112.7447 Z -1.0000 I 0.1139 J -0.5847
M5
G4 P0.1

(Change tool to Cylindrical cutter)

M5
G4 P0.1
G00 X 32.8247 Y 117.5707

M3 S300
G01 X 32.8247 Y 104.5320 Z -1.0000 F 1000.0000
G01 X 32.8247 Y 100.5527 Z -1.0000
G03 X 32.8753 Y 99.5758 Z -1.0000 I 9.4489 J -0.0000
G02 X 32.7978 Y 98.6141 Z -1.0000 I -2.6233 J -0.2727
G02 X 31.1354 Y 97.4963 Z -1.0000 I -1.4756 J 0.3994
G02 X 29.0993 Y 97.8702 Z -1.0000 I 2.1420 J 17.3967
G02 X 28.6422 Y 98.1127 Z -1.0000 I 0.2522 J 1.0275
G03 X 28.1680 Y 98.3283 Z -1.0000 I -0.5761 J -0.6376
G03 X 27.4687 Y 98.0635 Z -1.0000 I -0.0957 J -0.8031
G03 X 27.2953 Y 97.3357 Z -1.0000 I 0.5884 J -0.5247
G03 X 27.6653 Y 96.8621 Z -1.0000 I 0.7409 J 0.1975
G03 X 28.2523 Y 96.7623 Z -1.0000 I 0.4361 J 0.7890
G03 X 28.6869 Y 96.9868 Z -1.0000 I -0.1350 J 0.7942
G02 X 29.1026 Y 97.2238 Z -1.0000 I 0.6412 J -0.6415
G02 X 30.4904 Y 97.3740 Z -1.0000 I 1.2138 J -4.7286
G02 X 31.8921 Y 97.2381 Z -1.0000 I -0.4113 J -11.5384
G02 X 32.4691 Y 96.9142 Z -1.0000 I -0.1501 J -0.9435
G03 X 33.0787 Y 96.5951 Z -1.0000 I 0.7012 J 0.5975
G03 X 33.6773 Y 96.7531 Z -1.0000 I 0.0881 J 0.8790
G03 X 34.0393 Y 97.2510 Z -1.0000 I -0.5556 J 0.7846
G03 X 33.8078 Y 98.0858 Z -1.0000 I -0.7621 J 0.2382
G02 X 33.4299 Y 98.7759 Z -1.0000 I 0.7773 J 0.8742
G02 X 33.3534 Y 100.5471 Z -1.0000 I 7.6380 J 1.2171
G03 X 33.4173 Y 102.3307 Z -1.0000 I -24.8321 J 1.7835
G01 X 33.4173 Y 113.0833 Z -1.0000
G01 X 33.4173 Y 116.3853 Z -1.0000
G02 X 33.4584 Y 117.1475 Z -1.0000 I 7.0917 J 0.0000
G03 X 33.3904 Y 117.8968 Z -1.0000 I -1.8998 J 0.2054
G03 X 32.3203 Y 118.4272 Z -1.0000 I -0.7815 J -0.2321
G02 X 30.8773 Y 118.1633 Z -1.0000 I -1.4430 J 3.8133
G03 X 27.2717 Y 118.0942 Z -1.0000 I -0.0000 J -94.0604
G02 X 23.7653 Y 118.4657 Z -1.0000 I -0.4713 J 12.2852
G03 X 22.6711 Y 118.6562 Z -1.0000 I -1.7815 J -6.9927
G03 X 21.7535 Y 118.0698 Z -1.0000 I -0.0841 J -0.8795
G03 X 22.5494 Y 117.0694 Z -1.0000 I 0.7121 J -0.2502
G03 X 23.7653 Y 117.2510 Z -1.0000 I -1.8447 J 16.5206
G02 X 28.2415 Y 117.6189 Z -1.0000 I 4.0166 J -21.4505
G03 X 32.8247 Y 117.5707 Z -1.0000 I 4.5832 J 217.5828
M5
G4 P0.1

(Change tool to Cylindrical cutter)

M5
G4 P0.1
G00 X 21.7174 Y 122.9047

M3 S300
G03 X 22.1713 Y 122.3658 Z -1.0000 I 0.5733 J 0.0223 F 1000.0000
G03 X 22.8340 Y 122.2666 Z -1.0000 I 1.1438 J 5.3756
G03 X 23.7133 Y 122.3855 Z -1.0000 I 0.1765 J 2.0058
G02 X 24.5273 Y 122.6251 Z -1.0000 I 2.1077 J -5.6586
G02 X 25.3700 Y 122.6836 Z -1.0000 I 0.6193 J -2.8241
G03 X 26.2207 Y 122.6507 Z -1.0000 I 0.8506 J 10.9782
G03 X 30.2893 Y 122.7374 Z -1.0000 I 0.0000 J 95.4743
G02 X 34.3483 Y 122.6457 Z -1.0000 I 1.3273 J -31.1173
G02 X 35.0083 Y 122.3085 Z -1.0000 I -0.0865 J -0.9839
G03 X 35.7033 Y 121.9911 Z -1.0000 I 0.6950 J 0.6022
G03 X 36.5779 Y 122.3008 Z -1.0000 I -0.0000 J 1.3899
G02 X 37.5660 Y 122.6507 Z -1.0000 I 0.9882 J -1.2207
G03 X 38.6730 Y 122.7063 Z -1.0000 I -0.0014 J 11.0663
G02 X 39.7640 Y 122.6238 Z -1.0000 I 0.3133 J -3.1122
G02 X 40.2452 Y 122.3612 Z -1.0000 I -0.2775 J -1.0808
G03 X 40.7833 Y 122.1501 Z -1.0000 I 0.5381 J 0.5802
G03 X 41.3306 Y 122.3622 Z -1.0000 I -0.0000 J 0.8120
G03 X 41.5763 Y 122.9047 Z -1.0000 I -0.5082 J 0.5571
G03 X 41.3541 Y 123.4846 Z -1.0000 I -0.8279 J 0.0154
G03 X 40.7833 Y 123.7329 Z -1.0000 I -0.5708 J -0.5321
G03 X 40.2572 Y 123.5302 Z -1.0000 I -0.0002 J -0.7840
G02 X 39.7673 Y 123.2702 Z -1.0000 I -0.7596 J 0.8394
G02 X 38.7159 Y 123.1931 Z -1.0000 I -0.7537 J 3.0709
G03 X 37.6507 Y 123.2433 Z -1.0000 I -1.0652 J -11.2638
G03 X 37.1883 Y 123.2250 Z -1.0000 I -0.0000 J -5.8422
G02 X 36.7337 Y 123.2944 Z -1.0000 I -0.0796 J 1.0025
G02 X 36.2587 Y 123.6024 Z -1.0000 I 0.5489 J 1.3666
G03 X 35.7033 Y 123.8286 Z -1.0000 I -0.5593 J -0.5782
G03 X 35.0389 Y 123.5433 Z -1.0000 I -0.0044 J -0.9061
G02 X 34.4321 Y 123.2483 Z -1.0000 I -0.6912 J 0.6501
G02 X 30.3313 Y 123.1544 Z -1.0000 I -2.7592 J 30.8984
G03 X 26.2207 Y 123.2433 Z -1.0000 I -4.1106 J -94.9622
G02 X 24.5003 Y 123.4161 Z -1.0000 I 0.0000 J 8.6521
G03 X 22.8340 Y 123.5820 Z -1.0000 I -1.6523 J -8.1439
G03 X 22.1540 Y 123.4937 Z -1.0000 I 0.0044 J -2.6976
G03 X 21.7174 Y 122.9046 Z -1.0000 I 0.1486 J -0.5664
M5
G4 P0.1

(Change tool to Cylindrical cutter)

M5
G4 P0.1
G00 X 40.4447 Y 104.8707

M3 S300
G01 X 40.4447 Y 72.3587 Z -1.0000 F 1000.0000
G01 X 28.4220 Y 72.3587 Z -1.0000
G03 X 28.3873 Y 72.9935 Z -1.0000 I -5.8257 J -0.0000
G02 X 28.4728 Y 73.6131 Z -1.0000 I 1.2746 J 0.1397
G02 X 28.8647 Y 74.3425 Z -1.0000 I 3.5070 J -1.4143
G03 X 28.8089 Y 75.3039 Z -1.0000 I -0.6463 J 0.4448
G03 X 27.6805 Y 75.3915 Z -1.0000 I -0.6090 J -0.5326
G02 X 26.8121 Y 74.9959 Z -1.0000 I -1.1496 J 1.3726
G02 X 25.4015 Y 74.8268 Z -1.0000 I -2.9014 J 18.2429
G02 X 24.0337 Y 75.0344 Z -1.0000 I -0.2434 J 3.0064
G02 X 23.6914 Y 75.2733 Z -1.0000 I 0.3450 J 0.8590
G03 X 23.3417 Y 75.5132 Z -1.0000 I -0.6746 J -0.6086
G03 X 22.7465 Y 75.5508 Z -1.0000 I -0.3578 J -0.9346
G03 X 22.2539 Y 75.2193 Z -1.0000 I 0.2038 J -0.8347
G03 X 22.1727 Y 74.2473 Z -1.0000 I 0.7661 J -0.5534
G03 X 23.0033 Y 73.7311 Z -1.0000 I 0.8307 J 0.4104
G03 X 23.5983 Y 73.9936 Z -1.0000 I -0.0000 J 0.8056
G02 X 24.1073 Y 74.3397 Z -1.0000 I 0.9809 J -0.8953
G02 X 25.5996 Y 74.6529 Z -1.0000 I 1.7397 J -4.5771
G02 X 27.0398 Y 74.3040 Z -1.0000 I 0.1317 J -2.6032
G02 X 27.5967 Y 73.8051 Z -1.0000 I -0.9234 J -1.5910
G02 X 27.8289 Y 73.1207 Z -1.0000 I -0.9577 J -0.7066
G02 X 27.7462 Y 72.4333 Z -1.0000 I -2.5057 J -0.0471
G03 X 28.0225 Y 71.8288 Z -1.0000 I 0.5065 J -0.1339
G03 X 29.4154 Y 71.6352 Z -1.0000 I 0.9919 J 2.0285
G02 X 30.8773 Y 71.7660 Z -1.0000 I 1.4620 J -8.1023
G01 X 37.9047 Y 71.7660 Z -1.0000
G01 X 40.0213 Y 71.7660 Z -1.0000
G02 X 40.4742 Y 71.7463 Z -1.0000 I 0.0002 J -5.1883
G03 X 40.9016 Y 71.9018 Z -1.0000 I 0.0470 J 0.5361
G03 X 41.1637 Y 72.8419 Z -1.0000 I -0.7025 J 0.7024
G02 X 41.0373 Y 73.8827 Z -1.0000 I 4.2230 J 1.0407
G01 X 41.0373 Y 79.5554 Z -1.0000
G01 X 41.0373 Y 98.0127 Z -1.0000
G01 X 41.0373 Y 103.1774 Z -1.0000
G02 X 41.1339 Y 104.2429 Z -1.0000 I 5.9285 J 0.0000
G03 X 40.9863 Y 105.2573 Z -1.0000 I -1.5781 J 0.2883
G03 X 40.4130 Y 105.5301 Z -1.0000 I -0.4636 J -0.2353
G02 X 39.7674 Y 105.4634 Z -1.0000 I -0.6247 J 2.8900
G02 X 38.7363 Y 105.8491 Z -1.0000 I 0.0107 J 1.6001
G03 X 37.5367 Y 105.7687 Z -1.0000 I -0.5588 J -0.6514
G03 X 37.4420 Y 104.6438 Z -1.0000 I 0.7019 J -0.6255
G03 X 38.4971 Y 104.2490 Z -1.0000 I 0.7857 J 0.4926
G03 X 38.8994 Y 104.5019 Z -1.0000 I -0.2617 J 0.8628
G02 X 39.2670 Y 104.7840 Z -1.0000 I 0.9894 J -0.9087
G02 X 39.8469 Y 104.8983 Z -1.0000 I 0.4837 J -0.9264
G03 X 40.4447 Y 104.8707 Z -1.0000 I 0.5978 J 6.4684
M5
G4 P0.1

(Change tool to Cylindrical cutter)

M5
G4 P0.1
G00 X 28.4220 Y 87.0060

M3 S300
G03 X 30.6930 Y 87.2932 Z -1.0000 I -0.0013 J 9.1332 F 1000.0000
G02 X 32.7380 Y 86.3990 Z -1.0000 I 0.4507 J -1.7547
G02 X 32.9165 Y 85.3312 Z -1.0000 I -1.4730 J -0.7951
G03 X 32.8247 Y 84.2120 Z -1.0000 I 6.7764 J -1.1191
G03 X 32.8374 Y 81.4602 Z -1.0000 I 296.9526 J 0.0000
G02 X 32.8243 Y 78.7087 Z -1.0000 I -97.8851 J -0.9071
G02 X 32.4442 Y 77.6122 Z -1.0000 I -1.8730 J 0.0352
G03 X 32.9941 Y 76.2718 Z -1.0000 I 0.6702 J -0.5080
G03 X 33.8170 Y 76.5331 Z -1.0000 I 0.1418 J 0.9800
G03 X 34.1067 Y 77.3540 Z -1.0000 I -0.6573 J 0.6935
G03 X 33.7666 Y 77.9575 Z -1.0000 I -0.9269 J -0.1248
G02 X 33.4299 Y 78.5397 Z -1.0000 I 0.5861 J 0.7274
G02 X 33.2898 Y 81.9560 Z -1.0000 I 14.7055 J 2.3141
G03 X 33.4173 Y 85.3974 Z -1.0000 I -46.3527 J 3.4414
G03 X 33.4045 Y 85.8220 Z -1.0000 I -7.0177 J -0.0000
G02 X 33.4684 Y 86.2407 Z -1.0000 I 1.0048 J 0.0609
G02 X 33.8888 Y 87.0323 Z -1.0000 I 3.3596 J -1.2768
G03 X 33.7468 Y 88.0700 Z -1.0000 I -0.6287 J 0.4425
G03 X 32.6749 Y 88.0420 Z -1.0000 I -0.5197 J -0.6354
G02 X 31.8083 Y 87.6850 Z -1.0000 I -0.9268 J 1.0196
G02 X 30.4097 Y 87.6352 Z -1.0000 I -3.7791 J 86.4533
G02 X 29.0147 Y 87.6000 Z -1.0000 I -8.3740 J 304.2973
G02 X 28.4680 Y 87.6634 Z -1.0000 I -0.0476 J 1.9781
G03 X 27.9541 Y 87.5443 Z -1.0000 I -0.1433 J -0.5499
G03 X 27.7195 Y 86.4331 Z -1.0000 I 0.6103 J -0.7091
G02 X 27.7783 Y 85.1434 Z -1.0000 I -1.5016 J -0.7146
G02 X 26.8071 Y 83.8557 Z -1.0000 I -2.6205 J 0.9664
G03 X 25.5433 Y 82.7727 Z -1.0000 I 6.3994 J -8.7461
G03 X 24.5714 Y 81.7343 Z -1.0000 I 15.2214 J -15.2215
G02 X 23.5257 Y 80.7820 Z -1.0000 I -4.7269 J 4.1401
G02 X 22.7145 Y 80.4388 Z -1.0000 I -1.1530 J 1.5947
G03 X 22.0917 Y 79.5555 Z -1.0000 I 0.1332 J -0.7552
G03 X 22.7727 Y 78.8307 Z -1.0000 I 0.8860 J 0.1502
G03 X 23.7101 Y 79.1502 Z -1.0000 I 0.2131 J 0.9097
G03 X 23.9455 Y 79.8128 Z -1.0000 I -0.8113 J 0.6614
G02 X 24.1970 Y 80.4867 Z -1.0000 I 1.0255 J 0.0012
G02 X 25.6476 Y 81.9932 Z -1.0000 I 15.4804 J -13.4546
G03 X 27.1520 Y 83.4501 Z -1.0000 I -44.5951 J 47.5560
G02 X 27.8389 Y 84.0658 Z -1.0000 I 5.9738 J -5.9738
G03 X 28.3710 Y 84.8047 Z -1.0000 I -1.0657 J 1.3282
G03 X 28.4936 Y 85.8904 Z -1.0000 I -2.1506 J 0.7927
G02 X 28.4220 Y 87.0061 Z -1.0000 I 8.6561 J 1.1156
M5
G4 P0.1

(Change tool to Cylindrical cutter)

M5
G4 P0.1
G00 X 28.4220 Y 94.6261

M3 S300
G01 X 37.9047 Y 94.6261 Z -1.0000 F 1000.0000
G01 X 37.9047 Y 83.7040 Z -1.0000
G03 X 38.0019 Y 81.0705 Z -1.0000 I 35.7103 J -0.0000
G02 X 37.8922 Y 78.4560 Z -1.0000 I -11.2967 J -0.8354
G02 X 37.5918 Y 77.9121 Z -1.0000 I -0.9021 J 0.1434
G03 X 37.2801 Y 77.3541 Z -1.0000 I 0.6270 J -0.7162
G03 X 37.7065 Y 76.4042 Z -1.0000 I 0.9246 J -0.1556
G03 X 38.7425 Y 76.3866 Z -1.0000 I 0.5326 J 0.8491
G03 X 38.9358 Y 77.7213 Z -1.0000 I -0.4320 J 0.7439
G02 X 38.4978 Y 78.7934 Z -1.0000 I 1.1665 J 1.1021
G02 X 38.4795 Y 82.6455 Z -1.0000 I 136.9707 J 2.5780
G03 X 38.4974 Y 86.4981 Z -1.0000 I -414.2272 J 3.8525
G01 X 38.4974 Y 92.7634 Z -1.0000
G02 X 38.6341 Y 93.9770 Z -1.0000 I 5.4560 J 0.0000
G03 X 38.4104 Y 95.0961 Z -1.0000 I -1.3595 J 0.3102
G03 X 37.2190 Y 95.2252 Z -1.0000 I -0.6531 J -0.4652
G02 X 36.0085 Y 95.4852 Z -1.0000 I -0.5118 J 0.5651
G02 X 35.8137 Y 97.0942 Z -1.0000 I 2.5876 J 1.1296
G03 X 35.9574 Y 98.7747 Z -1.0000 I -9.7543 J 1.6805
G01 X 35.9574 Y 106.5640 Z -1.0000
G03 X 35.8680 Y 109.0279 Z -1.0000 I -34.0155 J -0.0000
G02 X 35.9699 Y 111.4744 Z -1.0000 I 10.7253 J 0.7789
G02 X 36.3071 Y 112.0850 Z -1.0000 I 1.0081 J -0.1583
G03 X 36.6221 Y 112.7447 Z -1.0000 I -0.6054 J 0.6940
G03 X 36.3566 Y 113.4032 Z -1.0000 I -0.8691 J 0.0324
G03 X 35.7033 Y 113.6687 Z -1.0000 I -0.6579 J -0.6823
G03 X 34.9699 Y 113.3030 Z -1.0000 I -0.0043 J -0.9098
G03 X 34.8205 Y 112.4911 Z -1.0000 I 0.7464 J -0.5571
G03 X 35.0840 Y 112.0634 Z -1.0000 I 0.8900 J 0.2533
G02 X 35.3377 Y 111.6407 Z -1.0000 I -0.5910 J -0.6423
G02 X 35.4373 Y 110.2986 Z -1.0000 I -3.6288 J -0.9439
G03 X 35.3647 Y 108.9347 Z -1.0000 I 12.7702 J -1.3639
G01 X 35.3647 Y 103.1774 Z -1.0000
G01 X 35.3647 Y 95.3034 Z -1.0000
G01 X 29.8613 Y 95.3034 Z -1.0000
G02 X 28.8309 Y 95.4230 Z -1.0000 I -0.0000 J 4.4993
G03 X 27.8921 Y 95.1559 Z -1.0000 I -0.2297 J -0.9762
G03 X 27.6384 Y 93.9404 Z -1.0000 I 0.8015 J -0.8015
G02 X 27.7015 Y 92.5940 Z -1.0000 I -1.9527 J -0.7661
G02 X 26.6030 Y 90.5709 Z -1.0000 I -5.1354 J 1.4787
G03 X 25.1765 Y 88.6994 Z -1.0000 I 14.0563 J -12.1930
G03 X 24.3086 Y 87.2559 Z -1.0000 I 15.0033 J -10.0032
G02 X 23.2981 Y 85.9323 Z -1.0000 I -4.6744 J 2.5210
G02 X 22.7987 Y 85.7037 Z -1.0000 I -0.5810 J 0.6096
G03 X 22.2966 Y 85.4487 Z -1.0000 I 0.0749 J -0.7694
G03 X 22.0607 Y 84.8905 Z -1.0000 I 0.7017 J -0.6254
G03 X 22.2195 Y 84.3056 Z -1.0000 I 0.9151 J -0.0656
G03 X 23.0852 Y 83.9021 Z -1.0000 I 0.7748 J 0.5319
G03 X 23.8492 Y 84.4673 Z -1.0000 I -0.0895 J 0.9199
G03 X 23.9028 Y 85.0628 Z -1.0000 I -0.9220 J 0.3831
G02 X 23.9763 Y 85.6514 Z -1.0000 I 0.8725 J 0.1899
G02 X 25.4991 Y 88.1092 Z -1.0000 I 14.0921 J -7.0305
G03 X 27.1802 Y 90.4774 Z -1.0000 I -39.5500 J 29.8556
G02 X 27.8364 Y 91.3739 Z -1.0000 I 10.5611 J -7.0413
G03 X 28.3626 Y 92.3401 Z -1.0000 I -2.4393 J 1.9549
G03 X 28.4841 Y 93.4711 Z -1.0000 I -2.5341 J 0.8445
G02 X 28.4220 Y 94.6261 Z -1.0000 I 10.7005 J 1.1549
M5
G4 P0.1

(Change tool to Cylindrical cutter)

M5
G4 P0.1
G00 X 23.3420 Y 74.9834

M3 S300
G01 X 23.3420 Y 74.3061 Z -1.0000 F 1000.0000
G02 X 22.8852 Y 74.7092 Z -1.0000 I -0.0793 J 0.3705
G02 X 23.3420 Y 74.9834 Z -1.0000 I 0.3277 J -0.0283
M5
G4 P0.1

(Change tool to Cylindrical cutter)

M5
G4 P0.1
G00 X 23.0033 Y 80.2327

M3 S300
G01 X 23.4267 Y 79.8094 Z -1.0000 F 1000.0000
G02 X 22.9547 Y 79.6411 Z -1.0000 I -0.2879 J 0.0615
G02 X 23.0033 Y 80.2327 Z -1.0000 I 0.2238 J 0.2794
M5
G4 P0.1

(Change tool to Cylindrical cutter)

M5
G4 P0.1
G00 X 22.9187 Y 85.2280

M3 S300
G01 X 23.4267 Y 84.8894 Z -1.0000 F 1000.0000
G02 X 22.8827 Y 84.6832 Z -1.0000 I -0.3384 J 0.0723
G02 X 22.9187 Y 85.2280 Z -1.0000 I 0.1926 J 0.2609
M5
G4 P0.1

(Change tool to Cylindrical cutter)

M5
G4 P0.1
G00 X 23.3420 Y 107.4107

M3 S300
G01 X 22.6647 Y 107.4107 Z -1.0000 F 1000.0000
G02 X 22.9959 Y 107.8020 Z -1.0000 I 0.3326 J 0.0543
G02 X 23.3420 Y 107.4107 Z -1.0000 I 0.0015 J -0.3475
M5
G4 P0.1

(Change tool to Cylindrical cutter)

M5
G4 P0.1
G00 X 23.2573 Y 113.0834

M3 S300
G01 X 23.2573 Y 112.4061 Z -1.0000 F 1000.0000
G02 X 22.8900 Y 112.7975 Z -1.0000 I 0.0124 J 0.3798
G02 X 23.2573 Y 113.0834 Z -1.0000 I 0.3022 J -0.0093
M5
G4 P0.1

(Change tool to Cylindrical cutter)

M5
G4 P0.1
G00 X 23.2573 Y 118.1634

M3 S300
G01 X 23.2573 Y 117.4861 Z -1.0000 F 1000.0000
G02 X 22.8900 Y 117.8775 Z -1.0000 I 0.0124 J 0.3798
G02 X 23.2573 Y 118.1634 Z -1.0000 I 0.3022 J -0.0093
M5
G4 P0.1

(Change tool to Cylindrical cutter)

M5
G4 P0.1
G00 X 22.5800 Y 120.3647

M3 S300
G01 X 23.0033 Y 120.7881 Z -1.0000 F 1000.0000
G02 X 23.0742 Y 120.3037 Z -1.0000 I -0.1411 J -0.2680
G02 X 22.5800 Y 120.3647 Z -1.0000 I -0.2228 J 0.2274
M5
G4 P0.1

(Change tool to Cylindrical cutter)

M5
G4 P0.1
G00 X 23.2573 Y 123.2434

M3 S300
G01 X 23.2573 Y 122.5661 Z -1.0000 F 1000.0000
G02 X 22.8900 Y 122.9575 Z -1.0000 I 0.0124 J 0.3798
G02 X 23.2573 Y 123.2434 Z -1.0000 I 0.3022 J -0.0093
M5
G4 P0.1

(Change tool to Cylindrical cutter)

M5
G4 P0.1
G00 X 22.7493 Y 109.9507

M3 S300
G01 X 22.7493 Y 110.5434 Z -1.0000 F 1000.0000
G02 X 23.1492 Y 110.2066 Z -1.0000 I 0.0713 J -0.3211
G02 X 22.7493 Y 109.9507 Z -1.0000 I -0.2907 J 0.0139
M5
G4 P0.1

(Change tool to Cylindrical cutter)

M5
G4 P0.1
G00 X 22.7493 Y 115.0307

M3 S300
G01 X 22.7493 Y 115.6233 Z -1.0000 F 1000.0000
G02 X 23.1492 Y 115.2866 Z -1.0000 I 0.0713 J -0.3211
G02 X 22.7493 Y 115.0307 Z -1.0000 I -0.2907 J 0.0139
M5
G4 P0.1

(Change tool to Cylindrical cutter)

M5
G4 P0.1
G00 X 23.2573 Y 102.7540

M3 S300
G01 X 23.4267 Y 102.4153 Z -1.0000 F 1000.0000
G01 X 23.2573 Y 102.7540 Z -1.0000
M5
G4 P0.1

(Change tool to Cylindrical cutter)

M5
G4 P0.1
G00 X 23.3420 Y 97.6740

M3 S300
G01 X 23.4267 Y 97.6740 Z -1.0000 F 1000.0000
G01 X 23.4267 Y 97.3353 Z -1.0000
G01 X 23.3420 Y 97.6740 Z -1.0000
M5
G4 P0.1

(Change tool to Cylindrical cutter)

M5
G4 P0.1
G00 X 27.7447 Y 105.4633

M3 S300
G01 X 28.4220 Y 105.4633 Z -1.0000 F 1000.0000
G01 X 28.4220 Y 104.7860 Z -1.0000
G01 X 27.7447 Y 104.7860 Z -1.0000
G01 X 27.7447 Y 105.4633 Z -1.0000
M5
G4 P0.1

(Change tool to Cylindrical cutter)

M5
G4 P0.1
G00 X 27.7447 Y 74.3907

M3 S300
G01 X 27.7447 Y 75.0680 Z -1.0000 F 1000.0000
G02 X 28.3178 Y 74.8964 Z -1.0000 I 0.1302 J -0.6083
G02 X 28.4220 Y 74.3060 Z -1.0000 I -0.3761 J -0.3707
G01 X 27.7447 Y 74.3907 Z -1.0000
M5
G4 P0.1

(Change tool to Cylindrical cutter)

M5
G4 P0.1
G00 X 27.7447 Y 77.6080

M3 S300
G02 X 28.1931 Y 77.5851 Z -1.0000 I 0.1815 J -0.8477 F 1000.0000
G02 X 28.5067 Y 77.2694 Z -1.0000 I -0.1495 J -0.4620
G01 X 28.2527 Y 76.7614 Z -1.0000
G01 X 27.7447 Y 76.8461 Z -1.0000
G01 X 27.7447 Y 77.6081 Z -1.0000
M5
G4 P0.1

(Change tool to Cylindrical cutter)

M5
G4 P0.1
G00 X 28.2527 Y 97.8434

M3 S300
G01 X 28.2527 Y 97.1661 Z -1.0000 F 1000.0000
G02 X 27.9518 Y 97.5088 Z -1.0000 I 0.0562 J 0.3528
G02 X 28.2527 Y 97.8434 Z -1.0000 I 0.3262 J 0.0092
M5
G4 P0.1

(Change tool to Cylindrical cutter)

M5
G4 P0.1
G00 X 27.7447 Y 102.8387

M3 S300
G01 X 28.4220 Y 102.7540 Z -1.0000 F 1000.0000
G02 X 28.0538 Y 102.4943 Z -1.0000 I -0.3106 J 0.0495
G02 X 27.7447 Y 102.8387 Z -1.0000 I 0.0694 J 0.3733
M5
G4 P0.1

(Change tool to Cylindrical cutter)

M5
G4 P0.1
G00 X 32.6553 Y 74.5601

M3 S300
G01 X 32.9940 Y 75.1527 Z -1.0000 F 1000.0000
G01 X 33.5020 Y 75.0680 Z -1.0000
G01 X 33.5020 Y 74.3060 Z -1.0000
G02 X 33.0408 Y 74.3076 Z -1.0000 I -0.2279 J 0.8028
G02 X 32.6553 Y 74.5600 Z -1.0000 I 0.2205 J 0.7574
M5
G4 P0.1

(Change tool to Cylindrical cutter)

M5
G4 P0.1
G00 X 32.8247 Y 77.6080

M3 S300
G01 X 33.5020 Y 77.6080 Z -1.0000 F 1000.0000
G02 X 33.1620 Y 77.0779 Z -1.0000 I -0.3406 J -0.1557
G02 X 32.8247 Y 77.6080 Z -1.0000 I -0.0006 J 0.3720
M5
G4 P0.1

(Change tool to Cylindrical cutter)

M5
G4 P0.1
G00 X 32.8247 Y 87.0907

M3 S300
G01 X 32.9093 Y 87.0060 Z -1.0000 F 1000.0000
G01 X 32.8247 Y 87.0907 Z -1.0000
M5
G4 P0.1

(Change tool to Cylindrical cutter)

M5
G4 P0.1
G00 X 32.8247 Y 87.6834

M3 S300
G02 X 33.3723 Y 87.5503 Z -1.0000 I 0.1848 J -0.4329 F 1000.0000
G02 X 33.5020 Y 87.0060 Z -1.0000 I -0.4891 J -0.4041
G01 X 32.9940 Y 87.1754 Z -1.0000
G01 X 32.8247 Y 87.6834 Z -1.0000
M5
G4 P0.1

(Change tool to Cylindrical cutter)

M5
G4 P0.1
G00 X 32.8247 Y 97.2507

M3 S300
G01 X 32.8247 Y 97.8434 Z -1.0000 F 1000.0000
G01 X 33.5020 Y 97.8434 Z -1.0000
G02 X 33.3725 Y 97.3149 Z -1.0000 I -0.5415 J -0.1474
G02 X 32.8247 Y 97.2507 Z -1.0000 I -0.3115 J 0.2881
M5
G4 P0.1

(Change tool to Cylindrical cutter)

M5
G4 P0.1
G00 X 36.0420 Y 112.4060

M3 S300
G01 X 35.3647 Y 112.4060 Z -1.0000 F 1000.0000
G02 X 35.6838 Y 112.8413 Z -1.0000 I 0.3290 J 0.0934
G02 X 36.0420 Y 112.4060 Z -1.0000 I 0.0103 J -0.3566
M5
G4 P0.1

(Change tool to Cylindrical cutter)

M5
G4 P0.1
G00 X 35.3647 Y 122.6507

M3 S300
G01 X 35.3647 Y 123.2433 Z -1.0000 F 1000.0000
G01 X 36.0420 Y 123.2433 Z -1.0000
G01 X 36.0420 Y 122.5660 Z -1.0000
G01 X 35.3647 Y 122.6507 Z -1.0000
M5
G4 P0.1

(Change tool to Cylindrical cutter)

M5
G4 P0.1
G00 X 37.9047 Y 77.6080

M3 S300
G01 X 38.5820 Y 77.6080 Z -1.0000 F 1000.0000
G02 X 38.2420 Y 77.0778 Z -1.0000 I -0.3406 J -0.1557
G02 X 37.9047 Y 77.6080 Z -1.0000 I -0.0006 J 0.3720
M5
G4 P0.1

(Change tool to Cylindrical cutter)

M5
G4 P0.1
G00 X 38.5820 Y 105.4633

M3 S300
G01 X 38.5820 Y 104.7860 Z -1.0000 F 1000.0000
G02 X 38.1252 Y 105.1892 Z -1.0000 I -0.0793 J 0.3705
G02 X 38.5820 Y 105.4633 Z -1.0000 I 0.3277 J -0.0283
M5
G4 P0.1

(Change tool to Cylindrical cutter)

M5
G4 P0.1
G00 X 37.9047 Y 75.0680

M3 S300
G02 X 38.3913 Y 74.6636 Z -1.0000 I 0.0843 J -0.3936 F 1000.0000
G02 X 37.9047 Y 74.3060 Z -1.0000 I -0.3822 J 0.0103
G01 X 37.9047 Y 75.0680 Z -1.0000
M5
G4 P0.1

(Change tool to Cylindrical cutter)

M5
G4 P0.1
G00 X 40.9527 Y 118.2480

M3 S300
G01 X 40.9527 Y 117.5707 Z -1.0000 F 1000.0000
G02 X 40.6518 Y 117.9134 Z -1.0000 I 0.0563 J 0.3528
G02 X 40.9527 Y 118.2480 Z -1.0000 I 0.3262 J 0.0092
M5
G4 P0.1

(Change tool to Cylindrical cutter)

M5
G4 P0.1
G00 X 40.6140 Y 123.2433

M3 S300
G02 X 40.9149 Y 122.9088 Z -1.0000 I -0.0253 J -0.3254 F 1000.0000
G02 X 40.6140 Y 122.5660 Z -1.0000 I -0.3571 J 0.0101
G01 X 40.6140 Y 123.2433 Z -1.0000
M5
G4 P0.1

(End cutting path id: path916-2-3)

(Start cutting path id: path916)
(Change tool to Cylindrical cutter)

M5
G4 P0.1
G00 X 46.2867 Y 5.2180

M3 S300
G01 X 86.9267 Y 5.2180 Z -1.0000 F 1000.0000
G01 X 86.9267 Y 67.0247 Z -1.0000
G01 X 46.2867 Y 67.0247 Z -1.0000
G01 X 46.2867 Y 5.2180 Z -1.0000
M5
G4 P0.1

(Change tool to Cylindrical cutter)

M5
G4 P0.1
G00 X 46.4560 Y 66.8553

M3 S300
G01 X 86.7573 Y 66.8553 Z -1.0000 F 1000.0000
G01 X 86.7573 Y 5.3873 Z -1.0000
G01 X 46.4560 Y 5.3873 Z -1.0000
G01 X 46.4560 Y 66.8553 Z -1.0000
M5
G4 P0.1

(Change tool to Cylindrical cutter)

M5
G4 P0.1
G00 X 53.5680 Y 26.0460

M3 S300
G01 X 53.5680 Y 35.6133 Z -1.0000 F 1000.0000
G03 X 54.1600 Y 35.6451 Z -1.0000 I 0.0000 J 5.5374
G02 X 54.7377 Y 35.5622 Z -1.0000 I 0.1263 J -1.1750
G02 X 55.2087 Y 35.2245 Z -1.0000 I -0.4837 J -1.1717
G03 X 55.7693 Y 34.9461 Z -1.0000 I 0.6170 J 0.5390
G03 X 56.7180 Y 35.5011 Z -1.0000 I 0.0671 J 0.9736
G03 X 56.5120 Y 36.5959 Z -1.0000 I -0.8549 J 0.4059
G03 X 55.4258 Y 36.6147 Z -1.0000 I -0.5534 J -0.5876
G02 X 54.5828 Y 36.2185 Z -1.0000 I -1.1064 J 1.2592
G02 X 53.8227 Y 36.2595 Z -1.0000 I -0.2845 J 1.7906
G03 X 53.1111 Y 36.0702 Z -1.0000 I -0.1925 J -0.7083
G03 X 52.8326 Y 35.0535 Z -1.0000 I 0.7528 J -0.7528
G02 X 52.9753 Y 33.9199 Z -1.0000 I -4.4281 J -1.1335
G01 X 52.9753 Y 27.9086 Z -1.0000
G02 X 52.8161 Y 26.6820 Z -1.0000 I -4.8043 J 0.0000
G03 X 53.1111 Y 25.5890 Z -1.0000 I 1.0981 J -0.2900
G03 X 54.2781 Y 25.2777 Z -1.0000 I 0.8524 J 0.8525
G02 X 55.6000 Y 25.4533 Z -1.0000 I 1.3219 J -4.8902
G01 X 55.6000 Y 10.8059 Z -1.0000
G01 X 48.5727 Y 10.8059 Z -1.0000
G01 X 48.5727 Y 63.5533 Z -1.0000
G01 X 55.1767 Y 63.5533 Z -1.0000
G01 X 58.1400 Y 63.5023 Z -1.0000
G01 X 59.4947 Y 62.2833 Z -1.0000
G01 X 62.4580 Y 59.2353 Z -1.0000
G03 X 62.1892 Y 58.7507 Z -1.0000 I 0.3522 J -0.5122
G03 X 62.4702 Y 58.2345 Z -1.0000 I 0.5684 J -0.0252
G03 X 63.6067 Y 57.8777 Z -1.0000 I 1.3463 J 2.3000
G03 X 64.6442 Y 58.4080 Z -1.0000 I 0.0876 J 1.1088
G03 X 64.7257 Y 58.8676 Z -1.0000 I -0.5492 J 0.3345
G03 X 64.4775 Y 59.2572 Z -1.0000 I -0.6241 J -0.1238
G03 X 63.8920 Y 59.3999 Z -1.0000 I -0.4650 J -0.6356
G02 X 63.3047 Y 59.4917 Z -1.0000 I -0.1496 J 0.9670
G02 X 62.3542 Y 60.2591 Z -1.0000 I 1.2767 J 2.5534
G03 X 61.5267 Y 61.1827 Z -1.0000 I -8.8400 J -7.0889
G02 X 60.1442 Y 62.7564 Z -1.0000 I 11.4664 J 11.4664
G03 X 58.5633 Y 64.0590 Z -1.0000 I -3.6293 J -2.7943
G03 X 57.5667 Y 64.2202 Z -1.0000 I -0.7558 J -1.5114
G02 X 56.5313 Y 64.1460 Z -1.0000 I -1.0353 J 7.1902
G01 X 51.6207 Y 64.1460 Z -1.0000
G01 X 48.9960 Y 64.1460 Z -1.0000
G02 X 48.5139 Y 64.1843 Z -1.0000 I -0.0000 J 3.0568
G03 X 48.0670 Y 64.0103 Z -1.0000 I -0.0748 J -0.4686
G03 X 47.7872 Y 62.6737 Z -1.0000 I 1.1972 J -0.9482
G02 X 47.9800 Y 61.1827 Z -1.0000 I -5.6700 J -1.4910
G01 X 47.9800 Y 53.2240 Z -1.0000
G01 X 47.9800 Y 22.3207 Z -1.0000
G01 X 47.9800 Y 13.0920 Z -1.0000
G01 X 47.9800 Y 10.9753 Z -1.0000
G03 X 47.9899 Y 10.5681 Z -1.0000 I 9.2026 J 0.0188
G03 X 48.2465 Y 10.2402 Z -1.0000 I 0.3590 J 0.0166
G03 X 49.2048 Y 10.1570 Z -1.0000 I 0.6824 J 2.2987
G02 X 50.1813 Y 10.2134 Z -1.0000 I 0.9766 J -8.4338
G01 X 54.2453 Y 10.2134 Z -1.0000
G02 X 55.2321 Y 10.0736 Z -1.0000 I -0.0000 J -3.5535
G03 X 56.0928 Y 10.3491 Z -1.0000 I 0.2251 J 0.7789
G03 X 56.2241 Y 10.8210 Z -1.0000 I -0.4948 J 0.3918
G02 X 56.1927 Y 11.3140 Z -1.0000 I 3.8529 J 0.4930
G01 X 56.1927 Y 13.8540 Z -1.0000
G01 X 56.1927 Y 22.5747 Z -1.0000
G01 X 56.1927 Y 24.8607 Z -1.0000
G02 X 56.2222 Y 25.3642 Z -1.0000 I 4.3025 J 0.0000
G03 X 56.1056 Y 25.8498 Z -1.0000 I -0.7173 J 0.0845
G03 X 54.9498 Y 26.2577 Z -1.0000 I -0.8500 J -0.5671
G02 X 53.5680 Y 26.0460 Z -1.0000 I -1.3817 J 4.4048
M5
G4 P0.1

(Change tool to Cylindrical cutter)

M5
G4 P0.1
G00 X 51.0280 Y 17.7487

M3 S300
G03 X 51.6631 Y 17.7820 Z -1.0000 I 0.0000 J 6.0704 F 1000.0000
G02 X 52.2836 Y 17.6979 Z -1.0000 I 0.1381 J -1.3125
G02 X 52.8596 Y 17.3560 Z -1.0000 I -0.7599 J -1.9363
G03 X 53.5677 Y 17.2116 Z -1.0000 I 0.4873 J 0.5816
G03 X 54.2263 Y 18.1792 Z -1.0000 I -0.2715 J 0.8928
G03 X 53.3987 Y 19.0082 Z -1.0000 I -0.9016 J -0.0725
G03 X 52.7821 Y 18.7965 Z -1.0000 I -0.0664 J -0.8103
G02 X 52.2803 Y 18.4768 Z -1.0000 I -1.1495 J 1.2507
G02 X 51.6622 Y 18.3902 Z -1.0000 I -0.4772 J 1.1568
G03 X 51.0280 Y 18.4260 Z -1.0000 I -0.6342 J -5.5976
G01 X 51.0280 Y 22.8287 Z -1.0000
G03 X 51.6631 Y 22.8620 Z -1.0000 I -0.0000 J 6.0704
G02 X 52.2836 Y 22.7779 Z -1.0000 I 0.1381 J -1.3125
G02 X 52.8596 Y 22.4360 Z -1.0000 I -0.7599 J -1.9363
G03 X 53.5677 Y 22.2917 Z -1.0000 I 0.4873 J 0.5816
G03 X 54.2263 Y 23.2592 Z -1.0000 I -0.2715 J 0.8928
G03 X 53.3987 Y 24.0882 Z -1.0000 I -0.9016 J -0.0725
G03 X 52.7821 Y 23.8765 Z -1.0000 I -0.0664 J -0.8103
G02 X 52.2803 Y 23.5568 Z -1.0000 I -1.1495 J 1.2507
G02 X 51.6622 Y 23.4702 Z -1.0000 I -0.4772 J 1.1569
G03 X 51.0280 Y 23.5060 Z -1.0000 I -0.6342 J -5.5977
G01 X 51.0280 Y 38.1534 Z -1.0000
G01 X 54.8380 Y 38.1534 Z -1.0000
G01 X 54.8380 Y 37.4760 Z -1.0000
G01 X 56.8700 Y 37.4760 Z -1.0000
G01 X 56.8700 Y 39.4233 Z -1.0000
G01 X 54.8380 Y 39.4233 Z -1.0000
G01 X 54.8380 Y 38.7460 Z -1.0000
G01 X 52.2133 Y 38.7460 Z -1.0000
G01 X 51.1638 Y 38.8817 Z -1.0000
G01 X 51.0280 Y 40.3547 Z -1.0000
G01 X 51.0280 Y 44.5033 Z -1.0000
G01 X 51.0280 Y 60.9287 Z -1.0000
G03 X 52.6397 Y 61.0216 Z -1.0000 I -0.0000 J 14.0231
G02 X 54.2453 Y 61.0012 Z -1.0000 I 0.7233 J -6.2516
G02 X 55.0223 Y 60.7866 Z -1.0000 I -0.4401 J -3.1078
G03 X 55.8540 Y 60.6188 Z -1.0000 I 0.8317 J 1.9772
G03 X 56.6677 Y 60.7264 Z -1.0000 I -0.0000 J 3.1305
G03 X 57.0726 Y 61.5176 Z -1.0000 I -0.1558 J 0.5789
G03 X 56.4739 Y 61.9388 Z -1.0000 I -0.6099 J -0.2308
G03 X 55.7693 Y 61.9447 Z -1.0000 I -0.6893 J -40.1848
G03 X 55.0634 Y 61.8178 Z -1.0000 I 0.0010 J -2.0326
G02 X 54.4071 Y 61.6293 Z -1.0000 I -1.5735 J 4.2419
G02 X 53.2764 Y 61.5188 Z -1.0000 I -1.0803 J 5.2126
G03 X 52.1287 Y 61.5214 Z -1.0000 I -0.7597 J -80.1711
G02 X 51.2772 Y 61.6414 Z -1.0000 I -0.0147 J 2.9777
G03 X 50.5352 Y 61.3919 Z -1.0000 I -0.1922 J -0.6566
G03 X 50.3271 Y 60.4338 Z -1.0000 I 0.9587 J -0.7099
G02 X 50.4353 Y 59.4047 Z -1.0000 I -4.8371 J -1.0291
G01 X 50.4353 Y 53.9860 Z -1.0000
G01 X 50.4353 Y 20.3733 Z -1.0000
G01 X 50.4353 Y 15.1240 Z -1.0000
G02 X 50.3483 Y 14.0094 Z -1.0000 I -7.1794 J 0.0000
G03 X 50.4864 Y 12.9352 Z -1.0000 I 1.9107 J -0.3003
G03 X 51.2343 Y 12.6018 Z -1.0000 I 0.5566 J 0.2430
G02 X 52.0428 Y 12.7166 Z -1.0000 I 0.7213 J -2.1741
G02 X 52.9327 Y 12.3654 Z -1.0000 I -0.0549 J -1.4422
G03 X 54.1220 Y 12.5877 Z -1.0000 I 0.5062 J 0.5845
G03 X 54.1439 Y 13.4149 Z -1.0000 I -0.8217 J 0.4357
G03 X 53.4833 Y 13.9190 Z -1.0000 I -0.8092 J -0.3756
G03 X 52.4689 Y 13.5907 Z -1.0000 I -0.1922 J -1.1377
G02 X 51.3716 Y 13.2886 Z -1.0000 I -0.8097 J 0.7970
G02 X 51.0149 Y 13.7725 Z -1.0000 I 0.1210 J 0.4626
G03 X 51.0280 Y 14.3620 Z -1.0000 I -13.2665 J 0.5896
G01 X 51.0280 Y 17.7487 Z -1.0000
M5
G4 P0.1

(Change tool to Cylindrical cutter)

M5
G4 P0.1
G00 X 52.9753 Y 12.7533

M3 S300
G01 X 52.9753 Y 13.3460 Z -1.0000 F 1000.0000
G02 X 53.4677 Y 12.9886 Z -1.0000 I 0.1392 J -0.3261
G02 X 52.9753 Y 12.7533 Z -1.0000 I -0.3158 J 0.0280
M5
G4 P0.1

(Change tool to Cylindrical cutter)

M5
G4 P0.1
G00 X 52.9753 Y 17.8333

M3 S300
G01 X 52.9753 Y 18.4260 Z -1.0000 F 1000.0000
G02 X 53.4677 Y 18.0686 Z -1.0000 I 0.1392 J -0.3261
G02 X 52.9753 Y 17.8333 Z -1.0000 I -0.3158 J 0.0280
M5
G4 P0.1

(Change tool to Cylindrical cutter)

M5
G4 P0.1
G00 X 52.9753 Y 22.9133

M3 S300
G01 X 52.9753 Y 23.5060 Z -1.0000 F 1000.0000
G02 X 53.4677 Y 23.1486 Z -1.0000 I 0.1392 J -0.3261
G02 X 52.9753 Y 22.9133 Z -1.0000 I -0.3158 J 0.0280
M5
G4 P0.1

(Change tool to Cylindrical cutter)

M5
G4 P0.1
G00 X 54.5681 Y 46.0273

M3 S300
G03 X 55.8610 Y 44.7634 Z -1.0000 I 1.3142 J 0.0511 F 1000.0000
G03 X 57.1077 Y 46.1117 Z -1.0000 I 0.0200 J 1.2321
G03 X 55.8114 Y 47.3049 Z -1.0000 I -1.3117 J -0.1244
G03 X 54.5681 Y 46.0273 Z -1.0000 I -0.0143 J -1.2298
M5
G4 P0.1

(Change tool to Cylindrical cutter)

M5
G4 P0.1
G00 X 54.5681 Y 48.5673

M3 S300
G03 X 55.8610 Y 47.3034 Z -1.0000 I 1.3142 J 0.0511 F 1000.0000
G03 X 57.1077 Y 48.6517 Z -1.0000 I 0.0200 J 1.2321
G03 X 55.8114 Y 49.8449 Z -1.0000 I -1.3117 J -0.1244
G03 X 54.5681 Y 48.5673 Z -1.0000 I -0.0143 J -1.2298
M5
G4 P0.1

(Change tool to Cylindrical cutter)

M5
G4 P0.1
G00 X 54.5681 Y 51.1073

M3 S300
G03 X 55.8610 Y 49.8434 Z -1.0000 I 1.3142 J 0.0511 F 1000.0000
G03 X 57.1077 Y 51.1918 Z -1.0000 I 0.0200 J 1.2321
G03 X 55.8114 Y 52.3849 Z -1.0000 I -1.3117 J -0.1244
G03 X 54.5681 Y 51.1073 Z -1.0000 I -0.0143 J -1.2298
M5
G4 P0.1

(Change tool to Cylindrical cutter)

M5
G4 P0.1
G00 X 54.5681 Y 53.6474

M3 S300
G03 X 55.8610 Y 52.3834 Z -1.0000 I 1.3142 J 0.0511 F 1000.0000
G03 X 57.1077 Y 53.7318 Z -1.0000 I 0.0200 J 1.2321
G03 X 55.8114 Y 54.9249 Z -1.0000 I -1.3117 J -0.1244
G03 X 54.5681 Y 53.6474 Z -1.0000 I -0.0143 J -1.2298
M5
G4 P0.1

(Change tool to Cylindrical cutter)

M5
G4 P0.1
G00 X 54.5681 Y 56.1874

M3 S300
G03 X 55.8610 Y 54.9234 Z -1.0000 I 1.3142 J 0.0511 F 1000.0000
G03 X 57.1077 Y 56.2718 Z -1.0000 I 0.0200 J 1.2321
G03 X 55.8114 Y 57.4649 Z -1.0000 I -1.3117 J -0.1244
G03 X 54.5681 Y 56.1874 Z -1.0000 I -0.0143 J -1.2298
M5
G4 P0.1

(Change tool to Cylindrical cutter)

M5
G4 P0.1
G00 X 54.5681 Y 58.7274

M3 S300
G03 X 55.8610 Y 57.4634 Z -1.0000 I 1.3142 J 0.0511 F 1000.0000
G03 X 57.1077 Y 58.8118 Z -1.0000 I 0.0200 J 1.2321
G03 X 55.8114 Y 60.0049 Z -1.0000 I -1.3117 J -0.1244
G03 X 54.5681 Y 58.7274 Z -1.0000 I -0.0143 J -1.2298
M5
G4 P0.1

(Change tool to Cylindrical cutter)

M5
G4 P0.1
G00 X 58.0553 Y 27.9087

M3 S300
G01 X 58.0553 Y 13.2613 Z -1.0000 F 1000.0000
G01 X 58.0553 Y 9.3667 Z -1.0000
G02 X 57.9887 Y 8.5987 Z -1.0000 I -4.4605 J -0.0000
G03 X 58.1424 Y 7.8696 Z -1.0000 I 0.9877 J -0.1726
G03 X 58.7450 Y 7.6136 Z -1.0000 I 0.4964 J 0.3312
G02 X 59.4100 Y 7.6733 Z -1.0000 I 0.6650 J -3.6728
G01 X 63.1353 Y 7.6733 Z -1.0000
G01 X 78.4600 Y 7.6733 Z -1.0000
G01 X 82.6087 Y 7.6733 Z -1.0000
G02 X 83.3655 Y 7.5933 Z -1.0000 I 0.0000 J -3.6185
G03 X 84.0456 Y 7.8696 Z -1.0000 I 0.1366 J 0.6389
G03 X 84.1622 Y 8.3552 Z -1.0000 I -0.6008 J 0.4011
G02 X 84.1327 Y 8.8587 Z -1.0000 I 4.2741 J 0.5035
G01 X 84.1327 Y 11.1447 Z -1.0000
G01 X 84.1327 Y 19.9500 Z -1.0000
G01 X 84.1327 Y 49.9220 Z -1.0000
G01 X 84.1327 Y 54.4940 Z -1.0000
G02 X 84.2094 Y 55.4309 Z -1.0000 I 5.7571 J -0.0000
G03 X 84.0699 Y 56.3298 Z -1.0000 I -1.4375 J 0.2371
G03 X 83.5034 Y 56.5908 Z -1.0000 I -0.4489 J -0.2289
G02 X 82.8627 Y 56.5293 Z -1.0000 I -0.5390 J 2.2464
G02 X 81.7482 Y 56.9193 Z -1.0000 I 0.0907 J 2.0466
G03 X 80.5647 Y 56.6916 Z -1.0000 I -0.4853 J -0.6670
G03 X 80.5145 Y 55.9711 Z -1.0000 I 0.6467 J -0.4071
G03 X 81.0850 Y 55.5297 Z -1.0000 I 0.6995 J 0.3146
G03 X 81.6880 Y 55.6891 Z -1.0000 I 0.1265 J 0.7417
G02 X 82.1930 Y 55.9597 Z -1.0000 I 0.9416 J -1.1506
G02 X 82.8518 Y 55.9971 Z -1.0000 I 0.4054 J -1.3193
G03 X 83.5400 Y 55.9334 Z -1.0000 I 0.6883 J 3.6845
G01 X 83.5400 Y 8.2660 Z -1.0000
G01 X 65.0827 Y 8.2660 Z -1.0000
G01 X 60.4260 Y 8.2660 Z -1.0000
G01 X 58.7837 Y 8.4017 Z -1.0000
G01 X 58.6480 Y 10.2133 Z -1.0000
G01 X 58.6480 Y 15.2933 Z -1.0000
G01 X 64.4053 Y 15.2933 Z -1.0000
G03 X 65.8480 Y 15.3452 Z -1.0000 I -0.0000 J 20.0969
G02 X 67.2806 Y 15.2808 Z -1.0000 I 0.4419 J -6.1404
G02 X 67.7861 Y 14.9788 Z -1.0000 I -0.1286 J -0.7892
G03 X 68.3003 Y 14.6495 Z -1.0000 I 0.7137 J 0.5483
G03 X 68.9064 Y 14.7050 Z -1.0000 I 0.2177 J 0.9582
G02 X 69.4853 Y 14.7443 Z -1.0000 I 0.3452 J -0.8023
G02 X 71.0373 Y 14.1609 Z -1.0000 I -2.5001 J -9.0072
G02 X 72.4230 Y 13.2642 Z -1.0000 I -2.8473 J -5.9192
G02 X 72.8321 Y 12.6405 Z -1.0000 I -0.8402 J -0.9970
G03 X 73.4648 Y 12.0944 Z -1.0000 I 0.7438 J 0.2222
G03 X 74.1759 Y 12.3308 Z -1.0000 I 0.1197 J 0.8278
G02 X 74.7435 Y 12.7026 Z -1.0000 I 1.1757 J -1.1757
G02 X 76.1726 Y 12.9791 Z -1.0000 I 1.4606 J -3.7173
G02 X 77.5978 Y 12.7023 Z -1.0000 I 0.0288 J -3.6591
G02 X 78.3668 Y 12.2701 Z -1.0000 I -1.4018 J -3.3948
G03 X 79.4208 Y 12.3751 Z -1.0000 I 0.4685 J 0.6394
G03 X 79.6215 Y 13.3426 Z -1.0000 I -0.7154 J 0.6530
G03 X 78.8833 Y 13.9886 Z -1.0000 I -0.9316 J -0.3198
G03 X 78.0763 Y 13.7150 Z -1.0000 I -0.1671 J -0.8342
G02 X 77.3590 Y 13.3509 Z -1.0000 I -0.8120 J 0.7113
G03 X 76.0298 Y 13.2233 Z -1.0000 I 7.3531 J -83.5232
G02 X 74.7423 Y 13.3971 Z -1.0000 I -0.2854 J 2.7414
G02 X 74.2952 Y 13.7073 Z -1.0000 I 0.4253 J 1.0899
G03 X 73.8033 Y 13.9886 Z -1.0000 I -0.6677 J -0.5968
G03 X 73.2487 Y 13.9173 Z -1.0000 I -0.1718 J -0.8566
G02 X 72.7027 Y 13.8600 Z -1.0000 I -0.3517 J 0.7214
G02 X 71.1500 Y 14.4388 Z -1.0000 I 1.7927 J 7.1814
G02 X 69.7582 Y 15.3398 Z -1.0000 I 3.5568 J 7.0200
G02 X 69.3450 Y 15.9594 Z -1.0000 I 0.7857 J 0.9716
G03 X 68.7233 Y 16.5286 Z -1.0000 I -0.7816 J -0.2295
G03 X 67.8073 Y 16.2646 Z -1.0000 I -0.2034 J -1.0155
G02 X 66.8607 Y 15.8860 Z -1.0000 I -0.9495 J 1.0012
G02 X 62.7967 Y 15.8838 Z -1.0000 I -2.7093 J 1223.4146
G03 X 58.7327 Y 15.8860 Z -1.0000 I -4.0640 J -3670.2431
G01 X 58.7327 Y 27.9087 Z -1.0000
G01 X 62.2887 Y 27.9087 Z -1.0000
G01 X 63.6033 Y 28.0444 Z -1.0000
G01 X 63.7283 Y 29.3480 Z -1.0000
G01 X 63.8127 Y 32.9040 Z -1.0000
G01 X 63.8395 Y 34.8481 Z -1.0000
G01 X 64.3153 Y 35.8674 Z -1.0000
G01 X 63.8252 Y 37.0527 Z -1.0000
G01 X 63.9023 Y 39.8454 Z -1.0000
G01 X 64.3153 Y 40.9474 Z -1.0000
G01 X 63.8252 Y 42.0513 Z -1.0000
G01 X 63.8127 Y 45.4347 Z -1.0000
