%
(Header)
(Generated by gcodetools from Inkscape.)
(Using default header. To add your own header create file "header" in the output dir.)
M3
(Header end.)
G21 (All units in mm)

(Pass at depth -1.0)
(Start cutting path id: path854)
(Change tool to Cylindrical cutter)

M5
G4 P0.1
G00 X 4.3855 Y 50.5237

M3 S300
G01 X 4.3855 Y 6.4970 Z -1.0000 F 1000.0000
G01 X 36.9822 Y 6.4970 Z -1.0000
G01 X 36.9822 Y 50.5237 Z -1.0000
G01 X 4.3855 Y 50.5237 Z -1.0000
M5
G4 P0.1

(Change tool to Cylindrical cutter)

M5
G4 P0.1
G00 X 36.8129 Y 50.3543

M3 S300
G01 X 36.8129 Y 6.6663 Z -1.0000 F 1000.0000
G01 X 4.5549 Y 6.6663 Z -1.0000
G01 X 4.5549 Y 50.3543 Z -1.0000
G01 X 36.8129 Y 50.3543 Z -1.0000
M5
G4 P0.1

(Change tool to Cylindrical cutter)

M5
G4 P0.1
G00 X 13.3602 Y 37.0617

M3 S300
G03 X 12.7273 Y 36.4268 Z -1.0000 I 0.0020 J -0.6349 F 1000.0000
G03 X 13.3602 Y 35.7917 Z -1.0000 I 0.6351 J 0.0000
G01 X 13.3602 Y 34.5217 Z -1.0000
G01 X 12.0902 Y 34.1955 Z -1.0000
G01 X 9.5502 Y 34.1831 Z -1.0000
G01 X 9.5502 Y 34.8604 Z -1.0000
G01 X 7.6029 Y 34.8604 Z -1.0000
G01 X 7.6029 Y 32.9130 Z -1.0000
G01 X 9.5502 Y 32.9130 Z -1.0000
G01 X 9.5502 Y 33.5904 Z -1.0000
G03 X 10.8238 Y 33.6310 Z -1.0000 I -0.0000 J 19.9754
G02 X 12.0902 Y 33.5780 Z -1.0000 I 0.3831 J -5.9964
G02 X 13.1802 Y 33.3345 Z -1.0000 I -1.1411 J -7.6712
G03 X 14.3749 Y 33.2711 Z -1.0000 I 0.7278 J 2.4231
G03 X 14.7441 Y 34.0446 Z -1.0000 I -0.0980 J 0.5216
G03 X 13.9529 Y 34.5218 Z -1.0000 I -0.7995 J -0.4311
G01 X 13.9529 Y 35.7918 Z -1.0000
G03 X 14.5822 Y 36.4268 Z -1.0000 I -0.0057 J 0.6350
G03 X 13.9529 Y 37.0618 Z -1.0000 I -0.6350 J 0.0000
G01 X 13.9529 Y 48.8303 Z -1.0000
G01 X 31.0555 Y 48.8303 Z -1.0000
G03 X 31.0859 Y 48.2381 Z -1.0000 I 5.7919 J -0.0000
G02 X 31.0045 Y 47.6594 Z -1.0000 I -1.2120 J -0.1246
G02 X 30.6733 Y 47.1498 Z -1.0000 I -1.4600 J 0.5864
G03 X 30.4433 Y 46.5443 Z -1.0000 I 0.5862 J -0.5691
G03 X 30.7150 Y 45.9572 Z -1.0000 I 0.8524 J 0.0380
G02 X 31.0286 Y 45.4361 Z -1.0000 I -0.7477 J -0.8049
G02 X 31.1543 Y 44.1384 Z -1.0000 I -3.8408 J -1.0270
G02 X 31.0505 Y 42.8202 Z -1.0000 I -63.2592 J 4.3173
G02 X 30.7319 Y 42.1693 Z -1.0000 I -1.0078 J 0.0899
G03 X 30.4433 Y 41.4643 Z -1.0000 I 0.6183 J -0.6647
G03 X 30.7150 Y 40.8772 Z -1.0000 I 0.8524 J 0.0380
G02 X 31.0286 Y 40.3561 Z -1.0000 I -0.7477 J -0.8049
G02 X 31.1276 Y 39.1425 Z -1.0000 I -3.2874 J -0.8790
G03 X 31.0551 Y 37.9084 Z -1.0000 I 15.4612 J -1.5274
G02 X 30.7360 Y 37.1482 Z -1.0000 I -1.1148 J 0.0209
G03 X 30.4433 Y 36.3843 Z -1.0000 I 0.7318 J -0.7184
G03 X 30.7302 Y 35.7864 Z -1.0000 I 0.8448 J 0.0376
G02 X 31.0892 Y 35.2761 Z -1.0000 I -0.8750 J -0.9967
G02 X 31.1937 Y 34.4441 Z -1.0000 I -1.5754 J -0.6205
G03 X 31.1402 Y 33.5903 Z -1.0000 I 6.7848 J -0.8538
G03 X 31.1701 Y 32.9961 Z -1.0000 I 5.9245 J 0.0000
G02 X 31.0533 Y 32.4194 Z -1.0000 I -0.9894 J -0.0997
G02 X 30.6808 Y 31.9198 Z -1.0000 I -1.9556 J 1.0694
G03 X 30.4433 Y 31.3043 Z -1.0000 I 0.5841 J -0.5789
G03 X 30.7921 Y 30.5827 Z -1.0000 I 1.0143 J 0.0451
G02 X 31.1386 Y 29.8649 Z -1.0000 I -0.6609 J -0.7615
G03 X 31.2146 Y 28.6720 Z -1.0000 I 29.5586 J 1.2848
G02 X 31.1133 Y 27.4976 Z -1.0000 I -3.4729 J -0.2919
G02 X 30.7578 Y 26.9403 Z -1.0000 I -1.0422 J 0.2728
G03 X 30.4433 Y 26.3090 Z -1.0000 I 0.5543 J -0.6700
G03 X 30.7739 Y 25.5602 Z -1.0000 I 0.9208 J -0.0409
G02 X 31.1352 Y 24.8693 Z -1.0000 I -0.6502 J -0.7799
G03 X 31.2591 Y 23.5830 Z -1.0000 I 79.6494 J 7.0212
G02 X 31.0891 Y 22.3373 Z -1.0000 I -2.6337 J -0.2751
G02 X 30.7302 Y 21.8269 Z -1.0000 I -1.2339 J 0.4864
G03 X 30.4433 Y 21.2290 Z -1.0000 I 0.5579 J -0.6355
G03 X 30.7204 Y 20.5585 Z -1.0000 I 0.8577 J -0.0381
G02 X 31.0430 Y 19.9577 Z -1.0000 I -0.7011 J -0.7636
G02 X 31.1777 Y 18.5999 Z -1.0000 I -11.4635 J -1.8228
G02 X 31.0286 Y 17.2573 Z -1.0000 I -4.4966 J -0.1803
G02 X 30.7150 Y 16.7361 Z -1.0000 I -1.0614 J 0.2837
G03 X 30.4433 Y 16.1490 Z -1.0000 I 0.5807 J -0.6251
G03 X 30.7160 Y 15.5013 Z -1.0000 I 0.8193 J -0.0364
G02 X 31.0892 Y 14.9604 Z -1.0000 I -0.9314 J -1.0418
G02 X 31.2159 Y 13.8770 Z -1.0000 I -2.0586 J -0.7899
G03 X 31.1402 Y 12.7623 Z -1.0000 I 8.4372 J -1.1328
G02 X 30.7039 Y 11.5486 Z -1.0000 I -1.9176 J 0.0040
G03 X 31.2249 Y 10.0877 Z -1.0000 I 0.6985 J -0.5742
G03 X 32.1228 Y 10.4004 Z -1.0000 I 0.1838 J 0.9178
G03 X 32.3228 Y 11.3227 Z -1.0000 I -0.7657 J 0.6489
G03 X 32.0577 Y 11.7305 Z -1.0000 I -0.7906 J -0.2239
G02 X 31.7837 Y 12.1027 Z -1.0000 I 0.6159 J 0.7404
G02 X 31.5728 Y 13.4675 Z -1.0000 I 2.6931 J 1.1148
G02 X 31.7454 Y 14.8777 Z -1.0000 I 19.6881 J -1.6942
G02 X 32.0819 Y 15.5107 Z -1.0000 I 1.0896 J -0.1732
G03 X 32.3549 Y 16.2337 Z -1.0000 I -0.5961 J 0.6382
G03 X 32.0938 Y 16.7468 Z -1.0000 I -0.7850 J -0.0765
G02 X 31.7837 Y 17.1827 Z -1.0000 I 0.7924 J 0.8919
G02 X 31.4965 Y 18.6471 Z -1.0000 I 3.4915 J 1.4451
G02 X 31.7839 Y 20.1139 Z -1.0000 I 3.9903 J -0.0203
G02 X 32.1006 Y 20.5932 Z -1.0000 I 1.3283 J -0.5334
G03 X 32.3558 Y 21.1443 Z -1.0000 I -0.6219 J 0.6226
G03 X 32.0950 Y 21.7942 Z -1.0000 I -0.7813 J 0.0637
G02 X 31.7597 Y 22.3376 Z -1.0000 I 0.7371 J 0.8300
G02 X 31.6097 Y 23.6792 Z -1.0000 I 4.3683 J 1.1675
G02 X 31.7454 Y 25.0357 Z -1.0000 I 11.1426 J -0.4294
G02 X 32.0779 Y 25.6379 Z -1.0000 I 1.0081 J -0.1637
G03 X 32.3688 Y 26.3090 Z -1.0000 I -0.5692 J 0.6453
G03 X 32.0840 Y 26.9033 Z -1.0000 I -0.8133 J -0.0244
G02 X 31.7597 Y 27.4175 Z -1.0000 I 0.6653 J 0.7789
G02 X 31.6341 Y 28.7152 Z -1.0000 I 3.8415 J 1.0268
G02 X 31.7379 Y 30.0331 Z -1.0000 I 63.1965 J -4.3140
G02 X 32.0705 Y 30.6869 Z -1.0000 I 0.9806 J -0.0873
G03 X 32.3666 Y 31.3890 Z -1.0000 I -0.5728 J 0.6551
G03 X 32.1099 Y 31.9417 Z -1.0000 I -0.8185 J -0.0442
G02 X 31.7839 Y 32.4194 Z -1.0000 I 0.9209 J 0.9785
G02 X 31.7025 Y 32.9989 Z -1.0000 I 1.1310 J 0.4545
G03 X 31.7329 Y 33.5903 Z -1.0000 I -5.7366 J 0.5915
G03 X 31.6742 Y 34.4844 Z -1.0000 I -6.8467 J 0.0000
G02 X 31.7839 Y 35.3539 Z -1.0000 I 1.7128 J 0.2256
G02 X 32.1274 Y 35.8627 Z -1.0000 I 1.3540 J -0.5437
G03 X 32.3666 Y 36.4690 Z -1.0000 I -0.5416 J 0.5640
G03 X 32.0536 Y 37.1158 Z -1.0000 I -0.9284 J -0.0501
G02 X 31.7379 Y 37.7403 Z -1.0000 I 0.6255 J 0.7084
G02 X 31.6341 Y 39.0584 Z -1.0000 I 63.1483 J 5.6354
G02 X 31.7598 Y 40.3561 Z -1.0000 I 3.9661 J 0.2707
G02 X 32.1002 Y 40.9090 Z -1.0000 I 1.0940 J -0.2924
G03 X 32.3666 Y 41.5490 Z -1.0000 I -0.5322 J 0.5969
G03 X 32.0834 Y 42.1344 Z -1.0000 I -0.8403 J -0.0453
G02 X 31.7598 Y 42.6572 Z -1.0000 I 0.7049 J 0.7979
G02 X 31.5403 Y 44.1001 Z -1.0000 I 6.4037 J 1.7124
G02 X 31.7839 Y 45.5140 Z -1.0000 I 3.4171 J 0.1391
G02 X 32.0905 Y 45.9604 Z -1.0000 I 1.1518 J -0.4625
G03 X 32.3571 Y 46.4597 Z -1.0000 I -0.5928 J 0.6374
G03 X 32.0734 Y 47.2009 Z -1.0000 I -0.7817 J 0.1257
G02 X 31.6751 Y 47.8177 Z -1.0000 I 0.7399 J 0.9147
G02 X 31.6712 Y 48.5313 Z -1.0000 I 1.3923 J 0.3644
G03 X 31.5971 Y 49.2268 Z -1.0000 I -0.9863 J 0.2467
G03 X 31.1437 Y 49.4626 Z -1.0000 I -0.3871 J -0.1905
G02 X 30.6322 Y 49.4230 Z -1.0000 I -0.5115 J 3.2874
G01 X 27.6689 Y 49.4230 Z -1.0000
G01 X 17.0009 Y 49.4230 Z -1.0000
G01 X 14.3762 Y 49.4230 Z -1.0000
G02 X 13.8941 Y 49.4613 Z -1.0000 I 0.0000 J 3.0569
G03 X 13.4472 Y 49.2873 Z -1.0000 I -0.0748 J -0.4686
G03 X 13.3295 Y 48.8568 Z -1.0000 I 0.4459 J -0.3532
G02 X 13.3602 Y 48.4070 Z -1.0000 I -3.2840 J -0.4498
G01 X 13.3602 Y 46.0363 Z -1.0000
G01 X 13.3602 Y 37.0617 Z -1.0000
M5
G4 P0.1

(Change tool to Cylindrical cutter)

M5
G4 P0.1
G00 X 22.0809 Y 37.0617

M3 S300
G03 X 25.1816 Y 41.2307 Z -1.0000 I -26.6210 J 23.0368 F 1000.0000
G02 X 28.3367 Y 45.3465 Z -1.0000 I 24.7929 J -15.7390
G02 X 28.9532 Y 45.6435 Z -1.0000 I 0.6808 J -0.6247
G03 X 29.5905 Y 45.9609 Z -1.0000 I -0.0648 J 0.9288
G03 X 29.7497 Y 46.9489 Z -1.0000 I -0.7142 J 0.6219
G03 X 28.9389 Y 47.5409 Z -1.0000 I -0.8958 J -0.3756
G03 X 27.9119 Y 46.6022 Z -1.0000 I -0.0826 J -0.9408
G02 X 27.4680 Y 45.2743 Z -1.0000 I -2.2221 J 0.0048
G01 X 22.2610 Y 38.3317 Z -1.0000
G03 X 21.8358 Y 37.7225 Z -1.0000 I 8.6787 J -6.5100
G02 X 21.3156 Y 37.1974 Z -1.0000 I -1.5187 J 0.9844
G02 X 20.5736 Y 36.9982 Z -1.0000 I -0.6695 J 1.0123
G03 X 19.9805 Y 36.3841 Z -1.0000 I -0.0336 J -0.5611
G03 X 21.8484 Y 35.1197 Z -1.0000 I 1.4553 J 0.1380
G03 X 22.0809 Y 37.0617 Z -1.0000 I -0.3004 J 1.0209
M5
G4 P0.1

(Change tool to Cylindrical cutter)

M5
G4 P0.1
G00 X 32.9182 Y 47.5603

M3 S300
G01 X 32.9182 Y 45.6130 Z -1.0000 F 1000.0000
G02 X 33.2417 Y 45.6074 Z -1.0000 I -0.2078 J -21.3313
G02 X 33.5445 Y 45.4772 Z -1.0000 I -0.0110 J -0.4428
G02 X 33.7161 Y 44.9683 Z -1.0000 I -0.4304 J -0.4286
G03 X 33.6802 Y 44.4277 Z -1.0000 I 4.0495 J -0.5406
G03 X 33.6867 Y 43.2668 Z -1.0000 I 103.3063 J -0.0000
G02 X 32.9182 Y 42.4803 Z -1.0000 I -0.7777 J -0.0087
G01 X 32.9182 Y 40.5330 Z -1.0000
G02 X 33.2417 Y 40.5274 Z -1.0000 I -0.2111 J -21.6688
G02 X 33.5445 Y 40.3973 Z -1.0000 I -0.0109 J -0.4426
G02 X 33.7161 Y 39.8883 Z -1.0000 I -0.4305 J -0.4286
G03 X 33.6802 Y 39.3477 Z -1.0000 I 4.0505 J -0.5406
G03 X 33.6867 Y 38.1868 Z -1.0000 I 103.5036 J 0.0000
G02 X 32.9182 Y 37.4003 Z -1.0000 I -0.7777 J -0.0087
G01 X 32.9182 Y 35.4530 Z -1.0000
G02 X 33.2417 Y 35.4474 Z -1.0000 I -0.2111 J -21.6688
G02 X 33.5445 Y 35.3173 Z -1.0000 I -0.0109 J -0.4426
G02 X 33.7161 Y 34.8083 Z -1.0000 I -0.4305 J -0.4286
G03 X 33.6802 Y 34.2677 Z -1.0000 I 4.0505 J -0.5406
G03 X 33.6867 Y 33.1068 Z -1.0000 I 103.5036 J -0.0000
G02 X 32.9182 Y 32.3203 Z -1.0000 I -0.7777 J -0.0087
G01 X 32.9182 Y 30.3730 Z -1.0000
G01 X 33.5955 Y 30.3730 Z -1.0000
G01 X 33.5955 Y 27.2403 Z -1.0000
G01 X 32.9182 Y 27.2403 Z -1.0000
G01 X 32.9182 Y 25.2930 Z -1.0000
G01 X 33.5955 Y 25.2930 Z -1.0000
G01 X 33.5955 Y 22.1603 Z -1.0000
G01 X 32.9182 Y 22.1603 Z -1.0000
G01 X 32.9182 Y 20.2130 Z -1.0000
G01 X 33.5955 Y 20.2130 Z -1.0000
G01 X 33.5955 Y 17.0803 Z -1.0000
G01 X 32.9182 Y 17.0803 Z -1.0000
G01 X 32.9182 Y 15.1330 Z -1.0000
G01 X 33.5955 Y 15.1330 Z -1.0000
G01 X 33.5955 Y 12.0003 Z -1.0000
G01 X 32.9182 Y 12.0003 Z -1.0000
G01 X 32.9182 Y 10.0530 Z -1.0000
G01 X 33.6802 Y 10.0530 Z -1.0000
G01 X 33.6802 Y 8.7830 Z -1.0000
G01 X 6.2482 Y 8.7830 Z -1.0000
G01 X 6.2482 Y 31.0503 Z -1.0000
G01 X 7.4260 Y 30.9992 Z -1.0000
G01 X 8.5342 Y 30.3898 Z -1.0000
G01 X 9.8901 Y 31.0453 Z -1.0000
G01 X 12.1749 Y 31.0238 Z -1.0000
G01 X 13.1062 Y 30.7132 Z -1.0000
G01 X 15.8155 Y 31.0503 Z -1.0000
G01 X 15.8155 Y 18.9430 Z -1.0000
G02 X 14.9522 Y 19.0980 Z -1.0000 I 0.0003 J 2.4837
G03 X 14.1222 Y 19.2878 Z -1.0000 I -1.1397 J -3.0733
G03 X 13.3606 Y 19.3568 Z -1.0000 I -8.5775 J -90.4075
G03 X 12.6175 Y 19.1818 Z -1.0000 I -0.1052 J -1.2182
G03 X 12.3412 Y 18.6677 Z -1.0000 I 0.3017 J -0.4935
G03 X 12.6107 Y 18.1591 Z -1.0000 I 0.6590 J 0.0236
G03 X 13.9589 Y 18.0043 Z -1.0000 I 0.8101 J 1.1068
G02 X 15.1415 Y 18.3381 Z -1.0000 I 1.8878 J -4.4264
G02 X 15.7210 Y 18.3140 Z -1.0000 I 0.2267 J -1.5315
G03 X 16.2725 Y 18.4373 Z -1.0000 I 0.1481 J 0.6326
G03 X 16.4276 Y 18.8031 Z -1.0000 I -0.2572 J 0.3249
G02 X 16.4082 Y 19.1969 Z -1.0000 I 3.9539 J 0.3923
G01 X 16.4082 Y 21.3136 Z -1.0000
G01 X 16.4082 Y 28.9336 Z -1.0000
G02 X 16.6118 Y 30.3544 Z -1.0000 I 5.0593 J 0.0000
G03 X 16.2725 Y 31.5885 Z -1.0000 I -1.1693 J 0.3422
G03 X 15.7662 Y 31.7016 Z -1.0000 I -0.3498 J -0.3759
G02 X 15.2229 Y 31.6551 Z -1.0000 I -0.3736 J 1.1675
G02 X 14.1634 Y 31.8728 Z -1.0000 I 1.1805 J 8.4328
G03 X 13.0215 Y 31.9766 Z -1.0000 I -0.8637 J -3.1676
G03 X 12.5135 Y 31.8122 Z -1.0000 I 0.0997 J -1.1756
G02 X 12.0055 Y 31.6479 Z -1.0000 I -0.6077 J 1.0112
G03 X 10.8078 Y 31.5304 Z -1.0000 I 3.9451 J -46.3712
G02 X 9.6505 Y 31.6940 Z -1.0000 I -0.2598 J 2.3368
G02 X 9.2750 Y 31.9819 Z -1.0000 I 0.3478 J 0.8424
G03 X 8.8716 Y 32.2649 Z -1.0000 I -0.6510 J -0.4990
G03 X 8.1474 Y 32.1640 Z -1.0000 I -0.2564 J -0.8092
G03 X 7.5787 Y 31.7783 Z -1.0000 I 15.4282 J -23.3614
G02 X 6.5719 Y 31.7169 Z -1.0000 I -0.5538 J 0.7953
G03 X 5.7426 Y 31.5204 Z -1.0000 I -0.3024 J -0.5719
G03 X 5.5841 Y 30.7989 Z -1.0000 I 0.7678 J -0.5468
G02 X 5.6555 Y 30.0343 Z -1.0000 I -4.0543 J -0.7646
G01 X 5.6555 Y 26.3089 Z -1.0000
G01 X 5.6555 Y 13.1856 Z -1.0000
G01 X 5.6555 Y 9.7143 Z -1.0000
G02 X 5.6013 Y 9.0349 Z -1.0000 I -4.2813 J -0.0000
G03 X 5.7426 Y 8.3865 Z -1.0000 I 0.8969 J -0.1442
G03 X 6.5365 Y 8.0798 Z -1.0000 I 0.6147 J 0.4102
G02 X 7.4335 Y 8.1903 Z -1.0000 I 0.8970 J -3.5875
G01 X 12.3442 Y 8.1903 Z -1.0000
G01 X 29.0235 Y 8.1903 Z -1.0000
G01 X 32.7489 Y 8.1903 Z -1.0000
G02 X 33.4688 Y 8.1213 Z -1.0000 I 0.0000 J -3.7936
G03 X 34.1371 Y 8.3260 Z -1.0000 I 0.1414 J 0.7317
G03 X 34.3744 Y 9.1483 Z -1.0000 I -0.6262 J 0.6260
G02 X 34.2729 Y 10.0529 Z -1.0000 I 3.9802 J 0.9047
G01 X 34.9502 Y 10.0529 Z -1.0000
G01 X 34.9502 Y 12.0003 Z -1.0000
G01 X 34.2729 Y 12.0003 Z -1.0000
G01 X 34.2729 Y 15.1329 Z -1.0000
G01 X 34.9502 Y 15.1329 Z -1.0000
G01 X 34.9502 Y 17.0803 Z -1.0000
G01 X 34.2729 Y 17.0803 Z -1.0000
G01 X 34.2729 Y 20.2129 Z -1.0000
G01 X 34.9502 Y 20.2129 Z -1.0000
G01 X 34.9502 Y 22.1603 Z -1.0000
G01 X 34.2729 Y 22.1603 Z -1.0000
G01 X 34.2729 Y 25.2930 Z -1.0000
G01 X 34.9502 Y 25.2930 Z -1.0000
G01 X 34.9502 Y 27.2403 Z -1.0000
G01 X 34.2729 Y 27.2403 Z -1.0000
G01 X 34.2729 Y 30.3729 Z -1.0000
G01 X 34.9502 Y 30.3729 Z -1.0000
G01 X 34.9502 Y 32.3203 Z -1.0000
G02 X 34.1817 Y 33.1067 Z -1.0000 I 0.0092 J 0.7777
G03 X 34.1882 Y 34.2676 Z -1.0000 I -103.4584 J 1.1609
G03 X 34.1523 Y 34.8083 Z -1.0000 I -4.0866 J 0.0000
G02 X 34.3239 Y 35.3172 Z -1.0000 I 0.6021 J 0.0804
G02 X 34.6267 Y 35.4472 Z -1.0000 I 0.3132 J -0.3121
G02 X 34.9502 Y 35.4530 Z -1.0000 I 0.6551 J -27.6714
G01 X 34.9502 Y 37.4003 Z -1.0000
G02 X 34.1817 Y 38.1867 Z -1.0000 I 0.0092 J 0.7777
G03 X 34.1882 Y 39.3476 Z -1.0000 I -103.4584 J 1.1609
G03 X 34.1523 Y 39.8883 Z -1.0000 I -4.0866 J 0.0000
G02 X 34.3239 Y 40.3972 Z -1.0000 I 0.6021 J 0.0804
G02 X 34.6267 Y 40.5272 Z -1.0000 I 0.3132 J -0.3121
G02 X 34.9502 Y 40.5329 Z -1.0000 I 0.6551 J -27.6714
G01 X 34.9502 Y 42.4803 Z -1.0000
G02 X 34.1817 Y 43.2667 Z -1.0000 I 0.0092 J 0.7777
G03 X 34.1882 Y 44.4276 Z -1.0000 I -103.3383 J 1.1609
G03 X 34.1523 Y 44.9682 Z -1.0000 I -4.0856 J 0.0000
G02 X 34.3239 Y 45.4772 Z -1.0000 I 0.6020 J 0.0804
G02 X 34.6267 Y 45.6072 Z -1.0000 I 0.3133 J -0.3121
G02 X 34.9502 Y 45.6129 Z -1.0000 I 0.6426 J -26.9504
G01 X 34.9502 Y 47.5603 Z -1.0000
G01 X 32.9182 Y 47.5603 Z -1.0000
M5
G4 P0.1

(Change tool to Cylindrical cutter)

M5
G4 P0.1
G00 X 28.8542 Y 46.1210

M3 S300
G01 X 28.3462 Y 46.4596 Z -1.0000 F 1000.0000
G02 X 28.9730 Y 46.6733 Z -1.0000 I 0.3760 J -0.0768
G02 X 28.8542 Y 46.1210 Z -1.0000 I -0.2104 J -0.2437
M5
G4 P0.1

(Change tool to Cylindrical cutter)

M5
G4 P0.1
G00 X 34.2729 Y 46.2056

M3 S300
G01 X 33.5955 Y 46.2056 Z -1.0000 F 1000.0000
G02 X 33.9393 Y 46.7275 Z -1.0000 I 0.3421 J 0.1488
G02 X 34.2729 Y 46.2056 Z -1.0000 I -0.0017 J -0.3686
M5
G4 P0.1

(Change tool to Cylindrical cutter)

M5
G4 P0.1
G00 X 31.7329 Y 46.9676

M3 S300
G01 X 31.7329 Y 46.2056 Z -1.0000 F 1000.0000
G01 X 31.6482 Y 46.2056 Z -1.0000
G01 X 31.7329 Y 46.9676 Z -1.0000
M5
G4 P0.1

(Change tool to Cylindrical cutter)

M5
G4 P0.1
G00 X 31.0555 Y 46.8830

M3 S300
G01 X 31.0555 Y 46.2903 Z -1.0000 F 1000.0000
G01 X 30.9709 Y 46.2903 Z -1.0000
G01 X 31.0555 Y 46.8830 Z -1.0000
M5
G4 P0.1

(Change tool to Cylindrical cutter)

M5
G4 P0.1
G00 X 22.2502 Y 34.4370

M3 S300
G01 X 25.3829 Y 37.5696 Z -1.0000 F 1000.0000
G01 X 27.4149 Y 39.6016 Z -1.0000
G03 X 27.8773 Y 40.1094 Z -1.0000 I -5.1921 J 5.1922
G02 X 28.4309 Y 40.5065 Z -1.0000 I 1.0328 J -0.8557
G02 X 29.1023 Y 40.6707 Z -1.0000 I 0.9880 J -2.5839
G03 X 29.7368 Y 41.1260 Z -1.0000 I -0.0919 J 0.7977
G03 X 29.4577 Y 42.2753 Z -1.0000 I -0.8520 J 0.4017
G03 X 28.2708 Y 42.2674 Z -1.0000 I -0.5884 J -0.7678
G03 X 27.9348 Y 41.5290 Z -1.0000 I 0.5473 J -0.6947
G02 X 27.6606 Y 40.7793 Z -1.0000 I -1.0234 J -0.0507
G02 X 25.1052 Y 38.1790 Z -1.0000 I -51.4870 J 48.0410
G03 X 22.5042 Y 35.6223 Z -1.0000 I 147.6128 J -152.7706
G03 X 21.9930 Y 35.0695 Z -1.0000 I 6.8166 J -6.8167
G02 X 21.4035 Y 34.6086 Z -1.0000 I -1.4315 J 1.2237
G02 X 20.6031 Y 34.4568 Z -1.0000 I -0.6680 J 1.3357
G03 X 19.9924 Y 33.7600 Z -1.0000 I -0.0509 J -0.5714
G03 X 21.6281 Y 32.6161 Z -1.0000 I 1.4440 J 0.3234
G03 X 22.2502 Y 34.4370 Z -1.0000 I -0.1390 J 1.0642
M5
G4 P0.1

(Change tool to Cylindrical cutter)

M5
G4 P0.1
G00 X 28.7695 Y 41.0410

M3 S300
G01 X 28.3462 Y 41.4643 Z -1.0000 F 1000.0000
G02 X 28.9662 Y 41.5838 Z -1.0000 I 0.3449 J -0.1212
G02 X 28.7695 Y 41.0410 Z -1.0000 I -0.2482 J -0.2172
M5
G4 P0.1

(Change tool to Cylindrical cutter)

M5
G4 P0.1
G00 X 33.6802 Y 41.8876

M3 S300
G01 X 34.2729 Y 41.8876 Z -1.0000 F 1000.0000
G01 X 34.2729 Y 41.1256 Z -1.0000
G01 X 33.5955 Y 41.1256 Z -1.0000
G02 X 33.5227 Y 41.5208 Z -1.0000 I 0.7473 J 0.3420
G02 X 33.6802 Y 41.8876 Z -1.0000 I 0.5960 J -0.0387
M5
G4 P0.1

(Change tool to Cylindrical cutter)

M5
G4 P0.1
G00 X 31.0555 Y 41.8029

M3 S300
G01 X 31.0555 Y 41.2103 Z -1.0000 F 1000.0000
G01 X 30.9709 Y 41.2103 Z -1.0000
G01 X 31.0555 Y 41.8029 Z -1.0000
M5
G4 P0.1

(Change tool to Cylindrical cutter)

M5
G4 P0.1
G00 X 31.7329 Y 41.8029

M3 S300
G02 X 31.8094 Y 41.4879 Z -1.0000 I -0.4071 J -0.2657 F 1000.0000
G02 X 31.6482 Y 41.2103 Z -1.0000 I -0.3880 J 0.0396
G01 X 31.7329 Y 41.8029 Z -1.0000
M5
G4 P0.1

(Change tool to Cylindrical cutter)

M5
G4 P0.1
G00 X 22.4195 Y 31.8122

M3 S300
G03 X 24.0197 Y 32.7688 Z -1.0000 I -4.1193 J 8.7070 F 1000.0000
G02 X 25.5522 Y 33.8443 Z -1.0000 I 23.2860 J -31.5550
G01 X 27.4995 Y 35.1424 Z -1.0000
G02 X 28.6476 Y 35.4293 Z -1.0000 I 0.9762 J -1.4660
G03 X 29.6414 Y 35.8809 Z -1.0000 I 0.1064 J 1.0850
G03 X 29.5894 Y 37.0558 Z -1.0000 I -0.7764 J 0.5543
G03 X 28.4321 Y 37.2887 Z -1.0000 I -0.7275 J -0.6232
G03 X 27.9642 Y 36.6346 Z -1.0000 I 0.3873 J -0.7715
G02 X 27.5792 Y 35.9643 Z -1.0000 I -1.0201 J 0.1402
G02 X 25.0764 Y 34.2220 Z -1.0000 I -16.6560 J 21.2565
G03 X 22.5042 Y 32.5742 Z -1.0000 I 44.3200 J -72.0195
G03 X 22.0586 Y 32.2711 Z -1.0000 I 15.3847 J -23.0938
G02 X 21.5729 Y 32.0365 Z -1.0000 I -0.9827 J 1.4148
G02 X 20.6766 Y 31.9684 Z -1.0000 I -0.6029 J 2.0019
G03 X 19.9805 Y 31.3042 Z -1.0000 I -0.0860 J -0.6067
G03 X 21.1466 Y 30.1615 Z -1.0000 I 1.2591 J 0.1185
G03 X 22.4195 Y 31.8122 Z -1.0000 I 0.0918 J 1.2454
M5
G4 P0.1

(Change tool to Cylindrical cutter)

M5
G4 P0.1
G00 X 28.6849 Y 35.9609

M3 S300
G01 X 28.3462 Y 36.4689 Z -1.0000 F 1000.0000
G02 X 28.9439 Y 36.4914 Z -1.0000 I 0.3057 J -0.1715
G02 X 28.6849 Y 35.9609 Z -1.0000 I -0.2850 J -0.1893
M5
G4 P0.1

(Change tool to Cylindrical cutter)

M5
G4 P0.1
G00 X 21.2342 Y 36.8076

M3 S300
G01 X 21.6575 Y 36.4689 Z -1.0000 F 1000.0000
G02 X 21.1876 Y 36.3446 Z -1.0000 I -0.2797 J 0.1070
G02 X 21.2342 Y 36.8076 Z -1.0000 I 0.1776 J 0.2160
M5
G4 P0.1

(Change tool to Cylindrical cutter)

M5
G4 P0.1
G00 X 31.1402 Y 36.8076

M3 S300
G01 X 31.7329 Y 36.8076 Z -1.0000 F 1000.0000
G01 X 31.7329 Y 36.0456 Z -1.0000
G01 X 31.0555 Y 36.0456 Z -1.0000
G02 X 30.9827 Y 36.4408 Z -1.0000 I 0.7473 J 0.3420
G02 X 31.1402 Y 36.8076 Z -1.0000 I 0.5960 J -0.0387
M5
G4 P0.1

(Change tool to Cylindrical cutter)

M5
G4 P0.1
G00 X 33.6802 Y 36.8076

M3 S300
G01 X 34.2729 Y 36.8076 Z -1.0000 F 1000.0000
G01 X 34.2729 Y 36.0456 Z -1.0000
G01 X 33.5955 Y 36.0456 Z -1.0000
G02 X 33.5227 Y 36.4408 Z -1.0000 I 0.7473 J 0.3420
G02 X 33.6802 Y 36.8076 Z -1.0000 I 0.5960 J -0.0387
M5
G4 P0.1

(Change tool to Cylindrical cutter)

M5
G4 P0.1
G00 X 13.9529 Y 36.7229

M3 S300
G01 X 13.9529 Y 36.1302 Z -1.0000 F 1000.0000
G01 X 13.2755 Y 36.2149 Z -1.0000
G01 X 13.2755 Y 36.6382 Z -1.0000
G01 X 13.9529 Y 36.7229 Z -1.0000
M5
G4 P0.1

(Change tool to Cylindrical cutter)

M5
G4 P0.1
G00 X 8.8729 Y 34.2676

M3 S300
G01 X 8.8729 Y 33.5056 Z -1.0000 F 1000.0000
G02 X 8.3686 Y 33.8866 Z -1.0000 I -0.1082 J 0.3810
G02 X 8.8729 Y 34.2676 Z -1.0000 I 0.3961 J 0.0000
M5
G4 P0.1

(Change tool to Cylindrical cutter)

M5
G4 P0.1
G00 X 21.2342 Y 34.2676

M3 S300
G01 X 21.6575 Y 33.9290 Z -1.0000 F 1000.0000
G02 X 21.1876 Y 33.8046 Z -1.0000 I -0.2797 J 0.1070
G02 X 21.2342 Y 34.2676 Z -1.0000 I 0.1776 J 0.2160
M5
G4 P0.1

(Change tool to Cylindrical cutter)

M5
G4 P0.1
G00 X 13.9529 Y 34.1829

M3 S300
G02 X 13.8194 Y 33.7232 Z -1.0000 I -0.5253 J -0.0967 F 1000.0000
G02 X 13.3602 Y 33.5902 Z -1.0000 I -0.3401 J 0.3152
G01 X 13.9529 Y 34.1829 Z -1.0000
M5
G4 P0.1

(Change tool to Cylindrical cutter)

M5
G4 P0.1
G00 X 28.5159 Y 32.2574

M3 S300
G03 X 28.0207 Y 31.7668 Z -1.0000 I 0.3127 J -0.8108 F 1000.0000
G02 X 27.5793 Y 31.2668 Z -1.0000 I -0.9139 J 0.3621
G02 X 26.4188 Y 30.8104 Z -1.0000 I -2.3708 J 4.3251
G03 X 25.2135 Y 30.4576 Z -1.0000 I 4.1769 J -16.5013
G03 X 23.7050 Y 29.9024 Z -1.0000 I 8.2357 J -24.7050
G02 X 22.1655 Y 29.4692 Z -1.0000 I -2.7453 J 6.8037
G02 X 20.9640 Y 29.5509 Z -1.0000 I -0.4286 J 2.5708
G03 X 19.9852 Y 28.9323 Z -1.0000 I -0.2256 J -0.7267
G03 X 20.8053 Y 28.0430 Z -1.0000 I 0.7721 J -0.1108
G03 X 21.9949 Y 28.1909 Z -1.0000 I -0.5942 J 9.6365
G03 X 22.5204 Y 28.5972 Z -1.0000 I -0.1349 J 0.7174
G02 X 23.0135 Y 29.0701 Z -1.0000 I 0.8636 J -0.4069
G02 X 25.2393 Y 29.8656 Z -1.0000 I 8.2924 J -19.6891
G03 X 27.4995 Y 30.5705 Z -1.0000 I -23.4006 J 79.0149
G02 X 28.4574 Y 30.4935 Z -1.0000 I 0.3871 J -1.1819
G03 X 29.4377 Y 30.5858 Z -1.0000 I 0.4183 J 0.8096
G03 X 29.6946 Y 31.8233 Z -1.0000 I -0.6039 J 0.7708
G03 X 28.5159 Y 32.2574 Z -1.0000 I -0.8363 J -0.4536
M5
G4 P0.1

(Change tool to Cylindrical cutter)

M5
G4 P0.1
G00 X 8.8729 Y 31.7276

M3 S300
G01 X 8.8729 Y 31.6429 Z -1.0000 F 1000.0000
G01 X 8.1955 Y 31.6429 Z -1.0000
G01 X 8.8729 Y 31.7276 Z -1.0000
M5
G4 P0.1

(Change tool to Cylindrical cutter)

M5
G4 P0.1
G00 X 28.6002 Y 30.8809

M3 S300
G01 X 28.4309 Y 31.4736 Z -1.0000 F 1000.0000
G02 X 28.9308 Y 31.4800 Z -1.0000 I 0.2518 J -0.1389
G02 X 28.6002 Y 30.8809 Z -1.0000 I -0.3436 J -0.2012
M5
G4 P0.1

(Change tool to Cylindrical cutter)

M5
G4 P0.1
G00 X 13.8682 Y 31.7277

M3 S300
G01 X 13.8682 Y 31.0503 Z -1.0000 F 1000.0000
G01 X 13.3602 Y 31.0503 Z -1.0000
G01 X 13.4449 Y 31.7277 Z -1.0000
G01 X 13.8682 Y 31.7277 Z -1.0000
M5
G4 P0.1

(Change tool to Cylindrical cutter)

M5
G4 P0.1
G00 X 21.3189 Y 31.7277

M3 S300
G01 X 21.6575 Y 31.3043 Z -1.0000 F 1000.0000
G02 X 21.1559 Y 31.2857 Z -1.0000 I -0.2574 J 0.1674
G02 X 21.3189 Y 31.7277 Z -1.0000 I 0.2220 J 0.1692
M5
G4 P0.1

(Change tool to Cylindrical cutter)

M5
G4 P0.1
G00 X 31.1402 Y 31.7277

M3 S300
G01 X 31.7329 Y 31.7277 Z -1.0000 F 1000.0000
G01 X 31.7329 Y 30.9657 Z -1.0000
G01 X 31.0555 Y 30.9657 Z -1.0000
G02 X 30.9827 Y 31.3609 Z -1.0000 I 0.7473 J 0.3420
G02 X 31.1402 Y 31.7277 Z -1.0000 I 0.5960 J -0.0387
M5
G4 P0.1

(Change tool to Cylindrical cutter)

M5
G4 P0.1
G00 X 33.6802 Y 31.7277

M3 S300
G01 X 34.2729 Y 31.7277 Z -1.0000 F 1000.0000
G01 X 34.2729 Y 30.9657 Z -1.0000
G01 X 33.5955 Y 30.9657 Z -1.0000
G02 X 33.5290 Y 31.3613 Z -1.0000 I 0.8836 J 0.3520
G02 X 33.6802 Y 31.7277 Z -1.0000 I 0.5845 J -0.0268
M5
G4 P0.1

(Change tool to Cylindrical cutter)

M5
G4 P0.1
G00 X 8.8729 Y 31.0503

M3 S300
G01 X 8.8729 Y 30.9656 Z -1.0000 F 1000.0000
G01 X 8.1955 Y 30.9656 Z -1.0000
G01 X 8.8729 Y 31.0503 Z -1.0000
M5
G4 P0.1

(Change tool to Cylindrical cutter)

M5
G4 P0.1
G00 X 8.1959 Y 29.7175

M3 S300
G03 X 7.5875 Y 28.7260 Z -1.0000 I 0.3449 J -0.8940 F 1000.0000
G03 X 8.3649 Y 27.8676 Z -1.0000 I 0.9724 J 0.0995
G03 X 9.1852 Y 28.1458 Z -1.0000 I 0.1715 J 0.8428
G02 X 9.8901 Y 28.5053 Z -1.0000 I 0.7987 J -0.6951
G02 X 11.0387 Y 28.5852 Z -1.0000 I 2.6316 J -29.5629
G02 X 12.1749 Y 28.4839 Z -1.0000 I 0.2058 J -4.1130
G02 X 13.3255 Y 28.1466 Z -1.0000 I -2.3684 J -10.2112
G03 X 14.6121 Y 28.2715 Z -1.0000 I 0.5103 J 1.4319
G03 X 14.9080 Y 28.8940 Z -1.0000 I -0.3157 J 0.5316
G03 X 14.4593 Y 29.4049 Z -1.0000 I -0.6202 J -0.0922
G03 X 13.2553 Y 29.4013 Z -1.0000 I -0.5957 J -2.0939
G02 X 12.1673 Y 29.1266 Z -1.0000 I -4.3770 J 15.0402
G02 X 10.9904 Y 29.0103 Z -1.0000 I -1.1000 J 5.1202
G02 X 9.8079 Y 29.1156 Z -1.0000 I 0.1178 J 8.0176
G02 X 9.1027 Y 29.5009 Z -1.0000 I 0.1970 J 1.1984
G03 X 8.1959 Y 29.7175 Z -1.0000 I -0.6109 J -0.5506
M5
G4 P0.1

(Change tool to Cylindrical cutter)

M5
G4 P0.1
G00 X 8.8729 Y 29.1877

M3 S300
G01 X 8.8729 Y 28.4257 Z -1.0000 F 1000.0000
G02 X 8.3716 Y 28.8081 Z -1.0000 I -0.1041 J 0.3833
G02 X 8.8729 Y 29.1877 Z -1.0000 I 0.3937 J 0.0009
M5
G4 P0.1

(Change tool to Cylindrical cutter)

M5
G4 P0.1
G00 X 13.3602 Y 28.5104

M3 S300
G01 X 13.3602 Y 29.1030 Z -1.0000 F 1000.0000
G02 X 13.7413 Y 28.8099 Z -1.0000 I 0.0778 J -0.2931
G02 X 13.3602 Y 28.5104 Z -1.0000 I -0.3083 J 0.0000
M5
G4 P0.1

(Change tool to Cylindrical cutter)

M5
G4 P0.1
G00 X 21.4035 Y 29.1877

M3 S300
G01 X 21.5729 Y 28.5104 Z -1.0000 F 1000.0000
G02 X 21.1295 Y 28.7815 Z -1.0000 I -0.0768 J 0.3725
G02 X 21.4035 Y 29.1877 Z -1.0000 I 0.3108 J 0.0859
M5
G4 P0.1

(Change tool to Cylindrical cutter)

M5
G4 P0.1
G00 X 8.1959 Y 27.1775

M3 S300
G03 X 7.5875 Y 26.1860 Z -1.0000 I 0.3449 J -0.8941 F 1000.0000
G03 X 8.3649 Y 25.3277 Z -1.0000 I 0.9723 J 0.0994
G03 X 9.1780 Y 25.6027 Z -1.0000 I 0.1702 J 0.8362
G02 X 9.8901 Y 25.9654 Z -1.0000 I 0.8074 J -0.7049
G02 X 11.0380 Y 26.0423 Z -1.0000 I 2.3086 J -25.8457
G02 X 12.1749 Y 25.9448 Z -1.0000 I 0.1964 J -4.3858
G02 X 13.3283 Y 25.6106 Z -1.0000 I -1.9500 J -8.8880
G03 X 14.6121 Y 25.7315 Z -1.0000 I 0.5141 J 1.4169
G03 X 14.9076 Y 26.3542 Z -1.0000 I -0.3155 J 0.5312
G03 X 14.4593 Y 26.8649 Z -1.0000 I -0.6210 J -0.0930
G03 X 13.2553 Y 26.8686 Z -1.0000 I -0.6086 J -2.1266
G02 X 12.1673 Y 26.5886 Z -1.0000 I -7.3421 J 26.2690
G02 X 10.9917 Y 26.4655 Z -1.0000 I -1.0704 J 4.5477
G02 X 9.8079 Y 26.5756 Z -1.0000 I 0.1909 J 8.4730
G02 X 9.1027 Y 26.9609 Z -1.0000 I 0.1970 J 1.1984
G03 X 8.1959 Y 27.1776 Z -1.0000 I -0.6109 J -0.5506
M5
G4 P0.1

(Change tool to Cylindrical cutter)

M5
G4 P0.1
G00 X 28.5159 Y 27.1776

M3 S300
G03 X 28.0972 Y 26.8708 Z -1.0000 I 0.3556 J -0.9245 F 1000.0000
G02 X 27.6656 Y 26.5900 Z -1.0000 I -0.6385 J 0.5094
G02 X 26.8263 Y 26.5224 Z -1.0000 I -0.6098 J 2.3291
G03 X 25.9755 Y 26.5631 Z -1.0000 I -0.8507 J -8.8835
G03 X 24.0794 Y 26.5034 Z -1.0000 I 0.0000 J -30.1814
G02 X 22.2502 Y 26.8069 Z -1.0000 I -0.2585 J 4.1064
G03 X 21.1082 Y 27.1201 Z -1.0000 I -1.8278 J -4.4263
G03 X 20.0640 Y 26.6284 Z -1.0000 I -0.1499 J -1.0361
G03 X 20.1701 Y 25.8875 Z -1.0000 I 0.5028 J -0.3061
G03 X 20.8109 Y 25.6322 Z -1.0000 I 0.6591 J 0.7224
G03 X 21.8727 Y 25.7795 Z -1.0000 I 0.0646 J 3.4335
G02 X 22.8442 Y 25.9655 Z -1.0000 I 1.3638 J -4.4940
G02 X 25.0003 Y 26.0143 Z -1.0000 I 1.4772 J -17.6208
G03 X 27.1609 Y 25.9705 Z -1.0000 I 2.2862 J 59.4997
G02 X 28.1033 Y 25.5963 Z -1.0000 I -0.0037 J -1.3833
G03 X 29.0235 Y 25.3236 Z -1.0000 I 0.7319 J 0.7806
G03 X 29.7878 Y 26.5353 Z -1.0000 I -0.1707 J 0.9545
G03 X 28.5159 Y 27.1777 Z -1.0000 I -0.9270 J -0.2550
M5
G4 P0.1

(Change tool to Cylindrical cutter)

M5
G4 P0.1
G00 X 8.8729 Y 26.6478

M3 S300
G01 X 8.8729 Y 25.8858 Z -1.0000 F 1000.0000
G02 X 8.3716 Y 26.2682 Z -1.0000 I -0.1041 J 0.3833
G02 X 8.8729 Y 26.6478 Z -1.0000 I 0.3937 J 0.0009
M5
G4 P0.1

(Change tool to Cylindrical cutter)

M5
G4 P0.1
G00 X 28.5155 Y 25.8858

M3 S300
G01 X 28.5155 Y 26.6478 Z -1.0000 F 1000.0000
G02 X 29.0198 Y 26.2641 Z -1.0000 I 0.1081 J -0.3810
G02 X 28.5155 Y 25.8858 Z -1.0000 I -0.3960 J 0.0027
M5
G4 P0.1

(Change tool to Cylindrical cutter)

M5
G4 P0.1
G00 X 13.3602 Y 25.9705

M3 S300
G01 X 13.3602 Y 26.5632 Z -1.0000 F 1000.0000
G02 X 13.7413 Y 26.2701 Z -1.0000 I 0.0778 J -0.2931
G02 X 13.3602 Y 25.9705 Z -1.0000 I -0.3083 J 0.0000
M5
G4 P0.1

(Change tool to Cylindrical cutter)

M5
G4 P0.1
G00 X 21.4882 Y 26.6479

M3 S300
G01 X 21.4882 Y 25.9705 Z -1.0000 F 1000.0000
G02 X 21.1251 Y 26.2548 Z -1.0000 I -0.0648 J 0.2914
G02 X 21.4882 Y 26.6479 Z -1.0000 I 0.3844 J 0.0092
M5
G4 P0.1

(Change tool to Cylindrical cutter)

M5
G4 P0.1
G00 X 31.1402 Y 26.6479

M3 S300
G01 X 31.7329 Y 26.6479 Z -1.0000 F 1000.0000
G01 X 31.7329 Y 25.8859 Z -1.0000
G01 X 31.0555 Y 25.8859 Z -1.0000
G02 X 30.9827 Y 26.2811 Z -1.0000 I 0.7473 J 0.3420
G02 X 31.1402 Y 26.6479 Z -1.0000 I 0.5960 J -0.0387
M5
G4 P0.1

(Change tool to Cylindrical cutter)

M5
G4 P0.1
G00 X 33.6802 Y 26.5632

M3 S300
G01 X 33.6802 Y 25.9705 Z -1.0000 F 1000.0000
G01 X 33.5109 Y 26.5632 Z -1.0000
G01 X 33.6802 Y 26.5632 Z -1.0000
M5
G4 P0.1

(Change tool to Cylindrical cutter)

M5
G4 P0.1
G00 X 34.3576 Y 26.5632

M3 S300
G01 X 34.3576 Y 25.9705 Z -1.0000 F 1000.0000
G01 X 34.2729 Y 25.9705 Z -1.0000
G01 X 34.3576 Y 26.5632 Z -1.0000
M5
G4 P0.1

(Change tool to Cylindrical cutter)

M5
G4 P0.1
G00 X 8.1959 Y 24.6377

M3 S300
G03 X 7.5875 Y 23.6461 Z -1.0000 I 0.3449 J -0.8941 F 1000.0000
G03 X 8.3649 Y 22.7878 Z -1.0000 I 0.9723 J 0.0994
G03 X 9.1780 Y 23.0628 Z -1.0000 I 0.1702 J 0.8362
G02 X 9.8901 Y 23.4255 Z -1.0000 I 0.8074 J -0.7049
G02 X 11.0380 Y 23.5024 Z -1.0000 I 2.3086 J -25.8457
G02 X 12.1749 Y 23.4049 Z -1.0000 I 0.1964 J -4.3858
G02 X 13.3284 Y 23.0707 Z -1.0000 I -1.9500 J -8.8880
G03 X 14.6121 Y 23.1916 Z -1.0000 I 0.5141 J 1.4169
G03 X 14.9076 Y 23.8144 Z -1.0000 I -0.3155 J 0.5312
G03 X 14.4593 Y 24.3251 Z -1.0000 I -0.6210 J -0.0930
G03 X 13.2558 Y 24.3289 Z -1.0000 I -0.6085 J -2.1263
G02 X 12.1673 Y 24.0487 Z -1.0000 I -7.3685 J 26.3754
G02 X 11.0352 Y 23.9470 Z -1.0000 I -0.9228 J 3.9206
G02 X 9.8902 Y 24.0281 Z -1.0000 I 1.5928 J 30.6109
G02 X 9.1360 Y 24.4088 Z -1.0000 I 0.1021 J 1.1397
G03 X 8.1959 Y 24.6376 Z -1.0000 I -0.6349 J -0.5627
M5
G4 P0.1

(Change tool to Cylindrical cutter)

M5
G4 P0.1
G00 X 21.1496 Y 24.3962

M3 S300
G03 X 20.2975 Y 24.1517 Z -1.0000 I 0.0665 J -1.8389 F 1000.0000
G03 X 20.3079 Y 23.1916 Z -1.0000 I 0.2749 J -0.4771
G03 X 21.3417 Y 23.0439 Z -1.0000 I 0.7136 J 1.3026
G02 X 22.4196 Y 23.0275 Z -1.0000 I 0.5042 J -2.2833
G02 X 24.8055 Y 22.2749 Z -1.0000 I -5.2735 J -20.8785
G03 X 27.1609 Y 21.4267 Z -1.0000 I 24.7705 J 65.0872
G02 X 28.0451 Y 20.6993 Z -1.0000 I -0.5223 J -1.5362
G03 X 29.1081 Y 20.2619 Z -1.0000 I 0.8142 J 0.4682
G03 X 29.8202 Y 21.0625 Z -1.0000 I -0.2606 J 0.9487
G03 X 29.3543 Y 22.0273 Z -1.0000 I -0.9365 J 0.1426
G03 X 28.3973 Y 22.0722 Z -1.0000 I -0.5224 J -0.9124
G02 X 27.4149 Y 22.0193 Z -1.0000 I -0.5590 J 1.2317
G03 X 25.1999 Y 22.7165 Z -1.0000 I -26.9103 J -81.6172
G02 X 23.0138 Y 23.4906 Z -1.0000 I 6.8246 J 22.7478
G02 X 22.6281 Y 23.8396 Z -1.0000 I 0.2906 J 0.7090
G03 X 22.3113 Y 24.2143 Z -1.0000 I -1.0266 J -0.5465
G03 X 21.7503 Y 24.4062 Z -1.0000 I -0.5636 J -0.7317
G03 X 21.1496 Y 24.3961 Z -1.0000 I -0.0424 J -15.4608
M5
G4 P0.1

(Change tool to Cylindrical cutter)

M5
G4 P0.1
G00 X 8.8729 Y 24.1078

M3 S300
G01 X 8.8729 Y 23.3458 Z -1.0000 F 1000.0000
G02 X 8.3716 Y 23.7282 Z -1.0000 I -0.1041 J 0.3833
G02 X 8.8729 Y 24.1078 Z -1.0000 I 0.3937 J 0.0009
M5
G4 P0.1

(Change tool to Cylindrical cutter)

M5
G4 P0.1
G00 X 13.3602 Y 23.4304

M3 S300
G01 X 13.3602 Y 24.0231 Z -1.0000 F 1000.0000
G02 X 13.7413 Y 23.7299 Z -1.0000 I 0.0778 J -0.2931
G02 X 13.3602 Y 23.4304 Z -1.0000 I -0.3083 J 0.0000
M5
G4 P0.1

(Change tool to Cylindrical cutter)

M5
G4 P0.1
G00 X 21.5729 Y 24.0231

M3 S300
G01 X 21.5729 Y 23.8538 Z -1.0000 F 1000.0000
G01 X 21.4036 Y 23.3458 Z -1.0000
G02 X 21.1276 Y 23.7608 Z -1.0000 I 0.0529 J 0.3345
G02 X 21.5729 Y 24.0231 Z -1.0000 I 0.3505 J -0.0859
M5
G4 P0.1

(Change tool to Cylindrical cutter)

M5
G4 P0.1
G00 X 8.1959 Y 22.0976

M3 S300
G03 X 7.5875 Y 21.1060 Z -1.0000 I 0.3449 J -0.8941 F 1000.0000
G03 X 8.3649 Y 20.2477 Z -1.0000 I 0.9723 J 0.0994
G03 X 9.1780 Y 20.5227 Z -1.0000 I 0.1702 J 0.8362
G02 X 9.8901 Y 20.8854 Z -1.0000 I 0.8074 J -0.7049
G02 X 11.0380 Y 20.9624 Z -1.0000 I 2.3086 J -25.8457
G02 X 12.1749 Y 20.8648 Z -1.0000 I 0.1964 J -4.3858
G02 X 13.3284 Y 20.5306 Z -1.0000 I -1.9500 J -8.8880
G03 X 14.6121 Y 20.6516 Z -1.0000 I 0.5141 J 1.4169
G03 X 14.9070 Y 21.2746 Z -1.0000 I -0.3149 J 0.5303
G03 X 14.4593 Y 21.7851 Z -1.0000 I -0.6228 J -0.0947
G03 X 13.2561 Y 21.7897 Z -1.0000 I -0.6098 J -2.1060
G02 X 12.1673 Y 21.5086 Z -1.0000 I -7.1065 J 25.2757
G02 X 10.9917 Y 21.3856 Z -1.0000 I -1.0704 J 4.5477
G02 X 9.8079 Y 21.4956 Z -1.0000 I 0.1909 J 8.4730
G02 X 9.1027 Y 21.8809 Z -1.0000 I 0.1970 J 1.1984
G03 X 8.1959 Y 22.0976 Z -1.0000 I -0.6109 J -0.5506
M5
G4 P0.1

(Change tool to Cylindrical cutter)

M5
G4 P0.1
G00 X 22.4196 Y 20.7211

M3 S300
G03 X 22.0038 Y 21.6653 Z -1.0000 I -0.7525 J 0.2323 F 1000.0000
G03 X 20.9802 Y 21.8447 Z -1.0000 I -0.8380 J -1.7713
G03 X 20.4052 Y 21.7585 Z -1.0000 I 0.5111 J -5.3717
G03 X 19.9852 Y 21.3125 Z -1.0000 I 0.1072 J -0.5217
G03 X 20.6716 Y 20.5866 Z -1.0000 I 0.6311 J -0.0907
G02 X 21.5729 Y 20.5163 Z -1.0000 I 0.2391 J -2.7463
G02 X 22.0614 Y 20.2921 Z -1.0000 I -0.3457 J -1.3981
G03 X 22.5042 Y 19.9873 Z -1.0000 I 10.4569 J 14.7139
G03 X 25.0868 Y 18.3500 Z -1.0000 I 37.0347 J 55.5606
G02 X 27.5792 Y 16.5928 Z -1.0000 I -10.9418 J -18.1658
G02 X 27.9622 Y 15.9151 Z -1.0000 I -0.6810 J -0.8319
G03 X 28.4322 Y 15.2565 Z -1.0000 I 0.8740 J 0.1267
G03 X 29.6143 Y 15.5111 Z -1.0000 I 0.4360 J 0.8475
G03 X 29.6265 Y 16.7237 Z -1.0000 I -0.7729 J 0.6141
G03 X 28.6520 Y 17.1399 Z -1.0000 I -0.8543 J -0.6513
G02 X 27.4996 Y 17.4191 Z -1.0000 I -0.1935 J 1.7193
G01 X 25.5522 Y 18.7173 Z -1.0000
G02 X 24.0345 Y 19.8128 Z -1.0000 I 13.9651 J 20.9468
G03 X 22.4196 Y 20.7211 Z -1.0000 I -3.8118 J -4.8874
M5
G4 P0.1

(Change tool to Cylindrical cutter)

M5
G4 P0.1
G00 X 8.9576 Y 21.5678

M3 S300
G01 X 8.8729 Y 20.8058 Z -1.0000 F 1000.0000
G02 X 8.4253 Y 21.1589 Z -1.0000 I -0.0930 J 0.3424
G02 X 8.9576 Y 21.5678 Z -1.0000 I 0.4333 J -0.0131
M5
G4 P0.1

(Change tool to Cylindrical cutter)

M5
G4 P0.1
G00 X 28.4309 Y 21.0598

M3 S300
G01 X 28.6002 Y 21.6524 Z -1.0000 F 1000.0000
G02 X 28.9288 Y 21.0513 Z -1.0000 I -0.0129 J -0.3974
G02 X 28.4309 Y 21.0598 Z -1.0000 I -0.2465 J 0.1471
M5
G4 P0.1

(Change tool to Cylindrical cutter)

M5
G4 P0.1
G00 X 13.3602 Y 20.8904

M3 S300
G01 X 13.3602 Y 21.4831 Z -1.0000 F 1000.0000
G02 X 13.7413 Y 21.1900 Z -1.0000 I 0.0778 J -0.2931
G02 X 13.3602 Y 20.8904 Z -1.0000 I -0.3083 J 0.0000
M5
G4 P0.1

(Change tool to Cylindrical cutter)

M5
G4 P0.1
G00 X 21.5729 Y 21.2291

M3 S300
G01 X 21.3189 Y 20.8058 Z -1.0000 F 1000.0000
G02 X 21.1752 Y 21.3112 Z -1.0000 I 0.0888 J 0.2984
G02 X 21.5729 Y 21.2291 Z -1.0000 I 0.1751 J -0.1559
M5
G4 P0.1

(Change tool to Cylindrical cutter)

M5
G4 P0.1
G00 X 31.1402 Y 21.5678

M3 S300
G01 X 31.1402 Y 20.8904 Z -1.0000 F 1000.0000
G02 X 30.9874 Y 21.2272 Z -1.0000 I 0.2155 J 0.3009
G02 X 31.1402 Y 21.5678 Z -1.0000 I 0.5823 J -0.0567
M5
G4 P0.1

(Change tool to Cylindrical cutter)

M5
G4 P0.1
G00 X 31.8176 Y 21.4831

M3 S300
G01 X 31.8176 Y 20.8904 Z -1.0000 F 1000.0000
G01 X 31.7329 Y 20.8904 Z -1.0000
G01 X 31.8176 Y 21.4831 Z -1.0000
M5
G4 P0.1

(Change tool to Cylindrical cutter)

M5
G4 P0.1
G00 X 33.5956 Y 21.4831

M3 S300
G01 X 33.5956 Y 20.8904 Z -1.0000 F 1000.0000
G01 X 33.5109 Y 20.8904 Z -1.0000
G01 X 33.5956 Y 21.4831 Z -1.0000
M5
G4 P0.1

(Change tool to Cylindrical cutter)

M5
G4 P0.1
G00 X 34.3576 Y 21.4831

M3 S300
G01 X 34.3576 Y 20.8904 Z -1.0000 F 1000.0000
G01 X 34.2729 Y 20.8904 Z -1.0000
G01 X 34.3576 Y 21.4831 Z -1.0000
M5
G4 P0.1

(Change tool to Cylindrical cutter)

M5
G4 P0.1
G00 X 22.2502 Y 18.1811

M3 S300
G03 X 22.5207 Y 18.6664 Z -1.0000 I -0.3530 J 0.5148 F 1000.0000
G03 X 22.2390 Y 19.1819 Z -1.0000 I -0.5638 J 0.0266
G03 X 20.9493 Y 19.5741 Z -1.0000 I -1.4896 J -2.5820
G03 X 19.9784 Y 18.6888 Z -1.0000 I -0.0611 J -0.9082
G03 X 20.6238 Y 18.0769 Z -1.0000 I 0.5986 J -0.0151
G02 X 21.4036 Y 17.9247 Z -1.0000 I 0.1161 J -1.4792
G02 X 21.9930 Y 17.4639 Z -1.0000 I -0.8421 J -1.6845
G03 X 22.5042 Y 16.9111 Z -1.0000 I 7.3278 J 6.2638
G03 X 25.0714 Y 14.3991 Z -1.0000 I 116.7335 J 116.7333
G02 X 27.5792 Y 11.8311 Z -1.0000 I -36.9182 J -38.5606
G02 X 27.8982 Y 11.0242 Z -1.0000 I -0.9009 J -0.8226
G03 X 28.2708 Y 10.2777 Z -1.0000 I 0.9591 J 0.0124
G03 X 29.4786 Y 10.3066 Z -1.0000 I 0.5861 J 0.7583
G03 X 29.7204 Y 11.4888 Z -1.0000 I -0.6358 J 0.7459
G03 X 29.0966 Y 11.9002 Z -1.0000 I -0.6659 J -0.3311
G02 X 28.4309 Y 12.0387 Z -1.0000 I 0.1301 J 2.2948
G02 X 27.8762 Y 12.4287 Z -1.0000 I 0.4580 J 1.2409
G03 X 27.4149 Y 12.9317 Z -1.0000 I -6.0385 J -5.0739
G01 X 25.4676 Y 14.8791 Z -1.0000
G03 X 23.7829 Y 16.4662 Z -1.0000 I -27.4597 J -27.4596
G02 X 22.2502 Y 18.1811 Z -1.0000 I 6.6145 J 7.4541
M5
G4 P0.1

(Change tool to Cylindrical cutter)

M5
G4 P0.1
G00 X 13.8682 Y 19.0278

M3 S300
G01 X 13.8682 Y 18.3504 Z -1.0000 F 1000.0000
G02 X 13.5051 Y 18.6341 Z -1.0000 I -0.0649 J 0.2912
G02 X 13.8682 Y 19.0278 Z -1.0000 I 0.3844 J 0.0097
M5
G4 P0.1

(Change tool to Cylindrical cutter)

M5
G4 P0.1
G00 X 21.6576 Y 18.6891

M3 S300
G01 X 21.2342 Y 18.2658 Z -1.0000 F 1000.0000
G02 X 21.1612 Y 18.7470 Z -1.0000 I 0.1418 J 0.2677
G02 X 21.6576 Y 18.6891 Z -1.0000 I 0.2254 J -0.2241
M5
G4 P0.1

(Change tool to Cylindrical cutter)

M5
G4 P0.1
G00 X 28.3462 Y 16.0644

M3 S300
G01 X 28.6849 Y 16.5724 Z -1.0000 F 1000.0000
G02 X 28.9407 Y 16.0459 Z -1.0000 I -0.0256 J -0.3378
G02 X 28.3462 Y 16.0644 Z -1.0000 I -0.2915 J 0.1954
M5
G4 P0.1

(Change tool to Cylindrical cutter)

M5
G4 P0.1
G00 X 31.1402 Y 16.4031

M3 S300
G01 X 31.1402 Y 15.8104 Z -1.0000 F 1000.0000
G01 X 30.9709 Y 16.4031 Z -1.0000
G01 X 31.1402 Y 16.4031 Z -1.0000
M5
G4 P0.1

(Change tool to Cylindrical cutter)

M5
G4 P0.1
G00 X 31.8176 Y 16.4031

M3 S300
G01 X 31.8176 Y 15.8104 Z -1.0000 F 1000.0000
G01 X 31.7329 Y 15.8104 Z -1.0000
G01 X 31.8176 Y 16.4031 Z -1.0000
M5
G4 P0.1

(Change tool to Cylindrical cutter)

M5
G4 P0.1
G00 X 33.5956 Y 16.4031

M3 S300
G01 X 33.5956 Y 15.8104 Z -1.0000 F 1000.0000
G01 X 33.5109 Y 15.8104 Z -1.0000
G01 X 33.5956 Y 16.4031 Z -1.0000
M5
G4 P0.1

(Change tool to Cylindrical cutter)

M5
G4 P0.1
G00 X 34.3576 Y 16.4031

M3 S300
G01 X 34.3576 Y 15.8104 Z -1.0000 F 1000.0000
G01 X 34.2729 Y 15.8104 Z -1.0000
G01 X 34.3576 Y 16.4031 Z -1.0000
M5
G4 P0.1

(Change tool to Cylindrical cutter)

M5
G4 P0.1
G00 X 28.3462 Y 11.0691

M3 S300
G01 X 28.8542 Y 11.5771 Z -1.0000 F 1000.0000
G02 X 28.9243 Y 10.9145 Z -1.0000 I -0.1904 J -0.3551
G02 X 28.3462 Y 11.0691 Z -1.0000 I -0.2354 J 0.2778
M5
G4 P0.1

(Change tool to Cylindrical cutter)

M5
G4 P0.1
G00 X 31.1402 Y 11.4078

M3 S300
G01 X 31.6482 Y 11.4078 Z -1.0000 F 1000.0000
G01 X 31.7329 Y 11.4078 Z -1.0000
G02 X 31.3447 Y 10.8518 Z -1.0000 I -0.3423 J -0.1745
G02 X 31.1402 Y 11.4078 Z -1.0000 I 0.0398 J 0.3302
M5
G4 P0.1

(Change tool to Cylindrical cutter)

M5
G4 P0.1
G00 X 33.6802 Y 11.4078

M3 S300
G01 X 33.6802 Y 10.6457 Z -1.0000 F 1000.0000
G01 X 33.5956 Y 10.6457 Z -1.0000
G02 X 33.5290 Y 11.0413 Z -1.0000 I 0.8836 J 0.3520
G02 X 33.6802 Y 11.4078 Z -1.0000 I 0.5845 J -0.0268
M5
G4 P0.1

(Change tool to Cylindrical cutter)

M5
G4 P0.1
G00 X 34.3576 Y 11.3231

M3 S300
G01 X 34.3576 Y 10.7304 Z -1.0000 F 1000.0000
G01 X 34.2729 Y 10.7304 Z -1.0000
G01 X 34.3576 Y 11.3231 Z -1.0000
M5
G4 P0.1

(End cutting path id: path854)


(Pass at depth -2.0)


(Footer)
M5
G4 P0.1
G00 X0.0000 Y0.0000
M2
(Using default footer. To add your own footer create file "footer" in the output dir.)
(end)
%
